;-- START GCODE --
;Sliced for Type A Machines Series 1
;Sliced at: Sat 14-03-2015 17:33:14
;Basic settings: Layer height: 0.15 Walls: 0.8 Fill: 12
;Print Speed: 100 Support: 0 
;Retraction Speed: 40 Retraction Distance: 1.2
;Print time: #P_TIME#
;Filament used: #F_AMNT#m #F_WGHT#g
;Filament cost: #F_COST#
M106 S255	 ;start with the fan on
G21        ;metric values
G90        ;absolute positioning
M106 S255    ;start with the fan on
G28     ;move to endstops
G29		;allows for auto-levelling
G1 X150 Y5  Z15.0 F12000 ;center and move the platform down 15mm
M109 S220 ;Heat To temp
G92 E0                  ;zero the extruded length
G1 F200 E30              ;extrude 30mm of feed stock
G92 E0                  ;zero the extruded length again
G1 X175 Y25  Z0 F12000 ;remove bugger
G1 X220 F12000 ;remove bugger
G1 X150 Y150  Z15 F12000 ;recenter and begin
G1 F12000

;Layer count: 27
;LAYER:0
M106 S255
G0 F12000 X141.67 Y141.18 Z0.25
;TYPE:SKIRT
G1 F1800 X142.37 Y140.55 E0.03904
G1 X143.10 Y139.97 E0.07788
G1 X143.87 Y139.43 E0.11690
G1 X144.66 Y138.93 E0.15593
G1 X145.49 Y138.49 E0.19483
G1 X146.34 Y138.09 E0.23387
G1 X147.21 Y137.75 E0.27285
G1 X148.10 Y137.46 E0.31172
G1 X149.01 Y137.23 E0.35068
G1 X149.93 Y137.04 E0.38975
G1 X150.86 Y136.92 E0.42881
G1 X151.79 Y136.85 E0.46766
G1 X152.73 Y136.84 E0.50650
G1 X153.67 Y136.88 E0.54558
G1 X154.60 Y136.98 E0.58454
G1 X155.52 Y137.13 E0.62348
G1 X156.44 Y137.34 E0.66246
G1 X157.34 Y137.60 E0.70144
G1 X158.22 Y137.92 E0.74043
G1 X159.08 Y138.28 E0.77932
G1 X159.92 Y138.70 E0.81835
G1 X160.73 Y139.17 E0.85734
G1 X161.52 Y139.69 E0.89635
G1 X162.26 Y140.25 E0.93524
G1 X162.98 Y140.86 E0.97413
G1 X163.66 Y141.50 E1.01318
G1 X164.30 Y142.19 E1.05221
G1 X164.89 Y142.92 E1.09124
G1 X165.44 Y143.68 E1.13008
G1 X165.94 Y144.46 E1.16899
G1 X166.40 Y145.28 E1.20808
G1 X166.81 Y146.13 E1.24711
G1 X167.16 Y147.00 E1.28601
G1 X167.47 Y147.88 E1.32490
G1 X167.72 Y148.79 E1.36393
G1 X167.91 Y149.71 E1.40299
G1 X168.05 Y150.63 E1.44192
G1 X168.13 Y151.56 E1.48078
G1 X168.16 Y152.50 E1.51980
G1 X168.13 Y153.44 E1.55882
G1 X168.05 Y154.37 E1.59768
G1 X167.91 Y155.29 E1.63661
G1 X167.72 Y156.21 E1.67567
G1 X167.47 Y157.12 E1.71470
G1 X167.16 Y158.00 E1.75359
G1 X166.81 Y158.87 E1.79249
G1 X166.40 Y159.72 E1.83152
G1 X165.94 Y160.54 E1.87061
G1 X165.44 Y161.32 E1.90952
G1 X164.89 Y162.08 E1.94836
G1 X164.30 Y162.81 E1.98739
G1 X163.66 Y163.50 E2.02643
G1 X162.98 Y164.14 E2.06548
G1 X162.26 Y164.75 E2.10436
G1 X161.52 Y165.31 E2.14326
G1 X160.73 Y165.83 E2.18226
G1 X159.92 Y166.30 E2.22125
G1 X159.08 Y166.72 E2.26028
G1 X158.22 Y167.08 E2.29917
G1 X157.34 Y167.40 E2.33816
G1 X156.44 Y167.66 E2.37714
G1 X155.52 Y167.87 E2.41612
G1 X154.60 Y168.02 E2.45506
G1 X153.67 Y168.12 E2.49403
G1 X152.73 Y168.16 E2.53310
G1 X151.79 Y168.15 E2.57194
G1 X150.86 Y168.08 E2.61079
G1 X149.93 Y167.96 E2.64985
G1 X149.01 Y167.77 E2.68892
G1 X148.10 Y167.54 E2.72789
G1 X147.21 Y167.25 E2.76675
G1 X146.34 Y166.91 E2.80573
G1 X145.49 Y166.51 E2.84477
G1 X144.66 Y166.07 E2.88367
G1 X143.87 Y165.57 E2.92270
G1 X143.10 Y165.03 E2.96172
G1 X142.37 Y164.45 E3.00057
G1 X141.67 Y163.82 E3.03960
G1 X141.01 Y163.16 E3.07858
G1 X140.40 Y162.45 E3.11751
G1 X139.82 Y161.71 E3.15639
G1 X139.29 Y160.93 E3.19546
G1 X138.81 Y160.13 E3.23454
G1 X138.38 Y159.30 E3.27340
G1 X138.00 Y158.44 E3.31228
G1 X137.67 Y157.56 E3.35141
G1 X137.40 Y156.67 E3.39034
G1 X137.17 Y155.76 E3.42929
G1 X137.01 Y154.84 E3.46824
G1 X136.89 Y153.91 E3.50719
G1 X136.84 Y152.97 E3.54626
G1 X136.84 Y152.03 E3.58509
G1 X136.89 Y151.09 E3.62415
G1 X137.01 Y150.16 E3.66310
G1 X137.17 Y149.24 E3.70205
G1 X137.40 Y148.33 E3.74100
G1 X137.67 Y147.44 E3.77993
G1 X138.00 Y146.56 E3.81906
G1 X138.38 Y145.70 E3.85794
G1 X138.81 Y144.87 E3.89680
G1 X139.29 Y144.07 E3.93588
G1 X139.82 Y143.29 E3.97495
G1 X140.40 Y142.55 E4.01383
G1 X141.01 Y141.84 E4.05276
G1 X141.67 Y141.18 E4.09174
G0 F12000 X141.95 Y141.47
G1 F1800 X142.63 Y140.85 E4.12972
G1 X143.34 Y140.29 E4.16761
G1 X144.09 Y139.76 E4.20565
G1 X144.87 Y139.28 E4.24366
G1 X145.67 Y138.85 E4.28157
G1 X146.50 Y138.46 E4.31961
G1 X147.35 Y138.13 E4.35760
G1 X148.22 Y137.85 E4.39546
G1 X149.10 Y137.62 E4.43344
G1 X150.00 Y137.44 E4.47153
G1 X150.90 Y137.32 E4.50954
G1 X151.81 Y137.25 E4.54744
G1 X152.72 Y137.24 E4.58532
G1 X153.64 Y137.28 E4.62335
G1 X154.55 Y137.37 E4.66132
G1 X155.45 Y137.52 E4.69929
G1 X156.34 Y137.73 E4.73725
G1 X157.21 Y137.98 E4.77522
G1 X158.07 Y138.29 E4.81325
G1 X158.91 Y138.65 E4.85114
G1 X159.73 Y139.06 E4.88916
G1 X160.52 Y139.51 E4.92714
G1 X161.28 Y140.02 E4.96516
G1 X162.01 Y140.56 E5.00302
G1 X162.71 Y141.15 E5.04099
G1 X163.37 Y141.79 E5.07901
G1 X164.00 Y142.46 E5.11705
G1 X164.57 Y143.16 E5.15507
G1 X165.11 Y143.90 E5.19293
G1 X165.60 Y144.67 E5.23088
G1 X166.05 Y145.47 E5.26891
G1 X166.44 Y146.29 E5.30693
G1 X166.79 Y147.14 E5.34484
G1 X167.09 Y148.00 E5.38277
G1 X167.33 Y148.88 E5.42081
G1 X167.52 Y149.78 E5.45885
G1 X167.65 Y150.68 E5.49677
G1 X167.74 Y151.59 E5.53468
G1 X167.76 Y152.50 E5.57269
G1 X167.74 Y153.41 E5.61071
G1 X167.65 Y154.32 E5.64861
G1 X167.52 Y155.22 E5.68654
G1 X167.33 Y156.12 E5.72458
G1 X167.09 Y157.00 E5.76261
G1 X166.79 Y157.86 E5.80054
G1 X166.44 Y158.71 E5.83845
G1 X166.05 Y159.53 E5.87648
G1 X165.60 Y160.33 E5.91450
G1 X165.11 Y161.10 E5.95246
G1 X164.57 Y161.84 E5.99032
G1 X164.00 Y162.54 E6.02834
G1 X163.37 Y163.21 E6.06637
G1 X162.71 Y163.85 E6.10440
G1 X162.01 Y164.44 E6.14236
G1 X161.28 Y164.98 E6.18023
G1 X160.52 Y165.49 E6.21825
G1 X159.73 Y165.94 E6.25623
G1 X158.91 Y166.35 E6.29425
G1 X158.07 Y166.71 E6.33213
G1 X157.21 Y167.02 E6.37017
G1 X156.34 Y167.27 E6.40814
G1 X155.45 Y167.48 E6.44610
G1 X154.55 Y167.63 E6.48407
G1 X153.64 Y167.72 E6.52203
G1 X152.72 Y167.76 E6.56007
G1 X151.81 Y167.75 E6.59795
G1 X150.90 Y167.68 E6.63585
G1 X150.00 Y167.56 E6.67385
G1 X149.10 Y167.38 E6.71195
G1 X148.22 Y167.15 E6.74992
G1 X147.35 Y166.87 E6.78779
G1 X146.50 Y166.54 E6.82578
G1 X145.67 Y166.15 E6.86382
G1 X144.87 Y165.72 E6.90173
G1 X144.09 Y165.24 E6.93973
G1 X143.34 Y164.71 E6.97778
G1 X142.63 Y164.15 E7.01567
G1 X141.95 Y163.53 E7.05364
G1 X141.31 Y162.88 E7.09166
G1 X140.71 Y162.20 E7.12958
G1 X140.15 Y161.47 E7.16752
G1 X139.63 Y160.72 E7.20554
G1 X139.16 Y159.93 E7.24363
G1 X138.74 Y159.12 E7.28150
G1 X138.37 Y158.29 E7.31939
G1 X138.05 Y157.43 E7.35749
G1 X137.78 Y156.56 E7.39542
G1 X137.56 Y155.67 E7.43340
G1 X137.40 Y154.78 E7.47137
G1 X137.29 Y153.87 E7.50931
G1 X137.24 Y152.96 E7.54738
G1 X137.24 Y152.04 E7.58521
G1 X137.29 Y151.13 E7.62328
G1 X137.40 Y150.22 E7.66122
G1 X137.56 Y149.33 E7.69920
G1 X137.78 Y148.44 E7.73717
G1 X138.05 Y147.57 E7.77510
G1 X138.37 Y146.71 E7.81320
G1 X138.74 Y145.88 E7.85109
G1 X139.16 Y145.07 E7.88897
G1 X139.63 Y144.28 E7.92706
G1 X140.15 Y143.53 E7.96508
G1 X140.71 Y142.80 E8.00302
G1 X141.31 Y142.12 E8.04094
G1 X141.95 Y141.47 E8.07895
G1 F2400 E6.87895
G0 F12000 X144.58 Y144.21
;TYPE:WALL-INNER
G1 F2400 E8.07895
G1 F1800 X145.08 Y143.76 E8.10701
G1 X145.62 Y143.33 E8.13558
G1 X146.18 Y142.94 E8.16381
G1 X146.78 Y142.57 E8.19312
G1 X147.36 Y142.25 E8.22083
G1 X147.99 Y141.96 E8.24938
G1 X148.63 Y141.71 E8.27827
G1 X149.28 Y141.50 E8.30660
G1 X149.95 Y141.32 E8.33522
G1 X150.62 Y141.19 E8.36369
G1 X151.31 Y141.10 E8.39272
G1 X151.98 Y141.05 E8.42053
G1 X152.68 Y141.04 E8.44955
G1 X153.34 Y141.07 E8.47727
G1 X154.04 Y141.14 E8.50645
G1 X154.71 Y141.25 E8.53469
G1 X155.38 Y141.41 E8.56339
G1 X156.03 Y141.59 E8.59157
G1 X156.69 Y141.83 E8.62037
G1 X157.32 Y142.10 E8.64894
G1 X157.93 Y142.40 E8.67724
G1 X158.52 Y142.75 E8.70578
G1 X159.10 Y143.13 E8.73475
G1 X159.65 Y143.54 E8.76319
G1 X160.16 Y143.97 E8.79069
G1 X160.67 Y144.46 E8.82027
G1 X161.13 Y144.95 E8.84825
G1 X161.56 Y145.48 E8.87678
G1 X161.98 Y146.06 E8.90625
G1 X162.34 Y146.61 E8.93376
G1 X162.67 Y147.21 E8.96231
G1 X162.97 Y147.85 E8.99148
G1 X163.22 Y148.46 E9.01883
G1 X163.46 Y149.13 E9.04846
G1 X163.63 Y149.78 E9.07632
G1 X163.78 Y150.46 E9.10547
G1 X163.88 Y151.11 E9.13293
G1 X163.94 Y151.82 E9.16232
G1 X163.96 Y152.50 E9.19068
G1 X163.94 Y153.18 E9.21905
G1 X163.88 Y153.88 E9.24827
G1 X163.78 Y154.54 E9.27589
G1 X163.63 Y155.22 E9.30505
G1 X163.46 Y155.87 E9.33291
G1 X163.23 Y156.54 E9.36221
G1 X162.97 Y157.15 E9.38989
G1 X162.67 Y157.79 E9.41906
G1 X162.34 Y158.39 E9.44761
G1 X161.98 Y158.94 E9.47512
G1 X161.56 Y159.52 E9.50459
G1 X161.13 Y160.05 E9.53312
G1 X160.67 Y160.54 E9.56110
G1 X160.16 Y161.03 E9.59050
G1 X159.65 Y161.46 E9.61817
G1 X159.10 Y161.87 E9.64662
G1 X158.52 Y162.25 E9.67558
G1 X157.93 Y162.60 E9.70412
G1 X157.32 Y162.90 E9.73242
G1 X156.69 Y163.17 E9.76099
G1 X156.03 Y163.41 E9.78979
G1 X155.38 Y163.59 E9.81798
G1 X154.71 Y163.75 E9.84668
G1 X154.04 Y163.86 E9.87492
G1 X153.34 Y163.93 E9.90410
G1 X152.68 Y163.96 E9.93181
G1 X151.98 Y163.95 E9.96084
G1 X151.31 Y163.90 E9.98865
G1 X150.62 Y163.81 E10.01767
G1 X149.95 Y163.68 E10.04615
G1 X149.28 Y163.50 E10.07477
G1 X148.63 Y163.29 E10.10310
G1 X147.99 Y163.04 E10.13198
G1 X147.36 Y162.75 E10.16053
G1 X146.78 Y162.43 E10.18825
G1 X146.18 Y162.06 E10.21756
G1 X145.62 Y161.67 E10.24578
G1 X145.08 Y161.24 E10.27436
G1 X144.58 Y160.79 E10.30241
G1 X144.09 Y160.30 E10.33137
G1 X143.63 Y159.77 E10.36060
G1 X143.22 Y159.24 E10.38846
G1 X142.84 Y158.67 E10.41679
G1 X142.49 Y158.09 E10.44493
G1 X142.17 Y157.47 E10.47420
G1 X141.89 Y156.85 E10.50215
G1 X141.65 Y156.21 E10.53092
G1 X141.45 Y155.55 E10.55955
G1 X141.28 Y154.87 E10.58879
G1 X141.16 Y154.21 E10.61637
G1 X141.08 Y153.52 E10.64522
G1 X141.04 Y152.84 E10.67362
G1 X141.04 Y152.15 E10.70223
G1 X141.08 Y151.47 E10.73047
G1 X141.16 Y150.77 E10.75983
G1 X141.28 Y150.13 E10.78682
G1 X141.45 Y149.45 E10.81605
G1 X141.65 Y148.79 E10.84468
G1 X141.89 Y148.15 E10.87345
G1 X142.17 Y147.53 E10.90141
G1 X142.49 Y146.91 E10.93067
G1 X142.84 Y146.33 E10.95881
G1 X143.22 Y145.76 E10.98714
G1 X143.63 Y145.23 E11.01500
G1 X144.09 Y144.70 E11.04423
G1 X144.58 Y144.21 E11.07319
G0 F12000 X151.21 Y150.97
G1 F1800 X150.94 Y151.25 E11.08901
G1 X150.75 Y151.53 E11.10354
G1 X150.61 Y151.85 E11.11772
G1 X150.53 Y152.15 E11.13090
G1 X150.50 Y152.50 E11.14555
G1 X150.54 Y152.88 E11.16135
G1 X150.63 Y153.22 E11.17593
G1 X150.78 Y153.53 E11.19012
G1 X150.97 Y153.79 E11.20346
G1 X151.24 Y154.05 E11.21928
G1 X151.53 Y154.25 E11.23384
G1 X151.84 Y154.38 E11.24797
G1 X152.15 Y154.47 E11.26116
G1 X152.50 Y154.50 E11.27585
G1 X152.88 Y154.46 E11.29165
G1 X153.22 Y154.36 E11.30622
G1 X153.52 Y154.21 E11.32037
G1 X153.79 Y154.03 E11.33373
G1 X154.05 Y153.75 E11.34955
G1 X154.25 Y153.47 E11.36408
G1 X154.38 Y153.15 E11.37826
G1 X154.47 Y152.85 E11.39144
G1 X154.50 Y152.50 E11.40609
G1 X154.46 Y152.12 E11.42189
G1 X154.36 Y151.78 E11.43647
G1 X154.21 Y151.47 E11.45066
G1 X154.03 Y151.21 E11.46403
G1 X153.75 Y150.95 E11.47987
G1 X153.46 Y150.75 E11.49441
G1 X153.15 Y150.62 E11.50854
G1 X152.84 Y150.53 E11.52172
G1 X152.49 Y150.50 E11.53633
G1 X152.12 Y150.54 E11.55217
G1 X151.78 Y150.64 E11.56675
G1 X151.47 Y150.79 E11.58090
G1 X151.21 Y150.97 E11.59426
G0 F12000 X151.47 Y151.28
;TYPE:WALL-OUTER
G1 F1800 X151.26 Y151.50 E11.60702
G1 X151.10 Y151.73 E11.61861
G1 X150.99 Y151.98 E11.63005
G1 X150.92 Y152.22 E11.64048
G1 X150.90 Y152.50 E11.65208
G1 X150.93 Y152.81 E11.66479
G1 X151.01 Y153.07 E11.67643
G1 X151.13 Y153.32 E11.68787
G1 X151.28 Y153.53 E11.69834
G1 X151.50 Y153.74 E11.71110
G1 X151.73 Y153.90 E11.72267
G1 X151.98 Y154.01 E11.73411
G1 X152.22 Y154.07 E11.74454
G1 X152.50 Y154.10 E11.75619
G1 X152.80 Y154.07 E11.76889
G1 X153.07 Y153.99 E11.78053
G1 X153.32 Y153.87 E11.79197
G1 X153.53 Y153.72 E11.80242
G1 X153.74 Y153.50 E11.81518
G1 X153.89 Y153.27 E11.82677
G1 X154.00 Y153.02 E11.83822
G1 X154.07 Y152.78 E11.84865
G1 X154.09 Y152.50 E11.86025
G1 X154.06 Y152.19 E11.87295
G1 X153.99 Y151.93 E11.88460
G1 X153.87 Y151.68 E11.89603
G1 X153.72 Y151.47 E11.90650
G1 X153.50 Y151.26 E11.91929
G1 X153.27 Y151.10 E11.93086
G1 X153.02 Y150.99 E11.94231
G1 X152.77 Y150.93 E11.95274
G1 X152.50 Y150.90 E11.96430
G1 X152.19 Y150.93 E11.97704
G1 X151.92 Y151.01 E11.98869
G1 X151.68 Y151.13 E12.00012
G1 X151.47 Y151.28 E12.01057
G0 F12000 X151.30 Y151.03
G0 X145.02 Y143.68
G0 X144.83 Y143.45
G1 F1800 X145.39 Y143.00 E12.04009
G1 X145.96 Y142.60 E12.06909
G1 X146.56 Y142.23 E12.09861
G1 X147.20 Y141.89 E12.12863
G1 X147.83 Y141.59 E12.15765
G1 X148.50 Y141.33 E12.18737
G1 X149.16 Y141.11 E12.21662
G1 X149.86 Y140.93 E12.24665
G1 X150.55 Y140.79 E12.27594
G1 X151.26 Y140.70 E12.30564
G1 X151.96 Y140.65 E12.33474
G1 X152.67 Y140.64 E12.36430
G1 X153.38 Y140.67 E12.39402
G1 X154.09 Y140.74 E12.42370
G1 X154.78 Y140.86 E12.45269
G1 X155.48 Y141.02 E12.48259
G1 X156.16 Y141.22 E12.51204
G1 X156.83 Y141.45 E12.54128
G1 X157.49 Y141.74 E12.57125
G1 X158.12 Y142.05 E12.60053
G1 X158.73 Y142.40 E12.62981
G1 X159.33 Y142.80 E12.65955
G1 X159.89 Y143.22 E12.68886
G1 X160.43 Y143.68 E12.71836
G1 X160.94 Y144.17 E12.74786
G1 X161.43 Y144.69 E12.77736
G1 X161.88 Y145.24 E12.80690
G1 X162.30 Y145.82 E12.83691
G1 X162.68 Y146.41 E12.86589
G1 X163.03 Y147.04 E12.89593
G1 X163.33 Y147.67 E12.92496
G1 X163.60 Y148.33 E12.95447
G1 X163.83 Y149.00 E12.98396
G1 X164.02 Y149.68 E13.01350
G1 X164.17 Y150.39 E13.04351
G1 X164.28 Y151.09 E13.07302
G1 X164.34 Y151.78 E13.10204
G1 X164.36 Y152.49 E13.13153
G1 X164.34 Y153.21 E13.16147
G1 X164.28 Y153.91 E13.19053
G1 X164.17 Y154.61 E13.22004
G1 X164.02 Y155.32 E13.25001
G1 X163.83 Y156.00 E13.27951
G1 X163.61 Y156.66 E13.30859
G1 X163.34 Y157.33 E13.33841
G1 X163.03 Y157.96 E13.36762
G1 X162.68 Y158.59 E13.39766
G1 X162.30 Y159.18 E13.42664
G1 X161.89 Y159.75 E13.45617
G1 X161.43 Y160.31 E13.48601
G1 X160.95 Y160.83 E13.51549
G1 X160.44 Y161.32 E13.54498
G1 X159.89 Y161.78 E13.57454
G1 X159.33 Y162.20 E13.60400
G1 X158.73 Y162.59 E13.63359
G1 X158.12 Y162.95 E13.66296
G1 X157.49 Y163.26 E13.69230
G1 X156.83 Y163.55 E13.72223
G1 X156.16 Y163.78 E13.75151
G1 X155.48 Y163.98 E13.78096
G1 X154.78 Y164.14 E13.81086
G1 X154.09 Y164.26 E13.83985
G1 X153.38 Y164.33 E13.86953
G1 X152.67 Y164.36 E13.89925
G1 X151.96 Y164.35 E13.92881
G1 X151.26 Y164.30 E13.95791
G1 X150.55 Y164.21 E13.98761
G1 X149.86 Y164.07 E14.01690
G1 X149.16 Y163.89 E14.04693
G1 X148.50 Y163.67 E14.07618
G1 X147.83 Y163.41 E14.10590
G1 X147.20 Y163.11 E14.13492
G1 X146.56 Y162.77 E14.16494
G1 X145.96 Y162.40 E14.19446
G1 X145.39 Y162.00 E14.22342
G1 X144.83 Y161.55 E14.25298
G1 X144.29 Y161.07 E14.28301
G1 X143.81 Y160.57 E14.31199
G1 X143.33 Y160.03 E14.34202
G1 X142.90 Y159.48 E14.37106
G1 X142.50 Y158.88 E14.40106
G1 X142.14 Y158.28 E14.43005
G1 X141.81 Y157.64 E14.46007
G1 X141.52 Y156.99 E14.48957
G1 X141.27 Y156.34 E14.51871
G1 X141.06 Y155.65 E14.54863
G1 X140.89 Y154.97 E14.57774
G1 X140.77 Y154.27 E14.60714
G1 X140.68 Y153.56 E14.63717
G1 X140.64 Y152.85 E14.66669
G1 X140.64 Y152.15 E14.69563
G1 X140.68 Y151.44 E14.72516
G1 X140.77 Y150.73 E14.75519
G1 X140.89 Y150.03 E14.78472
G1 X141.06 Y149.35 E14.81370
G1 X141.27 Y148.66 E14.84371
G1 X141.52 Y148.01 E14.87276
G1 X141.81 Y147.36 E14.90226
G1 X142.14 Y146.72 E14.93227
G1 X142.50 Y146.12 E14.96126
G1 X142.90 Y145.52 E14.99126
G1 X143.33 Y144.97 E15.02030
G1 X143.81 Y144.43 E15.05033
G1 X144.29 Y143.93 E15.07932
G1 X144.83 Y143.45 E15.10934
G0 F12000 X145.23 Y143.82
;TYPE:FILL
G1 F1800 X151.88 Y150.46 E15.50010
G0 F12000 X151.48 Y150.63
G1 F1800 X144.93 Y144.08 E15.88501
G0 F12000 X144.63 Y144.35
G1 F1800 X151.13 Y150.85 E16.26713
G0 F12000 X150.85 Y151.14
G1 F1800 X144.35 Y144.64 E16.64936
G0 F12000 X144.08 Y144.93
G1 F1800 X150.62 Y151.47 E17.03412
G0 F12000 X150.46 Y151.87
G1 F1800 X143.82 Y145.23 E17.42471
G0 F12000 X143.56 Y145.54
G1 F1800 X150.37 Y152.35 E17.82487
G0 F12000 X150.41 Y152.96
G1 F1800 X143.32 Y145.86 E18.24203
G0 F12000 X143.09 Y146.20
G1 F1800 X158.79 Y161.90 E19.16531
G0 F12000 X159.13 Y161.67
G1 F1800 X152.03 Y154.58 E19.58235
G0 F12000 X152.64 Y154.62
G1 F1800 X159.45 Y161.43 E19.98258
G0 F12000 X159.76 Y161.18
G1 F1800 X153.12 Y154.53 E20.37310
G0 F12000 X153.52 Y154.37
G1 F1800 X160.07 Y160.92 E20.75827
G0 F12000 X160.36 Y160.64
G1 F1800 X153.86 Y154.15 E21.14018
G0 F12000 X154.14 Y153.86
G1 F1800 X160.64 Y160.36 E21.52245
G0 F12000 X160.92 Y160.07
G1 F1800 X154.37 Y153.52 E21.90727
G0 F12000 X154.54 Y153.12
G1 F1800 X161.18 Y159.76 E22.29782
G0 F12000 X161.43 Y159.45
G1 F1800 X154.62 Y152.64 E22.69822
G0 F12000 X154.58 Y152.03
G1 F1800 X161.67 Y159.13 E23.11538
G0 F12000 X161.91 Y158.80
G1 F1800 X146.20 Y143.09 E24.03889
G0 F12000 X145.87 Y143.32
G1 F1800 X152.97 Y150.42 E24.45611
G0 F12000 X152.35 Y150.37
G1 F1800 X145.54 Y143.57 E24.85643
G0 F12000 X146.55 Y142.87
G1 F1800 X162.13 Y158.45 E25.77253
G0 F12000 X162.34 Y158.09
G1 F1800 X146.90 Y142.66 E26.68014
G0 F12000 X147.27 Y142.46
G1 F1800 X162.54 Y157.73 E27.57801
G0 F12000 X162.72 Y157.35
G1 F1800 X147.65 Y142.27 E28.46454
G0 F12000 X148.03 Y142.09
G1 F1800 X162.90 Y156.96 E29.33881
G0 F12000 X163.06 Y156.56
G1 F1800 X148.44 Y141.93 E30.19882
G0 F12000 X148.85 Y141.78
G1 F1800 X163.21 Y156.14 E31.04313
G0 F12000 X163.35 Y155.71
G1 F1800 X149.28 Y141.64 E31.87040
G0 F12000 X149.73 Y141.53
G1 F1800 X163.47 Y155.27 E32.67861
G0 F12000 X163.58 Y154.81
G1 F1800 X150.19 Y141.42 E33.46595
G0 F12000 X150.66 Y141.33
G1 F1800 X163.67 Y154.33 E34.23071
G0 F12000 X163.74 Y153.84
G1 F1800 X151.16 Y141.26 E34.97045
G0 F12000 X151.68 Y141.21
G1 F1800 X163.79 Y153.32 E35.68259
G0 F12000 X163.81 Y152.78
G1 F1800 X152.22 Y141.18 E36.36445
G0 F12000 X152.78 Y141.18
G1 F1800 X163.81 Y152.22 E37.01324
G0 F12000 X163.78 Y151.62
G1 F1800 X153.37 Y141.21 E37.62522
G0 F12000 X154.01 Y141.28
G1 F1800 X163.72 Y150.99 E38.19601
G0 F12000 X163.60 Y150.31
G1 F1800 X154.68 Y141.39 E38.72039
G0 F12000 X155.42 Y141.56
G1 F1800 X163.43 Y149.57 E39.19117
G0 F12000 X163.18 Y148.75
G1 F1800 X156.24 Y141.82 E39.59880
G0 F12000 X157.19 Y142.20
G1 F1800 X162.80 Y147.81 E39.92900
G0 F12000 X162.17 Y146.61
G1 F1800 X158.39 Y142.83 E40.15128
G0 F12000 X142.87 Y146.54
G1 F1800 X158.45 Y162.13 E41.06753
G0 F12000 X158.09 Y162.34
G1 F1800 X142.66 Y146.90 E41.97514
G0 F12000 X142.46 Y147.27
G1 F1800 X157.73 Y162.54 E42.87289
G0 F12000 X157.35 Y162.72
G1 F1800 X142.27 Y147.64 E43.75966
G0 F12000 X142.09 Y148.03
G1 F1800 X156.96 Y162.90 E44.63369
G0 F12000 X156.56 Y163.06
G1 F1800 X141.93 Y148.44 E45.49382
G0 F12000 X141.78 Y148.85
G1 F1800 X156.14 Y163.22 E46.33855
G0 F12000 X155.71 Y163.35
G1 F1800 X141.64 Y149.28 E47.16578
G0 F12000 X141.52 Y149.72
G1 F1800 X155.27 Y163.47 E47.97423
G0 F12000 X154.81 Y163.58
G1 F1800 X141.41 Y150.18 E48.76204
G0 F12000 X141.33 Y150.66
G1 F1800 X154.33 Y163.67 E49.52680
G0 F12000 X153.84 Y163.74
G1 F1800 X141.26 Y151.16 E50.26648
G0 F12000 X141.21 Y151.67
G1 F1800 X153.33 Y163.79 E50.97906
G0 F12000 X152.78 Y163.82
G1 F1800 X141.18 Y152.21 E51.66154
G0 F12000 X141.18 Y152.77
G1 F1800 X152.22 Y163.81 E52.31065
G0 F12000 X151.62 Y163.78
G1 F1800 X141.21 Y153.37 E52.92289
G0 F12000 X141.28 Y154.01
G1 F1800 X150.99 Y163.72 E53.49386
G0 F12000 X150.31 Y163.60
G1 F1800 X141.39 Y154.68 E54.01850
G0 F12000 X141.56 Y155.42
G1 F1800 X149.57 Y163.43 E54.48993
G0 F12000 X148.76 Y163.19
G1 F1800 X141.81 Y156.23 E54.89874
G0 F12000 X142.19 Y157.18
G1 F1800 X147.81 Y162.80 E55.22909
G0 F12000 X146.61 Y162.17
G1 F1800 X142.83 Y158.38 E55.45148
;LAYER:1
G0 F12000 X142.84 Y158.67 Z0.40
;TYPE:WALL-INNER
G1 F2820 X142.49 Y158.09 E55.46836
G1 X142.17 Y157.47 E55.48592
G1 X141.89 Y156.85 E55.50270
G1 X141.65 Y156.21 E55.51996
G1 X141.45 Y155.55 E55.53714
G1 X141.28 Y154.87 E55.55468
G1 X141.16 Y154.22 E55.57092
G1 X141.08 Y153.52 E55.58854
G1 X141.04 Y152.84 E55.60558
G1 X141.04 Y152.15 E55.62272
G1 X141.08 Y151.48 E55.63964
G1 X141.16 Y150.77 E55.65730
G1 X141.28 Y150.13 E55.67350
G1 X141.45 Y149.45 E55.69104
G1 X141.65 Y148.79 E55.70821
G1 X141.89 Y148.15 E55.72548
G1 X142.17 Y147.53 E55.74225
G1 X142.49 Y146.91 E55.75981
G1 X142.84 Y146.33 E55.77669
G1 X143.22 Y145.76 E55.79369
G1 X143.63 Y145.23 E55.81041
G1 X144.09 Y144.70 E55.82794
G1 X144.58 Y144.21 E55.84532
G1 X145.08 Y143.76 E55.86215
G1 X145.62 Y143.33 E55.87930
G1 X146.18 Y142.94 E55.89623
G1 X146.78 Y142.57 E55.91382
G1 X147.36 Y142.25 E55.93045
G1 X147.99 Y141.96 E55.94758
G1 X148.63 Y141.71 E55.96491
G1 X149.28 Y141.50 E55.98191
G1 X149.95 Y141.32 E55.99908
G1 X150.62 Y141.19 E56.01616
G1 X151.31 Y141.10 E56.03358
G1 X151.98 Y141.05 E56.05026
G1 X152.68 Y141.04 E56.06768
G1 X153.34 Y141.07 E56.08431
G1 X154.04 Y141.14 E56.10182
G1 X154.71 Y141.25 E56.11876
G1 X155.38 Y141.41 E56.13598
G1 X156.03 Y141.59 E56.15289
G1 X156.69 Y141.83 E56.17017
G1 X157.32 Y142.10 E56.18731
G1 X157.93 Y142.40 E56.20429
G1 X158.52 Y142.75 E56.22142
G1 X159.10 Y143.13 E56.23880
G1 X159.65 Y143.54 E56.25586
G1 X160.16 Y143.97 E56.27236
G1 X160.67 Y144.46 E56.29011
G1 X161.13 Y144.95 E56.30690
G1 X161.56 Y145.48 E56.32401
G1 X161.98 Y146.06 E56.34170
G1 X162.34 Y146.61 E56.35820
G1 X162.67 Y147.21 E56.37533
G1 X162.97 Y147.85 E56.39284
G1 X163.22 Y148.46 E56.40925
G1 X163.46 Y149.13 E56.42702
G1 X163.63 Y149.78 E56.44374
G1 X163.78 Y150.46 E56.46123
G1 X163.88 Y151.11 E56.47770
G1 X163.94 Y151.82 E56.49531
G1 X163.96 Y152.50 E56.51236
G1 X163.94 Y153.18 E56.52938
G1 X163.88 Y153.88 E56.54691
G1 X163.78 Y154.54 E56.56348
G1 X163.63 Y155.22 E56.58098
G1 X163.46 Y155.87 E56.59769
G1 X163.23 Y156.54 E56.61528
G1 X162.97 Y157.15 E56.63188
G1 X162.67 Y157.79 E56.64938
G1 X162.34 Y158.39 E56.66651
G1 X161.98 Y158.94 E56.68302
G1 X161.56 Y159.52 E56.70070
G1 X161.13 Y160.05 E56.71782
G1 X160.67 Y160.54 E56.73461
G1 X160.16 Y161.03 E56.75225
G1 X159.65 Y161.46 E56.76885
G1 X159.10 Y161.87 E56.78592
G1 X158.52 Y162.25 E56.80330
G1 X157.93 Y162.60 E56.82042
G1 X157.32 Y162.90 E56.83740
G1 X156.69 Y163.17 E56.85454
G1 X156.03 Y163.41 E56.87182
G1 X155.38 Y163.59 E56.88873
G1 X154.71 Y163.75 E56.90596
G1 X154.04 Y163.86 E56.92290
G1 X153.34 Y163.93 E56.94041
G1 X152.68 Y163.96 E56.95704
G1 X151.98 Y163.95 E56.97445
G1 X151.31 Y163.90 E56.99114
G1 X150.62 Y163.81 E57.00855
G1 X149.95 Y163.68 E57.02564
G1 X149.28 Y163.50 E57.04281
G1 X148.63 Y163.29 E57.05981
G1 X147.99 Y163.04 E57.07714
G1 X147.36 Y162.75 E57.09427
G1 X146.78 Y162.43 E57.11090
G1 X146.18 Y162.06 E57.12848
G1 X145.62 Y161.67 E57.14542
G1 X145.08 Y161.24 E57.16256
G1 X144.58 Y160.79 E57.17940
G1 X144.09 Y160.30 E57.19677
G1 X143.63 Y159.77 E57.21431
G1 X143.22 Y159.24 E57.23102
G1 X142.84 Y158.67 E57.24802
G0 F12000 X150.80 Y153.55
G1 F2820 X150.97 Y153.79 E57.25544
G1 X151.27 Y154.07 E57.26560
G1 X151.55 Y154.26 E57.27408
G1 X151.81 Y154.38 E57.28127
G1 X152.15 Y154.47 E57.28997
G1 X152.51 Y154.50 E57.29886
G1 X152.91 Y154.45 E57.30903
G1 X153.25 Y154.35 E57.31780
G1 X153.54 Y154.20 E57.32612
G1 X153.79 Y154.03 E57.33356
G1 X154.07 Y153.73 E57.34376
G1 X154.25 Y153.44 E57.35222
G1 X154.38 Y153.18 E57.35943
G1 X154.47 Y152.85 E57.36813
G1 X154.50 Y152.49 E57.37699
G1 X154.45 Y152.09 E57.38719
G1 X154.35 Y151.75 E57.39594
G1 X154.19 Y151.45 E57.40431
G1 X154.02 Y151.21 E57.41173
G1 X153.73 Y150.93 E57.42191
G1 X153.44 Y150.74 E57.43039
G1 X153.18 Y150.62 E57.43755
G1 X152.84 Y150.53 E57.44628
G1 X152.49 Y150.50 E57.45512
G1 X152.08 Y150.55 E57.46534
G1 X151.75 Y150.65 E57.47409
G1 X151.45 Y150.80 E57.48243
G1 X151.21 Y150.97 E57.48988
G1 X150.93 Y151.27 E57.50005
G1 X150.74 Y151.56 E57.50850
G1 X150.62 Y151.82 E57.51571
G1 X150.53 Y152.15 E57.52441
G1 X150.50 Y152.51 E57.53328
G1 X150.54 Y152.91 E57.54347
G1 X150.65 Y153.25 E57.55222
G1 X150.80 Y153.55 E57.56060
G0 F12000 X151.14 Y153.34
;TYPE:WALL-OUTER
G1 F2820 X151.28 Y153.53 E57.56631
G1 X151.52 Y153.76 E57.57457
G1 X151.75 Y153.91 E57.58142
G1 X151.95 Y154.00 E57.58705
G1 X152.22 Y154.07 E57.59400
G1 X152.50 Y154.10 E57.60103
G1 X152.83 Y154.06 E57.60924
G1 X153.10 Y153.98 E57.61624
G1 X153.34 Y153.85 E57.62302
G1 X153.53 Y153.72 E57.62874
G1 X153.75 Y153.48 E57.63700
G1 X153.90 Y153.25 E57.64387
G1 X154.00 Y153.05 E57.64949
G1 X154.07 Y152.78 E57.65644
G1 X154.09 Y152.50 E57.66345
G1 X154.06 Y152.17 E57.67168
G1 X153.97 Y151.90 E57.67866
G1 X153.85 Y151.66 E57.68546
G1 X153.72 Y151.47 E57.69117
G1 X153.48 Y151.24 E57.69943
G1 X153.25 Y151.09 E57.70631
G1 X153.04 Y151.00 E57.71191
G1 X152.77 Y150.93 E57.71888
G1 X152.50 Y150.90 E57.72586
G1 X152.17 Y150.94 E57.73412
G1 X151.90 Y151.02 E57.74110
G1 X151.66 Y151.15 E57.74790
G1 X151.47 Y151.28 E57.75362
G1 X151.24 Y151.52 E57.76186
G1 X151.09 Y151.75 E57.76873
G1 X151.00 Y151.95 E57.77435
G1 X150.92 Y152.22 E57.78130
G1 X150.90 Y152.50 E57.78831
G1 X150.94 Y152.83 E57.79655
G1 X151.02 Y153.10 E57.80352
G1 X151.14 Y153.34 E57.81033
G0 F12000 X150.90 Y153.51
G0 X142.75 Y158.72
G0 X142.50 Y158.88
G1 F2820 X142.14 Y158.28 E57.82772
G1 X141.81 Y157.64 E57.84573
G1 X141.52 Y156.99 E57.86343
G1 X141.27 Y156.34 E57.88091
G1 X141.06 Y155.65 E57.89886
G1 X140.89 Y154.97 E57.91633
G1 X140.77 Y154.27 E57.93397
G1 X140.68 Y153.56 E57.95199
G1 X140.64 Y152.85 E57.96970
G1 X140.64 Y152.15 E57.98707
G1 X140.68 Y151.44 E58.00478
G1 X140.77 Y150.73 E58.02280
G1 X140.89 Y150.03 E58.04052
G1 X141.06 Y149.35 E58.05790
G1 X141.27 Y148.66 E58.07591
G1 X141.52 Y148.01 E58.09334
G1 X141.81 Y147.36 E58.11104
G1 X142.14 Y146.72 E58.12905
G1 X142.50 Y146.12 E58.14644
G1 X142.90 Y145.52 E58.16445
G1 X143.33 Y144.97 E58.18187
G1 X143.81 Y144.43 E58.19988
G1 X144.29 Y143.93 E58.21728
G1 X144.83 Y143.45 E58.23529
G1 X145.39 Y143.00 E58.25301
G1 X145.96 Y142.60 E58.27041
G1 X146.56 Y142.23 E58.28812
G1 X147.20 Y141.89 E58.30613
G1 X147.83 Y141.59 E58.32354
G1 X148.50 Y141.33 E58.34137
G1 X149.16 Y141.11 E58.35893
G1 X149.86 Y140.93 E58.37694
G1 X150.55 Y140.79 E58.39452
G1 X151.26 Y140.70 E58.41234
G1 X151.96 Y140.65 E58.42980
G1 X152.67 Y140.64 E58.44753
G1 X153.38 Y140.67 E58.46536
G1 X154.09 Y140.74 E58.48317
G1 X154.78 Y140.86 E58.50057
G1 X155.48 Y141.02 E58.51850
G1 X156.16 Y141.22 E58.53618
G1 X156.83 Y141.45 E58.55372
G1 X157.49 Y141.74 E58.57170
G1 X158.12 Y142.05 E58.58927
G1 X158.73 Y142.40 E58.60684
G1 X159.33 Y142.80 E58.62468
G1 X159.89 Y143.22 E58.64227
G1 X160.43 Y143.68 E58.65997
G1 X160.94 Y144.17 E58.67767
G1 X161.43 Y144.69 E58.69537
G1 X161.88 Y145.24 E58.71309
G1 X162.30 Y145.82 E58.73110
G1 X162.68 Y146.41 E58.74848
G1 X163.03 Y147.04 E58.76651
G1 X163.33 Y147.67 E58.78392
G1 X163.60 Y148.33 E58.80163
G1 X163.83 Y149.00 E58.81933
G1 X164.02 Y149.68 E58.83705
G1 X164.17 Y150.39 E58.85506
G1 X164.28 Y151.09 E58.87276
G1 X164.34 Y151.78 E58.89017
G1 X164.36 Y152.49 E58.90787
G1 X164.34 Y153.21 E58.92584
G1 X164.28 Y153.91 E58.94327
G1 X164.17 Y154.61 E58.96098
G1 X164.02 Y155.32 E58.97895
G1 X163.83 Y156.00 E58.99666
G1 X163.61 Y156.66 E59.01411
G1 X163.34 Y157.33 E59.03200
G1 X163.03 Y157.96 E59.04952
G1 X162.68 Y158.59 E59.06755
G1 X162.30 Y159.18 E59.08494
G1 X161.89 Y159.75 E59.10266
G1 X161.43 Y160.31 E59.12056
G1 X160.95 Y160.83 E59.13824
G1 X160.44 Y161.32 E59.15594
G1 X159.89 Y161.78 E59.17367
G1 X159.33 Y162.20 E59.19135
G1 X158.73 Y162.59 E59.20910
G1 X158.12 Y162.95 E59.22673
G1 X157.49 Y163.26 E59.24433
G1 X156.83 Y163.55 E59.26229
G1 X156.16 Y163.78 E59.27985
G1 X155.48 Y163.98 E59.29753
G1 X154.78 Y164.14 E59.31546
G1 X154.09 Y164.26 E59.33286
G1 X153.38 Y164.33 E59.35067
G1 X152.67 Y164.36 E59.36850
G1 X151.96 Y164.35 E59.38624
G1 X151.26 Y164.30 E59.40370
G1 X150.55 Y164.21 E59.42152
G1 X149.86 Y164.07 E59.43909
G1 X149.16 Y163.89 E59.45711
G1 X148.50 Y163.67 E59.47466
G1 X147.83 Y163.41 E59.49249
G1 X147.20 Y163.11 E59.50990
G1 X146.56 Y162.77 E59.52792
G1 X145.96 Y162.40 E59.54563
G1 X145.39 Y162.00 E59.56300
G1 X144.83 Y161.55 E59.58074
G1 X144.29 Y161.07 E59.59876
G1 X143.81 Y160.57 E59.61615
G1 X143.33 Y160.03 E59.63416
G1 X142.90 Y159.48 E59.65159
G1 X142.50 Y158.88 E59.66959
G0 F12000 X143.05 Y158.74
;TYPE:FILL
G1 F2820 X158.74 Y143.06 E60.22289
G0 F12000 X159.07 Y143.28
G1 F2820 X151.90 Y150.46 E60.47591
G0 F12000 X152.56 Y150.37
G1 F2820 X159.40 Y143.53 E60.71723
G0 F12000 X159.71 Y143.78
G1 F2820 X153.05 Y150.44 E60.95232
G0 F12000 X153.46 Y150.60
G1 F2820 X160.02 Y144.04 E61.18380
G0 F12000 X160.31 Y144.31
G1 F2820 X153.81 Y150.81 E61.41323
G0 F12000 X154.10 Y151.09
G1 F2820 X160.60 Y144.59 E61.64248
G0 F12000 X160.87 Y144.88
G1 F2820 X154.33 Y151.42 E61.87302
G0 F12000 X154.51 Y151.81
G1 F2820 X161.13 Y145.18 E62.10664
G0 F12000 X161.39 Y145.49
G1 F2820 X154.61 Y152.27 E62.34574
G0 F12000 X154.61 Y152.84
G1 F2820 X161.63 Y145.82 E62.59356
G0 F12000 X161.87 Y146.15
G1 F2820 X146.14 Y161.87 E63.14829
G0 F12000 X145.81 Y161.64
G1 F2820 X152.85 Y154.60 E63.39661
G0 F12000 X152.27 Y154.62
G1 F2820 X145.49 Y161.39 E63.63558
G0 F12000 X145.18 Y161.14
G1 F2820 X151.80 Y154.52 E63.86914
G0 F12000 X151.42 Y154.34
G1 F2820 X144.88 Y160.87 E64.09975
G0 F12000 X144.59 Y160.60
G1 F2820 X151.09 Y154.10 E64.32912
G0 F12000 X150.81 Y153.81
G1 F2820 X144.31 Y160.31 E64.55862
G0 F12000 X144.04 Y160.02
G1 F2820 X150.60 Y153.46 E64.79001
G0 F12000 X150.44 Y153.05
G1 F2820 X143.77 Y159.72 E65.02512
G0 F12000 X143.52 Y159.40
G1 F2820 X150.36 Y152.56 E65.26640
G0 F12000 X150.45 Y151.91
G1 F2820 X143.28 Y159.08 E65.51920
G0 F12000 X142.83 Y158.39
G1 F2820 X158.39 Y142.83 E66.06808
G0 F12000 X158.03 Y142.63
G1 F2820 X142.62 Y158.04 E66.61180
G0 F12000 X142.43 Y157.67
G1 F2820 X157.67 Y142.43 E67.14936
G0 F12000 X157.29 Y142.24
G1 F2820 X142.24 Y157.29 E67.68019
G0 F12000 X142.07 Y156.90
G1 F2820 X156.89 Y142.07 E68.20328
G0 F12000 X156.49 Y141.91
G1 F2820 X141.91 Y156.49 E68.71781
G0 F12000 X141.75 Y156.08
G1 F2820 X156.07 Y141.76 E69.22299
G0 F12000 X155.64 Y141.63
G1 F2820 X141.62 Y155.64 E69.71753
G0 F12000 X141.50 Y155.20
G1 F2820 X155.19 Y141.51 E70.20051
G0 F12000 X154.73 Y141.40
G1 F2820 X141.40 Y154.74 E70.67094
G0 F12000 X141.31 Y154.26
G1 F2820 X154.25 Y141.32 E71.12740
G0 F12000 X153.75 Y141.25
G1 F2820 X141.25 Y153.76 E71.56855
G0 F12000 X141.20 Y153.24
G1 F2820 X153.24 Y141.20 E71.99313
G0 F12000 X152.70 Y141.18
G1 F2820 X141.18 Y152.69 E72.39946
G0 F12000 X141.18 Y152.13
G1 F2820 X152.12 Y141.19 E72.78545
G0 F12000 X151.52 Y141.22
G1 F2820 X141.22 Y151.53 E73.14893
G0 F12000 X141.29 Y150.88
G1 F2820 X150.88 Y141.30 E73.48716
G0 F12000 X150.19 Y141.42
G1 F2820 X141.41 Y150.20 E73.79707
G0 F12000 X141.59 Y149.45
G1 F2820 X149.45 Y141.60 E74.07418
G0 F12000 X148.62 Y141.86
G1 F2820 X141.87 Y148.61 E74.31232
G0 F12000 X142.27 Y147.64
G1 F2820 X147.64 Y142.27 E74.50171
G0 F12000 X146.37 Y142.98
G1 F2820 X142.97 Y146.38 E74.62148
G0 F12000 X146.49 Y162.09
G1 F2820 X162.09 Y146.49 E75.17186
G0 F12000 X162.30 Y146.84
G1 F2820 X146.84 Y162.31 E75.71740
G0 F12000 X147.21 Y162.51
G1 F2820 X162.50 Y147.21 E76.25708
G0 F12000 X162.69 Y147.59
G1 F2820 X147.58 Y162.70 E76.79016
G0 F12000 X147.97 Y162.88
G1 F2820 X162.87 Y147.97 E77.31601
G0 F12000 X163.04 Y148.37
G1 F2820 X148.37 Y163.04 E77.83346
G0 F12000 X148.78 Y163.19
G1 F2820 X163.19 Y148.79 E78.34171
G0 F12000 X163.33 Y149.21
G1 F2820 X149.21 Y163.33 E78.83992
G0 F12000 X149.65 Y163.45
G1 F2820 X163.45 Y149.65 E79.32675
G0 F12000 X163.56 Y150.11
G1 F2820 X150.11 Y163.56 E79.80136
G0 F12000 X150.58 Y163.66
G1 F2820 X163.65 Y150.58 E80.26261
G0 F12000 X163.73 Y151.07
G1 F2820 X151.07 Y163.73 E80.70902
G0 F12000 X151.59 Y163.78
G1 F2820 X163.78 Y151.59 E81.13914
G0 F12000 X163.81 Y152.13
G1 F2820 X152.12 Y163.81 E81.55147
G0 F12000 X152.68 Y163.82
G1 F2820 X163.81 Y152.69 E81.94432
G0 F12000 X163.79 Y153.28
G1 F2820 X153.27 Y163.79 E82.31544
G0 F12000 X153.90 Y163.73
G1 F2820 X163.73 Y153.90 E82.66225
G0 F12000 X163.63 Y154.57
G1 F2820 X154.57 Y163.63 E82.98185
G0 F12000 X155.29 Y163.47
G1 F2820 X163.47 Y155.30 E83.27023
G0 F12000 X163.23 Y156.10
G1 F2820 X156.09 Y163.23 E83.52178
G0 F12000 X157.02 Y162.87
G1 F2820 X162.88 Y157.01 E83.72847
G0 F12000 X162.30 Y158.16
G1 F2820 X158.16 Y162.30 E83.87445
;LAYER:2
G0 F12000 X158.52 Y162.25 Z0.55
;TYPE:WALL-INNER
G1 F3900 X157.93 Y162.60 E83.89157
G1 X157.32 Y162.90 E83.90855
G1 X156.69 Y163.17 E83.92569
G1 X156.03 Y163.41 E83.94297
G1 X155.38 Y163.59 E83.95988
G1 X154.71 Y163.75 E83.97711
G1 X154.04 Y163.86 E83.99405
G1 X153.34 Y163.93 E84.01156
G1 X152.68 Y163.96 E84.02819
G1 X151.98 Y163.95 E84.04560
G1 X151.31 Y163.90 E84.06229
G1 X150.62 Y163.81 E84.07970
G1 X149.95 Y163.68 E84.09679
G1 X149.28 Y163.50 E84.11396
G1 X148.63 Y163.29 E84.13096
G1 X147.99 Y163.04 E84.14829
G1 X147.36 Y162.75 E84.16542
G1 X146.78 Y162.43 E84.18205
G1 X146.18 Y162.06 E84.19963
G1 X145.62 Y161.67 E84.21657
G1 X145.08 Y161.24 E84.23371
G1 X144.58 Y160.79 E84.25055
G1 X144.09 Y160.30 E84.26792
G1 X143.63 Y159.77 E84.28546
G1 X143.22 Y159.24 E84.30218
G1 X142.84 Y158.67 E84.31918
G1 X142.49 Y158.09 E84.33606
G1 X142.17 Y157.47 E84.35362
G1 X141.89 Y156.85 E84.37039
G1 X141.65 Y156.21 E84.38765
G1 X141.45 Y155.55 E84.40483
G1 X141.28 Y154.87 E84.42237
G1 X141.16 Y154.22 E84.43861
G1 X141.08 Y153.52 E84.45623
G1 X141.04 Y152.84 E84.47327
G1 X141.04 Y152.15 E84.49041
G1 X141.08 Y151.48 E84.50733
G1 X141.16 Y150.77 E84.52499
G1 X141.28 Y150.13 E84.54119
G1 X141.45 Y149.45 E84.55873
G1 X141.65 Y148.79 E84.57591
G1 X141.89 Y148.15 E84.59317
G1 X142.17 Y147.53 E84.60994
G1 X142.49 Y146.91 E84.62750
G1 X142.84 Y146.33 E84.64438
G1 X143.22 Y145.76 E84.66138
G1 X143.63 Y145.23 E84.67810
G1 X144.09 Y144.70 E84.69564
G1 X144.58 Y144.21 E84.71301
G1 X145.08 Y143.76 E84.72985
G1 X145.62 Y143.33 E84.74699
G1 X146.18 Y142.94 E84.76393
G1 X146.78 Y142.57 E84.78151
G1 X147.36 Y142.25 E84.79814
G1 X147.99 Y141.96 E84.81527
G1 X148.63 Y141.71 E84.83260
G1 X149.28 Y141.50 E84.84960
G1 X149.95 Y141.32 E84.86677
G1 X150.62 Y141.19 E84.88386
G1 X151.31 Y141.10 E84.90127
G1 X151.98 Y141.05 E84.91796
G1 X152.68 Y141.04 E84.93537
G1 X153.34 Y141.07 E84.95200
G1 X154.04 Y141.14 E84.96951
G1 X154.71 Y141.25 E84.98645
G1 X155.38 Y141.41 E85.00367
G1 X156.03 Y141.59 E85.02058
G1 X156.69 Y141.83 E85.03786
G1 X157.32 Y142.10 E85.05501
G1 X157.93 Y142.40 E85.07199
G1 X158.52 Y142.75 E85.08911
G1 X159.10 Y143.13 E85.10649
G1 X159.65 Y143.54 E85.12356
G1 X160.16 Y143.97 E85.14005
G1 X160.67 Y144.46 E85.15780
G1 X161.13 Y144.95 E85.17459
G1 X161.56 Y145.48 E85.19171
G1 X161.98 Y146.06 E85.20939
G1 X162.34 Y146.61 E85.22589
G1 X162.67 Y147.21 E85.24302
G1 X162.97 Y147.85 E85.26053
G1 X163.22 Y148.46 E85.27694
G1 X163.46 Y149.13 E85.29472
G1 X163.63 Y149.78 E85.31143
G1 X163.78 Y150.46 E85.32893
G1 X163.88 Y151.11 E85.34540
G1 X163.94 Y151.81 E85.36273
G1 X163.96 Y152.50 E85.38005
G1 X163.94 Y153.18 E85.39707
G1 X163.88 Y153.88 E85.41460
G1 X163.78 Y154.54 E85.43118
G1 X163.63 Y155.22 E85.44867
G1 X163.46 Y155.87 E85.46539
G1 X163.23 Y156.54 E85.48297
G1 X162.97 Y157.15 E85.49957
G1 X162.67 Y157.79 E85.51708
G1 X162.34 Y158.39 E85.53421
G1 X161.98 Y158.94 E85.55071
G1 X161.56 Y159.52 E85.56839
G1 X161.13 Y160.05 E85.58551
G1 X160.67 Y160.54 E85.60230
G1 X160.16 Y161.03 E85.61994
G1 X159.65 Y161.46 E85.63654
G1 X159.10 Y161.87 E85.65361
G1 X158.52 Y162.25 E85.67099
G0 F12000 X153.56 Y154.18
G1 F3900 X153.79 Y154.03 E85.67791
G1 X154.08 Y153.72 E85.68838
G1 X154.23 Y153.50 E85.69497
G1 X154.38 Y153.18 E85.70370
G1 X154.47 Y152.85 E85.71240
G1 X154.50 Y152.50 E85.72106
G1 X154.47 Y152.15 E85.72972
G1 X154.37 Y151.81 E85.73871
G1 X154.18 Y151.43 E85.74923
G1 X154.03 Y151.22 E85.75580
G1 X153.78 Y150.97 E85.76451
G1 X153.50 Y150.77 E85.77320
G1 X153.18 Y150.62 E85.78187
G1 X152.84 Y150.53 E85.79060
G1 X152.50 Y150.50 E85.79924
G1 X152.15 Y150.53 E85.80793
G1 X151.80 Y150.62 E85.81691
G1 X151.43 Y150.82 E85.82740
G1 X151.20 Y150.98 E85.83431
G1 X150.92 Y151.28 E85.84475
G1 X150.77 Y151.50 E85.85133
G1 X150.62 Y151.82 E85.86006
G1 X150.53 Y152.15 E85.86876
G1 X150.50 Y152.50 E85.87743
G1 X150.53 Y152.85 E85.88609
G1 X150.62 Y153.19 E85.89508
G1 X150.81 Y153.57 E85.90560
G1 X150.97 Y153.78 E85.91216
G1 X151.21 Y154.03 E85.92084
G1 X151.50 Y154.23 E85.92955
G1 X151.81 Y154.38 E85.93824
G1 X152.15 Y154.47 E85.94694
G1 X152.50 Y154.50 E85.95563
G1 X152.84 Y154.47 E85.96427
G1 X153.19 Y154.38 E85.97328
G1 X153.56 Y154.18 E85.98372
G0 F12000 X153.36 Y153.84
;TYPE:WALL-OUTER
G1 F3900 X153.53 Y153.72 E85.98888
G1 X153.76 Y153.46 E85.99762
G1 X153.88 Y153.30 E86.00267
G1 X154.00 Y153.05 E86.00963
G1 X154.07 Y152.78 E86.01658
G1 X154.09 Y152.50 E86.02351
G1 X154.07 Y152.22 E86.03045
G1 X154.00 Y151.95 E86.03748
G1 X153.84 Y151.64 E86.04623
G1 X153.72 Y151.47 E86.05126
G1 X153.52 Y151.28 E86.05823
G1 X153.29 Y151.12 E86.06519
G1 X153.04 Y151.00 E86.07211
G1 X152.77 Y150.93 E86.07908
G1 X152.50 Y150.90 E86.08599
G1 X152.22 Y150.93 E86.09295
G1 X151.95 Y151.00 E86.09997
G1 X151.64 Y151.16 E86.10872
G1 X151.47 Y151.28 E86.11387
G1 X151.23 Y151.54 E86.12258
G1 X151.11 Y151.70 E86.12762
G1 X151.00 Y151.95 E86.13459
G1 X150.92 Y152.22 E86.14153
G1 X150.90 Y152.50 E86.14847
G1 X150.92 Y152.78 E86.15541
G1 X151.00 Y153.05 E86.16243
G1 X151.16 Y153.36 E86.17119
G1 X151.27 Y153.53 E86.17622
G1 X151.47 Y153.72 E86.18319
G1 X151.70 Y153.88 E86.19012
G1 X151.95 Y154.00 E86.19706
G1 X152.22 Y154.07 E86.20401
G1 X152.50 Y154.10 E86.21097
G1 X152.77 Y154.07 E86.21788
G1 X153.05 Y154.00 E86.22493
G1 X153.36 Y153.84 E86.23363
G0 F12000 X153.49 Y154.11
G0 X158.57 Y162.34
G0 X158.73 Y162.59
G1 F3900 X158.12 Y162.95 E86.25126
G1 X157.49 Y163.26 E86.26886
G1 X156.83 Y163.55 E86.28682
G1 X156.16 Y163.78 E86.30438
G1 X155.48 Y163.98 E86.32206
G1 X154.78 Y164.14 E86.33999
G1 X154.09 Y164.26 E86.35739
G1 X153.38 Y164.33 E86.37520
G1 X152.67 Y164.36 E86.39303
G1 X151.96 Y164.35 E86.41077
G1 X151.26 Y164.30 E86.42823
G1 X150.55 Y164.21 E86.44605
G1 X149.86 Y164.07 E86.46362
G1 X149.16 Y163.89 E86.48164
G1 X148.50 Y163.67 E86.49919
G1 X147.83 Y163.41 E86.51702
G1 X147.20 Y163.11 E86.53443
G1 X146.56 Y162.77 E86.55245
G1 X145.96 Y162.40 E86.57015
G1 X145.39 Y162.00 E86.58753
G1 X144.83 Y161.55 E86.60527
G1 X144.29 Y161.07 E86.62328
G1 X143.81 Y160.57 E86.64068
G1 X143.33 Y160.03 E86.65869
G1 X142.90 Y159.48 E86.67611
G1 X142.50 Y158.88 E86.69412
G1 X142.14 Y158.28 E86.71151
G1 X141.81 Y157.64 E86.72952
G1 X141.52 Y156.99 E86.74722
G1 X141.27 Y156.34 E86.76470
G1 X141.06 Y155.65 E86.78266
G1 X140.89 Y154.97 E86.80012
G1 X140.77 Y154.27 E86.81776
G1 X140.68 Y153.56 E86.83578
G1 X140.64 Y152.85 E86.85350
G1 X140.64 Y152.15 E86.87086
G1 X140.68 Y151.44 E86.88857
G1 X140.77 Y150.73 E86.90659
G1 X140.89 Y150.03 E86.92431
G1 X141.06 Y149.35 E86.94170
G1 X141.27 Y148.66 E86.95970
G1 X141.52 Y148.01 E86.97713
G1 X141.81 Y147.36 E86.99483
G1 X142.14 Y146.72 E87.01284
G1 X142.50 Y146.12 E87.03023
G1 X142.90 Y145.52 E87.04824
G1 X143.33 Y144.97 E87.06566
G1 X143.81 Y144.43 E87.08368
G1 X144.29 Y143.93 E87.10107
G1 X144.83 Y143.45 E87.11909
G1 X145.39 Y143.00 E87.13680
G1 X145.96 Y142.60 E87.15420
G1 X146.56 Y142.23 E87.17191
G1 X147.20 Y141.89 E87.18992
G1 X147.83 Y141.59 E87.20733
G1 X148.50 Y141.33 E87.22517
G1 X149.16 Y141.11 E87.24272
G1 X149.86 Y140.93 E87.26074
G1 X150.55 Y140.79 E87.27831
G1 X151.26 Y140.70 E87.29613
G1 X151.96 Y140.65 E87.31359
G1 X152.67 Y140.64 E87.33133
G1 X153.38 Y140.67 E87.34915
G1 X154.09 Y140.74 E87.36696
G1 X154.78 Y140.86 E87.38436
G1 X155.48 Y141.02 E87.40230
G1 X156.16 Y141.22 E87.41997
G1 X156.83 Y141.45 E87.43751
G1 X157.49 Y141.74 E87.45549
G1 X158.12 Y142.05 E87.47306
G1 X158.73 Y142.40 E87.49063
G1 X159.33 Y142.80 E87.50847
G1 X159.89 Y143.22 E87.52606
G1 X160.43 Y143.68 E87.54376
G1 X160.94 Y144.17 E87.56146
G1 X161.43 Y144.69 E87.57916
G1 X161.88 Y145.24 E87.59689
G1 X162.30 Y145.82 E87.61489
G1 X162.68 Y146.41 E87.63228
G1 X163.03 Y147.04 E87.65030
G1 X163.33 Y147.67 E87.66772
G1 X163.60 Y148.33 E87.68543
G1 X163.83 Y149.00 E87.70312
G1 X164.02 Y149.68 E87.72085
G1 X164.17 Y150.39 E87.73885
G1 X164.28 Y151.09 E87.75656
G1 X164.34 Y151.78 E87.77397
G1 X164.36 Y152.49 E87.79166
G1 X164.34 Y153.21 E87.80963
G1 X164.28 Y153.91 E87.82706
G1 X164.17 Y154.61 E87.84477
G1 X164.02 Y155.32 E87.86275
G1 X163.83 Y156.00 E87.88045
G1 X163.61 Y156.66 E87.89790
G1 X163.34 Y157.33 E87.91579
G1 X163.03 Y157.96 E87.93332
G1 X162.68 Y158.59 E87.95134
G1 X162.30 Y159.18 E87.96873
G1 X161.89 Y159.75 E87.98645
G1 X161.43 Y160.31 E88.00435
G1 X160.95 Y160.83 E88.02204
G1 X160.44 Y161.32 E88.03973
G1 X159.89 Y161.78 E88.05747
G1 X159.33 Y162.20 E88.07514
G1 X158.73 Y162.59 E88.09290
G0 F12000 X158.45 Y162.13
;TYPE:FILL
G1 F3900 X142.87 Y146.54 E88.64265
G0 F12000 X143.09 Y146.20
G1 F3900 X158.79 Y161.90 E89.19661
G0 F12000 X159.13 Y161.67
G1 F3900 X152.04 Y154.58 E89.44680
G0 F12000 X152.65 Y154.62
G1 F3900 X159.45 Y161.43 E89.68690
G0 F12000 X159.76 Y161.18
G1 F3900 X153.12 Y154.54 E89.92113
G0 F12000 X153.52 Y154.36
G1 F3900 X160.07 Y160.92 E90.15236
G0 F12000 X160.36 Y160.64
G1 F3900 X153.86 Y154.15 E90.38150
G0 F12000 X154.14 Y153.85
G1 F3900 X160.64 Y160.36 E90.61105
G0 F12000 X160.92 Y160.07
G1 F3900 X154.37 Y153.52 E90.84191
G0 F12000 X154.54 Y153.12
G1 F3900 X161.18 Y159.76 E91.07624
G0 F12000 X161.43 Y159.45
G1 F3900 X154.62 Y152.64 E91.31648
G0 F12000 X154.58 Y152.03
G1 F3900 X161.67 Y159.13 E91.56680
G0 F12000 X161.91 Y158.80
G1 F3900 X146.20 Y143.09 E92.12090
G0 F12000 X145.87 Y143.32
G1 F3900 X152.96 Y150.42 E92.37122
G0 F12000 X152.35 Y150.37
G1 F3900 X145.54 Y143.57 E92.61137
G0 F12000 X145.23 Y143.82
G1 F3900 X151.87 Y150.46 E92.84572
G0 F12000 X151.48 Y150.63
G1 F3900 X144.93 Y144.08 E93.07675
G0 F12000 X144.63 Y144.35
G1 F3900 X151.13 Y150.85 E93.30604
G0 F12000 X150.86 Y151.14
G1 F3900 X144.35 Y144.64 E93.53554
G0 F12000 X144.08 Y144.93
G1 F3900 X150.62 Y151.47 E93.76638
G0 F12000 X150.46 Y151.87
G1 F3900 X143.82 Y145.23 E94.00068
G0 F12000 X143.56 Y145.54
G1 F3900 X150.37 Y152.35 E94.24078
G0 F12000 X150.41 Y152.96
G1 F3900 X143.32 Y145.86 E94.49112
G0 F12000 X142.66 Y146.90
G1 F3900 X158.09 Y162.34 E95.03569
G0 F12000 X157.73 Y162.54
G1 F3900 X142.46 Y147.27 E95.57434
G0 F12000 X142.27 Y147.64
G1 F3900 X157.35 Y162.72 E96.10640
G0 F12000 X156.96 Y162.90
G1 F3900 X142.09 Y148.03 E96.63082
G0 F12000 X141.93 Y148.44
G1 F3900 X156.56 Y163.06 E97.14690
G0 F12000 X156.14 Y163.22
G1 F3900 X141.78 Y148.85 E97.65374
G0 F12000 X141.64 Y149.28
G1 F3900 X155.71 Y163.35 E98.15008
G0 F12000 X155.27 Y163.47
G1 F3900 X141.52 Y149.72 E98.63514
G0 F12000 X141.41 Y150.18
G1 F3900 X154.81 Y163.58 E99.10783
G0 F12000 X154.33 Y163.67
G1 F3900 X141.33 Y150.66 E99.56669
G0 F12000 X141.26 Y151.16
G1 F3900 X153.84 Y163.74 E100.01048
G0 F12000 X153.33 Y163.79
G1 F3900 X141.21 Y151.67 E100.43803
G0 F12000 X141.18 Y152.21
G1 F3900 X152.78 Y163.82 E100.84751
G0 F12000 X152.22 Y163.81
G1 F3900 X141.18 Y152.77 E101.23698
G0 F12000 X141.21 Y153.37
G1 F3900 X151.62 Y163.78 E101.60433
G0 F12000 X150.99 Y163.72
G1 F3900 X141.28 Y154.01 E101.94687
G0 F12000 X141.39 Y154.68
G1 F3900 X150.31 Y163.60 E102.26166
G0 F12000 X149.57 Y163.43
G1 F3900 X141.56 Y155.42 E102.54451
G0 F12000 X141.81 Y156.23
G1 F3900 X148.76 Y163.19 E102.78980
G0 F12000 X147.81 Y162.80
G1 F3900 X142.19 Y157.18 E102.98801
G0 F12000 X142.83 Y158.38
G1 F3900 X146.61 Y162.17 E103.12144
G0 F12000 X162.13 Y158.45
G1 F3900 X146.55 Y142.87 E103.67111
G0 F12000 X146.90 Y142.66
G1 F3900 X162.34 Y158.09 E104.21567
G0 F12000 X162.54 Y157.73
G1 F3900 X147.27 Y142.46 E104.75440
G0 F12000 X147.65 Y142.27
G1 F3900 X162.72 Y157.35 E105.28631
G0 F12000 X162.90 Y156.96
G1 F3900 X148.03 Y142.09 E105.81087
G0 F12000 X148.44 Y141.93
G1 F3900 X163.06 Y156.56 E106.32688
G0 F12000 X163.21 Y156.14
G1 F3900 X148.85 Y141.78 E106.83347
G0 F12000 X149.28 Y141.64
G1 F3900 X163.35 Y155.71 E107.32983
G0 F12000 X163.47 Y155.27
G1 F3900 X149.73 Y141.53 E107.81475
G0 F12000 X150.19 Y141.42
G1 F3900 X163.58 Y154.81 E108.28716
G0 F12000 X163.67 Y154.33
G1 F3900 X150.66 Y141.33 E108.74601
G0 F12000 X151.16 Y141.26
G1 F3900 X163.74 Y153.84 E109.18986
G0 F12000 X163.79 Y153.32
G1 F3900 X151.68 Y141.21 E109.61714
G0 F12000 X152.22 Y141.18
G1 F3900 X163.81 Y152.78 E110.02626
G0 F12000 X163.81 Y152.22
G1 F3900 X152.78 Y141.18 E110.41550
G0 F12000 X153.37 Y141.21
G1 F3900 X163.78 Y151.62 E110.78268
G0 F12000 X163.72 Y150.99
G1 F3900 X154.01 Y141.28 E111.12516
G0 F12000 X154.68 Y141.39
G1 F3900 X163.60 Y150.31 E111.43978
G0 F12000 X163.43 Y149.57
G1 F3900 X155.42 Y141.56 E111.72225
G0 F12000 X156.24 Y141.82
G1 F3900 X163.18 Y148.75 E111.96683
G0 F12000 X162.80 Y147.81
G1 F3900 X157.19 Y142.20 E112.16495
G0 F12000 X158.39 Y142.83
G1 F3900 X162.17 Y146.61 E112.29832
;LAYER:3
G0 F12000 X162.34 Y146.61 Z0.70
;TYPE:WALL-INNER
G1 F4920 X162.67 Y147.21 E112.31545
G1 X162.97 Y147.85 E112.33296
G1 X163.22 Y148.46 E112.34937
G1 X163.46 Y149.13 E112.36714
G1 X163.63 Y149.78 E112.38386
G1 X163.78 Y150.46 E112.40135
G1 X163.88 Y151.11 E112.41782
G1 X163.94 Y151.82 E112.43543
G1 X163.96 Y152.50 E112.45248
G1 X163.94 Y153.18 E112.46950
G1 X163.88 Y153.88 E112.48703
G1 X163.78 Y154.54 E112.50360
G1 X163.63 Y155.22 E112.52110
G1 X163.46 Y155.87 E112.53781
G1 X163.23 Y156.54 E112.55540
G1 X162.97 Y157.15 E112.57200
G1 X162.67 Y157.79 E112.58950
G1 X162.34 Y158.39 E112.60663
G1 X161.98 Y158.94 E112.62314
G1 X161.56 Y159.52 E112.64082
G1 X161.13 Y160.05 E112.65794
G1 X160.67 Y160.54 E112.67473
G1 X160.16 Y161.03 E112.69237
G1 X159.65 Y161.46 E112.70897
G1 X159.10 Y161.87 E112.72604
G1 X158.52 Y162.25 E112.74342
G1 X157.93 Y162.60 E112.76054
G1 X157.32 Y162.90 E112.77752
G1 X156.69 Y163.17 E112.79466
G1 X156.03 Y163.41 E112.81194
G1 X155.38 Y163.59 E112.82885
G1 X154.71 Y163.75 E112.84608
G1 X154.04 Y163.86 E112.86302
G1 X153.34 Y163.93 E112.88053
G1 X152.68 Y163.96 E112.89716
G1 X151.98 Y163.95 E112.91457
G1 X151.31 Y163.90 E112.93125
G1 X150.62 Y163.81 E112.94867
G1 X149.95 Y163.68 E112.96576
G1 X149.28 Y163.50 E112.98293
G1 X148.63 Y163.29 E112.99993
G1 X147.99 Y163.04 E113.01726
G1 X147.36 Y162.75 E113.03439
G1 X146.78 Y162.43 E113.05102
G1 X146.18 Y162.06 E113.06860
G1 X145.62 Y161.67 E113.08554
G1 X145.08 Y161.24 E113.10268
G1 X144.58 Y160.79 E113.11952
G1 X144.09 Y160.30 E113.13689
G1 X143.63 Y159.77 E113.15443
G1 X143.22 Y159.24 E113.17114
G1 X142.84 Y158.67 E113.18814
G1 X142.49 Y158.09 E113.20502
G1 X142.17 Y157.47 E113.22259
G1 X141.89 Y156.85 E113.23936
G1 X141.65 Y156.21 E113.25662
G1 X141.45 Y155.55 E113.27380
G1 X141.28 Y154.87 E113.29134
G1 X141.16 Y154.22 E113.30758
G1 X141.08 Y153.52 E113.32520
G1 X141.04 Y152.84 E113.34224
G1 X141.04 Y152.15 E113.35938
G1 X141.08 Y151.48 E113.37630
G1 X141.16 Y150.77 E113.39396
G1 X141.28 Y150.13 E113.41016
G1 X141.45 Y149.45 E113.42770
G1 X141.65 Y148.79 E113.44487
G1 X141.89 Y148.15 E113.46214
G1 X142.17 Y147.53 E113.47891
G1 X142.49 Y146.91 E113.49647
G1 X142.84 Y146.33 E113.51335
G1 X143.22 Y145.76 E113.53035
G1 X143.63 Y145.23 E113.54707
G1 X144.09 Y144.70 E113.56461
G1 X144.58 Y144.21 E113.58198
G1 X145.08 Y143.76 E113.59881
G1 X145.62 Y143.33 E113.61596
G1 X146.18 Y142.94 E113.63289
G1 X146.78 Y142.57 E113.65048
G1 X147.36 Y142.25 E113.66711
G1 X147.99 Y141.96 E113.68424
G1 X148.63 Y141.71 E113.70157
G1 X149.28 Y141.50 E113.71857
G1 X149.95 Y141.32 E113.73574
G1 X150.62 Y141.19 E113.75282
G1 X151.31 Y141.10 E113.77024
G1 X151.98 Y141.05 E113.78693
G1 X152.68 Y141.04 E113.80434
G1 X153.34 Y141.07 E113.82097
G1 X154.04 Y141.14 E113.83848
G1 X154.71 Y141.25 E113.85542
G1 X155.38 Y141.41 E113.87264
G1 X156.03 Y141.59 E113.88955
G1 X156.69 Y141.83 E113.90683
G1 X157.32 Y142.10 E113.92398
G1 X157.93 Y142.40 E113.94096
G1 X158.52 Y142.75 E113.95808
G1 X159.10 Y143.13 E113.97546
G1 X159.65 Y143.54 E113.99253
G1 X160.16 Y143.97 E114.00902
G1 X160.67 Y144.46 E114.02677
G1 X161.13 Y144.95 E114.04356
G1 X161.56 Y145.48 E114.06068
G1 X161.98 Y146.06 E114.07836
G1 X162.34 Y146.61 E114.09486
G0 F12000 X154.23 Y151.50
G1 F4920 X154.03 Y151.22 E114.10353
G1 X153.78 Y150.97 E114.11224
G1 X153.50 Y150.77 E114.12093
G1 X153.18 Y150.62 E114.12960
G1 X152.84 Y150.53 E114.13833
G1 X152.50 Y150.50 E114.14697
G1 X152.15 Y150.53 E114.15566
G1 X151.81 Y150.62 E114.16436
G1 X151.50 Y150.77 E114.17305
G1 X151.21 Y150.97 E114.18176
G1 X150.97 Y151.22 E114.19044
G1 X150.77 Y151.50 E114.19910
G1 X150.62 Y151.82 E114.20783
G1 X150.53 Y152.15 E114.21653
G1 X150.50 Y152.50 E114.22519
G1 X150.53 Y152.85 E114.23386
G1 X150.62 Y153.18 E114.24256
G1 X150.77 Y153.50 E114.25128
G1 X150.97 Y153.78 E114.25995
G1 X151.21 Y154.03 E114.26863
G1 X151.50 Y154.23 E114.27733
G1 X151.81 Y154.38 E114.28603
G1 X152.15 Y154.47 E114.29473
G1 X152.50 Y154.50 E114.30342
G1 X152.84 Y154.47 E114.31205
G1 X153.18 Y154.38 E114.32078
G1 X153.50 Y154.23 E114.32945
G1 X153.78 Y154.03 E114.33814
G1 X154.03 Y153.78 E114.34686
G1 X154.23 Y153.50 E114.35552
G1 X154.38 Y153.18 E114.36425
G1 X154.47 Y152.85 E114.37295
G1 X154.50 Y152.50 E114.38161
G1 X154.47 Y152.15 E114.39028
G1 X154.38 Y151.82 E114.39898
G1 X154.23 Y151.50 E114.40770
G0 F12000 X153.88 Y151.70
;TYPE:WALL-OUTER
G1 F4920 X153.72 Y151.47 E114.41463
G1 X153.52 Y151.28 E114.42160
G1 X153.29 Y151.12 E114.42855
G1 X153.04 Y151.00 E114.43547
G1 X152.77 Y150.93 E114.44244
G1 X152.50 Y150.90 E114.44935
G1 X152.22 Y150.93 E114.45631
G1 X151.95 Y151.00 E114.46326
G1 X151.70 Y151.12 E114.47020
G1 X151.47 Y151.28 E114.47713
G1 X151.27 Y151.47 E114.48410
G1 X151.11 Y151.70 E114.49103
G1 X151.00 Y151.95 E114.49799
G1 X150.92 Y152.22 E114.50494
G1 X150.90 Y152.50 E114.51188
G1 X150.92 Y152.78 E114.51881
G1 X151.00 Y153.05 E114.52576
G1 X151.11 Y153.30 E114.53272
G1 X151.27 Y153.53 E114.53965
G1 X151.47 Y153.72 E114.54662
G1 X151.70 Y153.88 E114.55355
G1 X151.95 Y154.00 E114.56049
G1 X152.22 Y154.07 E114.56744
G1 X152.50 Y154.10 E114.57440
G1 X152.77 Y154.07 E114.58131
G1 X153.04 Y154.00 E114.58828
G1 X153.29 Y153.88 E114.59520
G1 X153.52 Y153.72 E114.60215
G1 X153.72 Y153.53 E114.60912
G1 X153.88 Y153.30 E114.61605
G1 X154.00 Y153.05 E114.62301
G1 X154.07 Y152.78 E114.62996
G1 X154.09 Y152.50 E114.63689
G1 X154.07 Y152.22 E114.64383
G1 X154.00 Y151.95 E114.65078
G1 X153.88 Y151.70 E114.65774
G0 F12000 X154.13 Y151.53
G0 X162.43 Y146.57
G0 X162.68 Y146.41
G1 F4920 X163.03 Y147.04 E114.67576
G1 X163.33 Y147.67 E114.69318
G1 X163.60 Y148.33 E114.71089
G1 X163.83 Y149.00 E114.72858
G1 X164.02 Y149.68 E114.74631
G1 X164.17 Y150.39 E114.76431
G1 X164.28 Y151.09 E114.78202
G1 X164.34 Y151.78 E114.79943
G1 X164.36 Y152.49 E114.81712
G1 X164.34 Y153.21 E114.83509
G1 X164.28 Y153.91 E114.85252
G1 X164.17 Y154.61 E114.87023
G1 X164.02 Y155.32 E114.88821
G1 X163.83 Y156.00 E114.90591
G1 X163.61 Y156.66 E114.92336
G1 X163.34 Y157.33 E114.94125
G1 X163.03 Y157.96 E114.95878
G1 X162.68 Y158.59 E114.97680
G1 X162.30 Y159.18 E114.99419
G1 X161.89 Y159.75 E115.01191
G1 X161.43 Y160.31 E115.02981
G1 X160.95 Y160.83 E115.04750
G1 X160.44 Y161.32 E115.06519
G1 X159.89 Y161.78 E115.08293
G1 X159.33 Y162.20 E115.10061
G1 X158.73 Y162.59 E115.11836
G1 X158.12 Y162.95 E115.13598
G1 X157.49 Y163.26 E115.15359
G1 X156.83 Y163.55 E115.17155
G1 X156.16 Y163.78 E115.18911
G1 X155.48 Y163.98 E115.20678
G1 X154.78 Y164.14 E115.22472
G1 X154.09 Y164.26 E115.24212
G1 X153.38 Y164.33 E115.25993
G1 X152.67 Y164.36 E115.27775
G1 X151.96 Y164.35 E115.29549
G1 X151.26 Y164.30 E115.31295
G1 X150.55 Y164.21 E115.33077
G1 X149.86 Y164.07 E115.34834
G1 X149.16 Y163.89 E115.36636
G1 X148.50 Y163.67 E115.38391
G1 X147.83 Y163.41 E115.40175
G1 X147.20 Y163.11 E115.41916
G1 X146.56 Y162.77 E115.43717
G1 X145.96 Y162.40 E115.45488
G1 X145.39 Y162.00 E115.47226
G1 X144.83 Y161.55 E115.48999
G1 X144.29 Y161.07 E115.50801
G1 X143.81 Y160.57 E115.52540
G1 X143.33 Y160.03 E115.54342
G1 X142.90 Y159.48 E115.56084
G1 X142.50 Y158.88 E115.57885
G1 X142.14 Y158.28 E115.59624
G1 X141.81 Y157.64 E115.61425
G1 X141.52 Y156.99 E115.63195
G1 X141.27 Y156.34 E115.64943
G1 X141.06 Y155.65 E115.66738
G1 X140.89 Y154.97 E115.68485
G1 X140.77 Y154.27 E115.70249
G1 X140.68 Y153.56 E115.72051
G1 X140.64 Y152.85 E115.73822
G1 X140.64 Y152.15 E115.75558
G1 X140.68 Y151.44 E115.77330
G1 X140.77 Y150.73 E115.79132
G1 X140.89 Y150.03 E115.80904
G1 X141.06 Y149.35 E115.82642
G1 X141.27 Y148.66 E115.84443
G1 X141.52 Y148.01 E115.86186
G1 X141.81 Y147.36 E115.87956
G1 X142.14 Y146.72 E115.89757
G1 X142.50 Y146.12 E115.91496
G1 X142.90 Y145.52 E115.93297
G1 X143.33 Y144.97 E115.95039
G1 X143.81 Y144.43 E115.96840
G1 X144.29 Y143.93 E115.98580
G1 X144.83 Y143.45 E116.00381
G1 X145.39 Y143.00 E116.02153
G1 X145.96 Y142.60 E116.03893
G1 X146.56 Y142.23 E116.05663
G1 X147.20 Y141.89 E116.07465
G1 X147.83 Y141.59 E116.09206
G1 X148.50 Y141.33 E116.10989
G1 X149.16 Y141.11 E116.12745
G1 X149.86 Y140.93 E116.14546
G1 X150.55 Y140.79 E116.16304
G1 X151.26 Y140.70 E116.18086
G1 X151.96 Y140.65 E116.19832
G1 X152.67 Y140.64 E116.21605
G1 X153.38 Y140.67 E116.23388
G1 X154.09 Y140.74 E116.25169
G1 X154.78 Y140.86 E116.26909
G1 X155.48 Y141.02 E116.28702
G1 X156.16 Y141.22 E116.30470
G1 X156.83 Y141.45 E116.32224
G1 X157.49 Y141.74 E116.34022
G1 X158.12 Y142.05 E116.35779
G1 X158.73 Y142.40 E116.37536
G1 X159.33 Y142.80 E116.39320
G1 X159.89 Y143.22 E116.41079
G1 X160.43 Y143.68 E116.42849
G1 X160.94 Y144.17 E116.44619
G1 X161.43 Y144.69 E116.46389
G1 X161.88 Y145.24 E116.48161
G1 X162.30 Y145.82 E116.49962
G1 X162.68 Y146.41 E116.51700
G0 F12000 X162.30 Y146.84
;TYPE:FILL
G1 F4920 X146.84 Y162.31 E117.06254
G0 F12000 X146.49 Y162.09
G1 F4920 X162.09 Y146.49 E117.61292
G0 F12000 X161.87 Y146.15
G1 F4920 X146.14 Y161.87 E118.16765
G0 F12000 X145.81 Y161.64
G1 F4920 X152.84 Y154.61 E118.41565
G0 F12000 X152.27 Y154.62
G1 F4920 X145.49 Y161.39 E118.65462
G0 F12000 X145.18 Y161.14
G1 F4920 X151.80 Y154.52 E118.88821
G0 F12000 X151.41 Y154.34
G1 F4920 X144.88 Y160.87 E119.11865
G0 F12000 X144.59 Y160.60
G1 F4920 X151.09 Y154.10 E119.34785
G0 F12000 X150.81 Y153.81
G1 F4920 X144.31 Y160.31 E119.57734
G0 F12000 X144.04 Y160.02
G1 F4920 X150.59 Y153.46 E119.80863
G0 F12000 X150.44 Y153.05
G1 F4920 X143.77 Y159.72 E120.04372
G0 F12000 X143.52 Y159.40
G1 F4920 X150.36 Y152.56 E120.28495
G0 F12000 X150.45 Y151.91
G1 F4920 X143.28 Y159.08 E120.53775
G0 F12000 X143.05 Y158.74
G1 F4920 X158.74 Y143.06 E121.09104
G0 F12000 X159.07 Y143.28
G1 F4920 X151.91 Y150.45 E121.34389
G0 F12000 X152.56 Y150.37
G1 F4920 X159.40 Y143.53 E121.58516
G0 F12000 X159.71 Y143.78
G1 F4920 X153.05 Y150.44 E121.82025
G0 F12000 X153.46 Y150.60
G1 F4920 X160.02 Y144.04 E122.05165
G0 F12000 X160.31 Y144.31
G1 F4920 X153.81 Y150.81 E122.28113
G0 F12000 X154.10 Y151.09
G1 F4920 X160.60 Y144.59 E122.51039
G0 F12000 X160.87 Y144.88
G1 F4920 X154.34 Y151.41 E122.74075
G0 F12000 X154.52 Y151.80
G1 F4920 X161.13 Y145.18 E122.97422
G0 F12000 X161.39 Y145.49
G1 F4920 X154.62 Y152.27 E123.21321
G0 F12000 X154.61 Y152.84
G1 F4920 X161.63 Y145.82 E123.46103
G0 F12000 X162.50 Y147.21
G1 F4920 X147.21 Y162.51 E124.00071
G0 F12000 X147.58 Y162.70
G1 F4920 X162.69 Y147.59 E124.53379
G0 F12000 X162.87 Y147.97
G1 F4920 X147.97 Y162.88 E125.05964
G0 F12000 X148.37 Y163.04
G1 F4920 X163.04 Y148.37 E125.57709
G0 F12000 X163.19 Y148.79
G1 F4920 X148.78 Y163.19 E126.08534
G0 F12000 X149.21 Y163.33
G1 F4920 X163.33 Y149.21 E126.58355
G0 F12000 X163.45 Y149.65
G1 F4920 X149.65 Y163.45 E127.07038
G0 F12000 X150.11 Y163.56
G1 F4920 X163.56 Y150.11 E127.54499
G0 F12000 X163.65 Y150.58
G1 F4920 X150.58 Y163.66 E128.00625
G0 F12000 X151.07 Y163.73
G1 F4920 X163.73 Y151.07 E128.45265
G0 F12000 X163.78 Y151.59
G1 F4920 X151.59 Y163.78 E128.88277
G0 F12000 X152.12 Y163.81
G1 F4920 X163.81 Y152.13 E129.29510
G0 F12000 X163.81 Y152.69
G1 F4920 X152.68 Y163.82 E129.68795
G0 F12000 X153.27 Y163.79
G1 F4920 X163.79 Y153.28 E130.05907
G0 F12000 X163.73 Y153.90
G1 F4920 X153.90 Y163.73 E130.40589
G0 F12000 X154.57 Y163.63
G1 F4920 X163.63 Y154.57 E130.72549
G0 F12000 X163.47 Y155.30
G1 F4920 X155.29 Y163.47 E131.01386
G0 F12000 X156.09 Y163.23
G1 F4920 X163.23 Y156.10 E131.26541
G0 F12000 X162.88 Y157.01
G1 F4920 X157.02 Y162.87 E131.47210
G0 F12000 X158.16 Y162.30
G1 F4920 X162.30 Y158.16 E131.61808
G0 F12000 X158.39 Y142.83
G1 F4920 X142.83 Y158.39 E132.16697
G0 F12000 X142.62 Y158.04
G1 F4920 X158.03 Y142.63 E132.71069
G0 F12000 X157.67 Y142.43
G1 F4920 X142.43 Y157.67 E133.24825
G0 F12000 X142.24 Y157.29
G1 F4920 X157.29 Y142.24 E133.77907
G0 F12000 X156.89 Y142.07
G1 F4920 X142.07 Y156.90 E134.30217
G0 F12000 X141.91 Y156.49
G1 F4920 X156.49 Y141.91 E134.81669
G0 F12000 X156.07 Y141.76
G1 F4920 X141.75 Y156.08 E135.32187
G0 F12000 X141.62 Y155.64
G1 F4920 X155.64 Y141.63 E135.81641
G0 F12000 X155.19 Y141.51
G1 F4920 X141.50 Y155.20 E136.29940
G0 F12000 X141.40 Y154.74
G1 F4920 X154.73 Y141.40 E136.76983
G0 F12000 X154.25 Y141.32
G1 F4920 X141.31 Y154.26 E137.22628
G0 F12000 X141.25 Y153.76
G1 F4920 X153.75 Y141.25 E137.66743
G0 F12000 X153.24 Y141.20
G1 F4920 X141.20 Y153.24 E138.09202
G0 F12000 X141.18 Y152.69
G1 F4920 X152.70 Y141.18 E138.49835
G0 F12000 X152.12 Y141.19
G1 F4920 X141.18 Y152.13 E138.88434
G0 F12000 X141.22 Y151.53
G1 F4920 X151.52 Y141.22 E139.24782
G0 F12000 X150.88 Y141.30
G1 F4920 X141.29 Y150.88 E139.58605
G0 F12000 X141.41 Y150.20
G1 F4920 X150.19 Y141.42 E139.89596
G0 F12000 X149.45 Y141.60
G1 F4920 X141.59 Y149.45 E140.17307
G0 F12000 X141.87 Y148.61
G1 F4920 X148.62 Y141.86 E140.41121
G0 F12000 X147.64 Y142.27
G1 F4920 X142.27 Y147.64 E140.60060
G0 F12000 X142.97 Y146.38
G1 F4920 X146.37 Y142.98 E140.72036
;LAYER:4
G0 F12000 X146.18 Y142.94 Z0.85
;TYPE:WALL-INNER
G1 F6000 X146.78 Y142.57 E140.73795
G1 X147.36 Y142.25 E140.75458
G1 X147.99 Y141.96 E140.77171
G1 X148.63 Y141.71 E140.78904
G1 X149.28 Y141.50 E140.80604
G1 X149.95 Y141.32 E140.82321
G1 X150.62 Y141.19 E140.84029
G1 X151.31 Y141.10 E140.85771
G1 X151.98 Y141.05 E140.87440
G1 X152.68 Y141.04 E140.89181
G1 X153.34 Y141.07 E140.90844
G1 X154.04 Y141.14 E140.92595
G1 X154.71 Y141.25 E140.94289
G1 X155.38 Y141.41 E140.96011
G1 X156.03 Y141.59 E140.97702
G1 X156.69 Y141.83 E140.99430
G1 X157.32 Y142.10 E141.01145
G1 X157.93 Y142.40 E141.02842
G1 X158.52 Y142.75 E141.04555
G1 X159.10 Y143.13 E141.06293
G1 X159.65 Y143.54 E141.07999
G1 X160.16 Y143.97 E141.09649
G1 X160.67 Y144.46 E141.11424
G1 X161.13 Y144.95 E141.13103
G1 X161.56 Y145.48 E141.14815
G1 X161.98 Y146.06 E141.16583
G1 X162.34 Y146.61 E141.18233
G1 X162.67 Y147.21 E141.19946
G1 X162.97 Y147.85 E141.21697
G1 X163.22 Y148.46 E141.23338
G1 X163.46 Y149.13 E141.25115
G1 X163.63 Y149.78 E141.26787
G1 X163.78 Y150.46 E141.28536
G1 X163.88 Y151.11 E141.30184
G1 X163.94 Y151.82 E141.31944
G1 X163.96 Y152.50 E141.33649
G1 X163.94 Y153.18 E141.35351
G1 X163.88 Y153.88 E141.37104
G1 X163.78 Y154.54 E141.38761
G1 X163.63 Y155.22 E141.40511
G1 X163.46 Y155.87 E141.42182
G1 X163.23 Y156.54 E141.43941
G1 X162.97 Y157.15 E141.45601
G1 X162.67 Y157.79 E141.47352
G1 X162.34 Y158.39 E141.49065
G1 X161.98 Y158.94 E141.50715
G1 X161.56 Y159.52 E141.52483
G1 X161.13 Y160.05 E141.54195
G1 X160.67 Y160.54 E141.55874
G1 X160.16 Y161.03 E141.57638
G1 X159.65 Y161.46 E141.59298
G1 X159.10 Y161.87 E141.61005
G1 X158.52 Y162.25 E141.62743
G1 X157.93 Y162.60 E141.64455
G1 X157.32 Y162.90 E141.66153
G1 X156.69 Y163.17 E141.67868
G1 X156.03 Y163.41 E141.69596
G1 X155.38 Y163.59 E141.71287
G1 X154.71 Y163.75 E141.73009
G1 X154.04 Y163.86 E141.74703
G1 X153.34 Y163.93 E141.76454
G1 X152.68 Y163.96 E141.78117
G1 X151.98 Y163.95 E141.79858
G1 X151.31 Y163.90 E141.81527
G1 X150.62 Y163.81 E141.83268
G1 X149.95 Y163.68 E141.84977
G1 X149.28 Y163.50 E141.86694
G1 X148.63 Y163.29 E141.88394
G1 X147.99 Y163.04 E141.90127
G1 X147.36 Y162.75 E141.91840
G1 X146.78 Y162.43 E141.93503
G1 X146.18 Y162.06 E141.95261
G1 X145.62 Y161.67 E141.96955
G1 X145.08 Y161.24 E141.98669
G1 X144.58 Y160.79 E142.00353
G1 X144.09 Y160.30 E142.02090
G1 X143.63 Y159.77 E142.03844
G1 X143.22 Y159.24 E142.05516
G1 X142.84 Y158.67 E142.07216
G1 X142.49 Y158.09 E142.08904
G1 X142.17 Y157.47 E142.10660
G1 X141.89 Y156.85 E142.12337
G1 X141.65 Y156.21 E142.14063
G1 X141.45 Y155.55 E142.15781
G1 X141.28 Y154.87 E142.17535
G1 X141.16 Y154.22 E142.19160
G1 X141.08 Y153.52 E142.20921
G1 X141.04 Y152.84 E142.22625
G1 X141.04 Y152.15 E142.24339
G1 X141.08 Y151.48 E142.26031
G1 X141.16 Y150.77 E142.27797
G1 X141.28 Y150.13 E142.29417
G1 X141.45 Y149.45 E142.31171
G1 X141.65 Y148.79 E142.32889
G1 X141.89 Y148.15 E142.34615
G1 X142.17 Y147.53 E142.36292
G1 X142.49 Y146.91 E142.38048
G1 X142.84 Y146.33 E142.39736
G1 X143.22 Y145.76 E142.41436
G1 X143.63 Y145.23 E142.43108
G1 X144.09 Y144.70 E142.44862
G1 X144.58 Y144.21 E142.46599
G1 X145.08 Y143.76 E142.48283
G1 X145.62 Y143.33 E142.49997
G1 X146.18 Y142.94 E142.51691
G0 F12000 X151.50 Y150.77
G1 F6000 X151.21 Y150.97 E142.52561
G1 X150.97 Y151.22 E142.53429
G1 X150.77 Y151.50 E142.54296
G1 X150.62 Y151.82 E142.55168
G1 X150.53 Y152.15 E142.56038
G1 X150.50 Y152.50 E142.56905
G1 X150.53 Y152.85 E142.57771
G1 X150.62 Y153.18 E142.58641
G1 X150.77 Y153.50 E142.59514
G1 X150.97 Y153.78 E142.60380
G1 X151.21 Y154.03 E142.61248
G1 X151.50 Y154.23 E142.62119
G1 X151.81 Y154.38 E142.62988
G1 X152.15 Y154.47 E142.63858
G1 X152.50 Y154.50 E142.64727
G1 X152.84 Y154.47 E142.65591
G1 X153.18 Y154.38 E142.66464
G1 X153.50 Y154.23 E142.67331
G1 X153.78 Y154.03 E142.68200
G1 X154.03 Y153.78 E142.69071
G1 X154.23 Y153.50 E142.69938
G1 X154.38 Y153.18 E142.70810
G1 X154.47 Y152.85 E142.71680
G1 X154.50 Y152.50 E142.72547
G1 X154.47 Y152.15 E142.73413
G1 X154.38 Y151.82 E142.74283
G1 X154.23 Y151.50 E142.75156
G1 X154.03 Y151.22 E142.76022
G1 X153.78 Y150.97 E142.76894
G1 X153.50 Y150.77 E142.77763
G1 X153.18 Y150.62 E142.78630
G1 X152.84 Y150.53 E142.79503
G1 X152.50 Y150.50 E142.80366
G1 X152.15 Y150.53 E142.81235
G1 X151.81 Y150.62 E142.82105
G1 X151.50 Y150.77 E142.82975
G0 F12000 X151.70 Y151.12
;TYPE:WALL-OUTER
G1 F6000 X151.47 Y151.28 E142.83668
G1 X151.27 Y151.47 E142.84365
G1 X151.11 Y151.70 E142.85058
G1 X151.00 Y151.95 E142.85754
G1 X150.92 Y152.22 E142.86449
G1 X150.90 Y152.50 E142.87142
G1 X150.92 Y152.78 E142.87836
G1 X151.00 Y153.05 E142.88530
G1 X151.11 Y153.30 E142.89227
G1 X151.27 Y153.53 E142.89920
G1 X151.47 Y153.72 E142.90616
G1 X151.70 Y153.88 E142.91310
G1 X151.95 Y154.00 E142.92004
G1 X152.22 Y154.07 E142.92698
G1 X152.50 Y154.10 E142.93395
G1 X152.77 Y154.07 E142.94086
G1 X153.04 Y154.00 E142.94783
G1 X153.29 Y153.88 E142.95475
G1 X153.52 Y153.72 E142.96170
G1 X153.72 Y153.53 E142.96867
G1 X153.88 Y153.30 E142.97559
G1 X154.00 Y153.05 E142.98256
G1 X154.07 Y152.78 E142.98950
G1 X154.09 Y152.50 E142.99644
G1 X154.07 Y152.22 E143.00338
G1 X154.00 Y151.95 E143.01032
G1 X153.88 Y151.70 E143.01729
G1 X153.72 Y151.47 E143.02421
G1 X153.52 Y151.28 E143.03118
G1 X153.29 Y151.12 E143.03814
G1 X153.04 Y151.00 E143.04505
G1 X152.77 Y150.93 E143.05203
G1 X152.50 Y150.90 E143.05894
G1 X152.22 Y150.93 E143.06590
G1 X151.95 Y151.00 E143.07284
G1 X151.70 Y151.12 E143.07978
G0 F12000 X151.57 Y150.84
G0 X146.71 Y142.49
G0 X146.56 Y142.23
G1 F6000 X147.20 Y141.89 E143.09780
G1 X147.83 Y141.59 E143.11521
G1 X148.50 Y141.33 E143.13304
G1 X149.16 Y141.11 E143.15059
G1 X149.86 Y140.93 E143.16861
G1 X150.55 Y140.79 E143.18618
G1 X151.26 Y140.70 E143.20400
G1 X151.96 Y140.65 E143.22146
G1 X152.67 Y140.64 E143.23920
G1 X153.38 Y140.67 E143.25703
G1 X154.09 Y140.74 E143.27484
G1 X154.78 Y140.86 E143.29224
G1 X155.48 Y141.02 E143.31017
G1 X156.16 Y141.22 E143.32785
G1 X156.83 Y141.45 E143.34539
G1 X157.49 Y141.74 E143.36337
G1 X158.12 Y142.05 E143.38094
G1 X158.73 Y142.40 E143.39851
G1 X159.33 Y142.80 E143.41635
G1 X159.89 Y143.22 E143.43394
G1 X160.43 Y143.68 E143.45164
G1 X160.94 Y144.17 E143.46933
G1 X161.43 Y144.69 E143.48704
G1 X161.88 Y145.24 E143.50476
G1 X162.30 Y145.82 E143.52276
G1 X162.68 Y146.41 E143.54015
G1 X163.03 Y147.04 E143.55818
G1 X163.33 Y147.67 E143.57559
G1 X163.60 Y148.33 E143.59330
G1 X163.83 Y149.00 E143.61100
G1 X164.02 Y149.68 E143.62872
G1 X164.17 Y150.39 E143.64673
G1 X164.28 Y151.09 E143.66443
G1 X164.34 Y151.78 E143.68184
G1 X164.36 Y152.49 E143.69954
G1 X164.34 Y153.21 E143.71751
G1 X164.28 Y153.91 E143.73494
G1 X164.17 Y154.61 E143.75264
G1 X164.02 Y155.32 E143.77062
G1 X163.83 Y156.00 E143.78833
G1 X163.61 Y156.66 E143.80578
G1 X163.34 Y157.33 E143.82367
G1 X163.03 Y157.96 E143.84119
G1 X162.68 Y158.59 E143.85922
G1 X162.30 Y159.18 E143.87661
G1 X161.89 Y159.75 E143.89432
G1 X161.43 Y160.31 E143.91223
G1 X160.95 Y160.83 E143.92991
G1 X160.44 Y161.32 E143.94761
G1 X159.89 Y161.78 E143.96534
G1 X159.33 Y162.20 E143.98302
G1 X158.73 Y162.59 E144.00077
G1 X158.12 Y162.95 E144.01840
G1 X157.49 Y163.26 E144.03600
G1 X156.83 Y163.55 E144.05396
G1 X156.16 Y163.78 E144.07152
G1 X155.48 Y163.98 E144.08920
G1 X154.78 Y164.14 E144.10713
G1 X154.09 Y164.26 E144.12453
G1 X153.38 Y164.33 E144.14234
G1 X152.67 Y164.36 E144.16017
G1 X151.96 Y164.35 E144.17791
G1 X151.26 Y164.30 E144.19537
G1 X150.55 Y164.21 E144.21319
G1 X149.86 Y164.07 E144.23076
G1 X149.16 Y163.89 E144.24878
G1 X148.50 Y163.67 E144.26633
G1 X147.83 Y163.41 E144.28416
G1 X147.20 Y163.11 E144.30157
G1 X146.56 Y162.77 E144.31959
G1 X145.96 Y162.40 E144.33729
G1 X145.39 Y162.00 E144.35467
G1 X144.83 Y161.55 E144.37241
G1 X144.29 Y161.07 E144.39042
G1 X143.81 Y160.57 E144.40782
G1 X143.33 Y160.03 E144.42583
G1 X142.90 Y159.48 E144.44326
G1 X142.50 Y158.88 E144.46126
G1 X142.14 Y158.28 E144.47865
G1 X141.81 Y157.64 E144.49666
G1 X141.52 Y156.99 E144.51436
G1 X141.27 Y156.34 E144.53185
G1 X141.06 Y155.65 E144.54980
G1 X140.89 Y154.97 E144.56726
G1 X140.77 Y154.27 E144.58490
G1 X140.68 Y153.56 E144.60292
G1 X140.64 Y152.85 E144.62064
G1 X140.64 Y152.15 E144.63800
G1 X140.68 Y151.44 E144.65572
G1 X140.77 Y150.73 E144.67373
G1 X140.89 Y150.03 E144.69145
G1 X141.06 Y149.35 E144.70884
G1 X141.27 Y148.66 E144.72684
G1 X141.52 Y148.01 E144.74427
G1 X141.81 Y147.36 E144.76197
G1 X142.14 Y146.72 E144.77998
G1 X142.50 Y146.12 E144.79738
G1 X142.90 Y145.52 E144.81538
G1 X143.33 Y144.97 E144.83280
G1 X143.81 Y144.43 E144.85082
G1 X144.29 Y143.93 E144.86821
G1 X144.83 Y143.45 E144.88623
G1 X145.39 Y143.00 E144.90394
G1 X145.96 Y142.60 E144.92134
G1 X146.56 Y142.23 E144.93905
G0 F12000 X146.90 Y142.66
;TYPE:FILL
G1 F6000 X162.34 Y158.09 E145.48361
G0 F12000 X162.13 Y158.45
G1 F6000 X146.55 Y142.87 E146.03327
G0 F12000 X146.20 Y143.09
G1 F6000 X161.91 Y158.80 E146.58738
G0 F12000 X161.67 Y159.13
G1 F6000 X154.58 Y152.03 E146.83769
G0 F12000 X154.62 Y152.64
G1 F6000 X161.43 Y159.45 E147.07794
G0 F12000 X161.18 Y159.76
G1 F6000 X154.54 Y153.12 E147.31227
G0 F12000 X154.37 Y153.52
G1 F6000 X160.92 Y160.07 E147.54312
G0 F12000 X160.64 Y160.36
G1 F6000 X154.14 Y153.86 E147.77247
G0 F12000 X153.86 Y154.15
G1 F6000 X160.36 Y160.64 E148.00161
G0 F12000 X160.07 Y160.92
G1 F6000 X153.52 Y154.37 E148.23256
G0 F12000 X153.12 Y154.54
G1 F6000 X159.76 Y161.18 E148.46678
G0 F12000 X159.45 Y161.43
G1 F6000 X152.65 Y154.62 E148.70688
G0 F12000 X152.04 Y154.58
G1 F6000 X159.13 Y161.67 E148.95707
G0 F12000 X158.79 Y161.90
G1 F6000 X143.09 Y146.20 E149.51104
G0 F12000 X143.32 Y145.86
G1 F6000 X150.41 Y152.96 E149.76137
G0 F12000 X150.37 Y152.35
G1 F6000 X143.56 Y145.54 E150.00147
G0 F12000 X143.82 Y145.23
G1 F6000 X150.46 Y151.87 E150.23577
G0 F12000 X150.62 Y151.47
G1 F6000 X144.08 Y144.93 E150.46661
G0 F12000 X144.35 Y144.64
G1 F6000 X150.85 Y151.13 E150.69588
G0 F12000 X151.13 Y150.85
G1 F6000 X144.63 Y144.35 E150.92515
G0 F12000 X144.93 Y144.08
G1 F6000 X151.47 Y150.62 E151.15597
G0 F12000 X151.87 Y150.46
G1 F6000 X145.23 Y143.82 E151.39032
G0 F12000 X145.54 Y143.57
G1 F6000 X152.35 Y150.37 E151.63047
G0 F12000 X152.96 Y150.42
G1 F6000 X145.87 Y143.32 E151.88078
G0 F12000 X147.27 Y142.46
G1 F6000 X162.54 Y157.73 E152.41951
G0 F12000 X162.72 Y157.35
G1 F6000 X147.65 Y142.27 E152.95143
G0 F12000 X148.03 Y142.09
G1 F6000 X162.90 Y156.96 E153.47599
G0 F12000 X163.06 Y156.56
G1 F6000 X148.44 Y141.93 E153.99199
G0 F12000 X148.85 Y141.78
G1 F6000 X163.21 Y156.14 E154.49858
G0 F12000 X163.35 Y155.71
G1 F6000 X149.28 Y141.64 E154.99494
G0 F12000 X149.73 Y141.53
G1 F6000 X163.47 Y155.27 E155.47987
G0 F12000 X163.58 Y154.81
G1 F6000 X150.19 Y141.42 E155.95227
G0 F12000 X150.66 Y141.33
G1 F6000 X163.67 Y154.33 E156.41113
G0 F12000 X163.74 Y153.84
G1 F6000 X151.16 Y141.26 E156.85497
G0 F12000 X151.68 Y141.21
G1 F6000 X163.79 Y153.32 E157.28226
G0 F12000 X163.81 Y152.78
G1 F6000 X152.22 Y141.18 E157.69137
G0 F12000 X152.78 Y141.18
G1 F6000 X163.81 Y152.22 E158.08064
G0 F12000 X163.78 Y151.62
G1 F6000 X153.37 Y141.21 E158.44783
G0 F12000 X154.01 Y141.28
G1 F6000 X163.72 Y150.99 E158.79031
G0 F12000 X163.60 Y150.31
G1 F6000 X154.68 Y141.39 E159.10493
G0 F12000 X155.42 Y141.56
G1 F6000 X163.43 Y149.57 E159.38740
G0 F12000 X163.18 Y148.75
G1 F6000 X156.24 Y141.82 E159.63198
G0 F12000 X157.19 Y142.20
G1 F6000 X162.80 Y147.81 E159.83010
G0 F12000 X162.17 Y146.61
G1 F6000 X158.39 Y142.83 E159.96347
G0 F12000 X142.87 Y146.54
G1 F6000 X158.45 Y162.13 E160.51322
G0 F12000 X158.09 Y162.34
G1 F6000 X142.66 Y146.90 E161.05778
G0 F12000 X142.46 Y147.27
G1 F6000 X157.73 Y162.54 E161.59644
G0 F12000 X157.35 Y162.72
G1 F6000 X142.27 Y147.64 E162.12850
G0 F12000 X142.09 Y148.03
G1 F6000 X156.96 Y162.90 E162.65292
G0 F12000 X156.56 Y163.06
G1 F6000 X141.93 Y148.44 E163.16899
G0 F12000 X141.78 Y148.85
G1 F6000 X156.14 Y163.22 E163.67583
G0 F12000 X155.71 Y163.35
G1 F6000 X141.64 Y149.28 E164.17217
G0 F12000 X141.52 Y149.72
G1 F6000 X155.27 Y163.47 E164.65724
G0 F12000 X154.81 Y163.58
G1 F6000 X141.41 Y150.18 E165.12992
G0 F12000 X141.33 Y150.66
G1 F6000 X154.33 Y163.67 E165.58878
G0 F12000 X153.84 Y163.74
G1 F6000 X141.26 Y151.16 E166.03257
G0 F12000 X141.21 Y151.67
G1 F6000 X153.33 Y163.79 E166.46012
G0 F12000 X152.78 Y163.82
G1 F6000 X141.18 Y152.21 E166.86961
G0 F12000 X141.18 Y152.77
G1 F6000 X152.22 Y163.81 E167.25907
G0 F12000 X151.62 Y163.78
G1 F6000 X141.21 Y153.37 E167.62642
G0 F12000 X141.28 Y154.01
G1 F6000 X150.99 Y163.72 E167.96897
G0 F12000 X150.31 Y163.60
G1 F6000 X141.39 Y154.68 E168.28375
G0 F12000 X141.56 Y155.42
G1 F6000 X149.57 Y163.43 E168.56661
G0 F12000 X148.76 Y163.19
G1 F6000 X141.81 Y156.23 E168.81189
G0 F12000 X142.19 Y157.18
G1 F6000 X147.81 Y162.80 E169.01010
G0 F12000 X146.61 Y162.17
G1 F6000 X142.83 Y158.38 E169.14354
;LAYER:5
G0 F12000 X142.84 Y158.67 Z1.00
;TYPE:WALL-INNER
G1 F6000 X142.49 Y158.09 E169.16042
G1 X142.17 Y157.47 E169.17798
G1 X141.89 Y156.85 E169.19475
G1 X141.65 Y156.21 E169.21202
G1 X141.45 Y155.55 E169.22919
G1 X141.28 Y154.87 E169.24673
G1 X141.16 Y154.22 E169.26298
G1 X141.08 Y153.52 E169.28059
G1 X141.04 Y152.84 E169.29764
G1 X141.04 Y152.15 E169.31477
G1 X141.08 Y151.48 E169.33169
G1 X141.16 Y150.77 E169.34936
G1 X141.28 Y150.13 E169.36555
G1 X141.45 Y149.45 E169.38309
G1 X141.65 Y148.79 E169.40027
G1 X141.89 Y148.15 E169.41753
G1 X142.17 Y147.53 E169.43430
G1 X142.49 Y146.91 E169.45186
G1 X142.84 Y146.33 E169.46875
G1 X143.22 Y145.76 E169.48575
G1 X143.63 Y145.23 E169.50246
G1 X144.09 Y144.70 E169.52000
G1 X144.58 Y144.21 E169.53737
G1 X145.08 Y143.76 E169.55421
G1 X145.62 Y143.33 E169.57135
G1 X146.18 Y142.94 E169.58829
G1 X146.78 Y142.57 E169.60587
G1 X147.36 Y142.25 E169.62250
G1 X147.99 Y141.96 E169.63963
G1 X148.63 Y141.71 E169.65696
G1 X149.28 Y141.50 E169.67396
G1 X149.95 Y141.32 E169.69113
G1 X150.62 Y141.19 E169.70822
G1 X151.31 Y141.10 E169.72564
G1 X151.98 Y141.05 E169.74232
G1 X152.68 Y141.04 E169.75973
G1 X153.34 Y141.07 E169.77636
G1 X154.04 Y141.14 E169.79387
G1 X154.71 Y141.25 E169.81081
G1 X155.38 Y141.41 E169.82804
G1 X156.03 Y141.59 E169.84495
G1 X156.69 Y141.83 E169.86223
G1 X157.32 Y142.10 E169.87937
G1 X157.93 Y142.40 E169.89635
G1 X158.52 Y142.75 E169.91347
G1 X159.10 Y143.13 E169.93085
G1 X159.65 Y143.54 E169.94792
G1 X160.16 Y143.97 E169.96442
G1 X160.67 Y144.46 E169.98216
G1 X161.13 Y144.95 E169.99895
G1 X161.56 Y145.48 E170.01607
G1 X161.98 Y146.06 E170.03375
G1 X162.34 Y146.61 E170.05026
G1 X162.67 Y147.21 E170.06739
G1 X162.97 Y147.85 E170.08489
G1 X163.22 Y148.46 E170.10130
G1 X163.46 Y149.13 E170.11908
G1 X163.63 Y149.78 E170.13579
G1 X163.78 Y150.46 E170.15329
G1 X163.88 Y151.11 E170.16976
G1 X163.94 Y151.82 E170.18737
G1 X163.96 Y152.50 E170.20441
G1 X163.94 Y153.18 E170.22143
G1 X163.88 Y153.88 E170.23897
G1 X163.78 Y154.54 E170.25554
G1 X163.63 Y155.22 E170.27303
G1 X163.46 Y155.87 E170.28975
G1 X163.23 Y156.54 E170.30733
G1 X162.97 Y157.15 E170.32393
G1 X162.67 Y157.79 E170.34144
G1 X162.34 Y158.39 E170.35857
G1 X161.98 Y158.94 E170.37507
G1 X161.56 Y159.52 E170.39276
G1 X161.13 Y160.05 E170.40988
G1 X160.67 Y160.54 E170.42666
G1 X160.16 Y161.03 E170.44431
G1 X159.65 Y161.46 E170.46091
G1 X159.10 Y161.87 E170.47797
G1 X158.52 Y162.25 E170.49535
G1 X157.93 Y162.60 E170.51248
G1 X157.32 Y162.90 E170.52946
G1 X156.69 Y163.17 E170.54660
G1 X156.03 Y163.41 E170.56388
G1 X155.38 Y163.59 E170.58079
G1 X154.71 Y163.75 E170.59801
G1 X154.04 Y163.86 E170.61495
G1 X153.34 Y163.93 E170.63246
G1 X152.68 Y163.96 E170.64909
G1 X151.98 Y163.95 E170.66651
G1 X151.31 Y163.90 E170.68319
G1 X150.62 Y163.81 E170.70061
G1 X149.95 Y163.68 E170.71769
G1 X149.28 Y163.50 E170.73486
G1 X148.63 Y163.29 E170.75186
G1 X147.99 Y163.04 E170.76919
G1 X147.36 Y162.75 E170.78632
G1 X146.78 Y162.43 E170.80295
G1 X146.18 Y162.06 E170.82054
G1 X145.62 Y161.67 E170.83747
G1 X145.08 Y161.24 E170.85462
G1 X144.58 Y160.79 E170.87145
G1 X144.09 Y160.30 E170.88883
G1 X143.63 Y159.77 E170.90637
G1 X143.22 Y159.24 E170.92308
G1 X142.84 Y158.67 E170.94008
G0 F12000 X150.77 Y153.50
G1 F6000 X150.97 Y153.78 E170.94875
G1 X151.21 Y154.03 E170.95742
G1 X151.50 Y154.23 E170.96613
G1 X151.81 Y154.38 E170.97482
G1 X152.15 Y154.47 E170.98352
G1 X152.50 Y154.50 E170.99221
G1 X152.84 Y154.47 E171.00085
G1 X153.18 Y154.38 E171.00958
G1 X153.50 Y154.23 E171.01825
G1 X153.78 Y154.03 E171.02694
G1 X154.03 Y153.78 E171.03565
G1 X154.23 Y153.50 E171.04432
G1 X154.38 Y153.18 E171.05304
G1 X154.47 Y152.85 E171.06175
G1 X154.50 Y152.50 E171.07041
G1 X154.47 Y152.15 E171.07907
G1 X154.38 Y151.82 E171.08777
G1 X154.23 Y151.50 E171.09650
G1 X154.03 Y151.22 E171.10517
G1 X153.78 Y150.97 E171.11388
G1 X153.50 Y150.77 E171.12257
G1 X153.18 Y150.62 E171.13124
G1 X152.84 Y150.53 E171.13997
G1 X152.50 Y150.50 E171.14861
G1 X152.15 Y150.53 E171.15729
G1 X151.81 Y150.62 E171.16599
G1 X151.50 Y150.77 E171.17469
G1 X151.21 Y150.97 E171.18339
G1 X150.97 Y151.22 E171.19207
G1 X150.77 Y151.50 E171.20074
G1 X150.62 Y151.82 E171.20946
G1 X150.53 Y152.15 E171.21817
G1 X150.50 Y152.50 E171.22683
G1 X150.53 Y152.85 E171.23549
G1 X150.62 Y153.18 E171.24419
G1 X150.77 Y153.50 E171.25292
G0 F12000 X151.11 Y153.30
;TYPE:WALL-OUTER
G1 F6000 X151.27 Y153.53 E171.25985
G1 X151.47 Y153.72 E171.26682
G1 X151.70 Y153.88 E171.27375
G1 X151.95 Y154.00 E171.28069
G1 X152.22 Y154.07 E171.28764
G1 X152.50 Y154.10 E171.29460
G1 X152.77 Y154.07 E171.30151
G1 X153.04 Y154.00 E171.30848
G1 X153.29 Y153.88 E171.31540
G1 X153.52 Y153.72 E171.32235
G1 X153.72 Y153.53 E171.32932
G1 X153.88 Y153.30 E171.33625
G1 X154.00 Y153.05 E171.34321
G1 X154.07 Y152.78 E171.35016
G1 X154.09 Y152.50 E171.35709
G1 X154.07 Y152.22 E171.36403
G1 X154.00 Y151.95 E171.37097
G1 X153.88 Y151.70 E171.37794
G1 X153.72 Y151.47 E171.38487
G1 X153.52 Y151.28 E171.39183
G1 X153.29 Y151.12 E171.39879
G1 X153.04 Y151.00 E171.40571
G1 X152.77 Y150.93 E171.41268
G1 X152.50 Y150.90 E171.41959
G1 X152.22 Y150.93 E171.42655
G1 X151.95 Y151.00 E171.43350
G1 X151.70 Y151.12 E171.44044
G1 X151.47 Y151.28 E171.44737
G1 X151.27 Y151.47 E171.45434
G1 X151.11 Y151.70 E171.46127
G1 X151.00 Y151.95 E171.46823
G1 X150.92 Y152.22 E171.47518
G1 X150.90 Y152.50 E171.48211
G1 X150.92 Y152.78 E171.48905
G1 X151.00 Y153.05 E171.49599
G1 X151.11 Y153.30 E171.50296
G0 F12000 X150.87 Y153.47
G0 X142.40 Y158.13
G0 X142.14 Y158.28
G1 F6000 X141.81 Y157.64 E171.52096
G1 X141.52 Y156.99 E171.53866
G1 X141.27 Y156.34 E171.55615
G1 X141.06 Y155.65 E171.57410
G1 X140.89 Y154.97 E171.59157
G1 X140.77 Y154.27 E171.60921
G1 X140.68 Y153.56 E171.62722
G1 X140.64 Y152.85 E171.64494
G1 X140.64 Y152.15 E171.66230
G1 X140.68 Y151.44 E171.68002
G1 X140.77 Y150.73 E171.69804
G1 X140.89 Y150.03 E171.71575
G1 X141.06 Y149.35 E171.73314
G1 X141.27 Y148.66 E171.75115
G1 X141.52 Y148.01 E171.76858
G1 X141.81 Y147.36 E171.78628
G1 X142.14 Y146.72 E171.80428
G1 X142.50 Y146.12 E171.82168
G1 X142.90 Y145.52 E171.83968
G1 X143.33 Y144.97 E171.85711
G1 X143.81 Y144.43 E171.87512
G1 X144.29 Y143.93 E171.89251
G1 X144.83 Y143.45 E171.91053
G1 X145.39 Y143.00 E171.92824
G1 X145.96 Y142.60 E171.94564
G1 X146.56 Y142.23 E171.96335
G1 X147.20 Y141.89 E171.98137
G1 X147.83 Y141.59 E171.99878
G1 X148.50 Y141.33 E172.01661
G1 X149.16 Y141.11 E172.03416
G1 X149.86 Y140.93 E172.05218
G1 X150.55 Y140.79 E172.06975
G1 X151.26 Y140.70 E172.08757
G1 X151.96 Y140.65 E172.10503
G1 X152.67 Y140.64 E172.12277
G1 X153.38 Y140.67 E172.14060
G1 X154.09 Y140.74 E172.15841
G1 X154.78 Y140.86 E172.17580
G1 X155.48 Y141.02 E172.19374
G1 X156.16 Y141.22 E172.21142
G1 X156.83 Y141.45 E172.22896
G1 X157.49 Y141.74 E172.24694
G1 X158.12 Y142.05 E172.26451
G1 X158.73 Y142.40 E172.28208
G1 X159.33 Y142.80 E172.29992
G1 X159.89 Y143.22 E172.31751
G1 X160.43 Y143.68 E172.33521
G1 X160.94 Y144.17 E172.35290
G1 X161.43 Y144.69 E172.37061
G1 X161.88 Y145.24 E172.38833
G1 X162.30 Y145.82 E172.40633
G1 X162.68 Y146.41 E172.42372
G1 X163.03 Y147.04 E172.44175
G1 X163.33 Y147.67 E172.45916
G1 X163.60 Y148.33 E172.47687
G1 X163.83 Y149.00 E172.49457
G1 X164.02 Y149.68 E172.51229
G1 X164.17 Y150.39 E172.53030
G1 X164.28 Y151.09 E172.54800
G1 X164.34 Y151.78 E172.56541
G1 X164.36 Y152.49 E172.58310
G1 X164.34 Y153.21 E172.60107
G1 X164.28 Y153.91 E172.61851
G1 X164.17 Y154.61 E172.63621
G1 X164.02 Y155.32 E172.65419
G1 X163.83 Y156.00 E172.67189
G1 X163.61 Y156.66 E172.68934
G1 X163.34 Y157.33 E172.70723
G1 X163.03 Y157.96 E172.72476
G1 X162.68 Y158.59 E172.74278
G1 X162.30 Y159.18 E172.76017
G1 X161.89 Y159.75 E172.77789
G1 X161.43 Y160.31 E172.79579
G1 X160.95 Y160.83 E172.81348
G1 X160.44 Y161.32 E172.83118
G1 X159.89 Y161.78 E172.84891
G1 X159.33 Y162.20 E172.86659
G1 X158.73 Y162.59 E172.88434
G1 X158.12 Y162.95 E172.90197
G1 X157.49 Y163.26 E172.91957
G1 X156.83 Y163.55 E172.93753
G1 X156.16 Y163.78 E172.95509
G1 X155.48 Y163.98 E172.97277
G1 X154.78 Y164.14 E172.99070
G1 X154.09 Y164.26 E173.00810
G1 X153.38 Y164.33 E173.02591
G1 X152.67 Y164.36 E173.04374
G1 X151.96 Y164.35 E173.06147
G1 X151.26 Y164.30 E173.07893
G1 X150.55 Y164.21 E173.09675
G1 X149.86 Y164.07 E173.11433
G1 X149.16 Y163.89 E173.13234
G1 X148.50 Y163.67 E173.14990
G1 X147.83 Y163.41 E173.16773
G1 X147.20 Y163.11 E173.18514
G1 X146.56 Y162.77 E173.20315
G1 X145.96 Y162.40 E173.22086
G1 X145.39 Y162.00 E173.23824
G1 X144.83 Y161.55 E173.25598
G1 X144.29 Y161.07 E173.27399
G1 X143.81 Y160.57 E173.29138
G1 X143.33 Y160.03 E173.30940
G1 X142.90 Y159.48 E173.32682
G1 X142.50 Y158.88 E173.34483
G1 X142.14 Y158.28 E173.36222
G0 F12000 X142.62 Y158.04
;TYPE:FILL
G1 F6000 X158.03 Y142.63 E173.90594
G0 F12000 X158.39 Y142.83
G1 F6000 X142.83 Y158.39 E174.45482
G0 F12000 X143.05 Y158.74
G1 F6000 X158.74 Y143.06 E175.00812
G0 F12000 X159.07 Y143.28
G1 F6000 X151.91 Y150.45 E175.26097
G0 F12000 X152.56 Y150.37
G1 F6000 X159.40 Y143.53 E175.50224
G0 F12000 X159.71 Y143.78
G1 F6000 X153.05 Y150.44 E175.73733
G0 F12000 X153.46 Y150.60
G1 F6000 X160.02 Y144.04 E175.96873
G0 F12000 X160.31 Y144.31
G1 F6000 X153.81 Y150.81 E176.19821
G0 F12000 X154.10 Y151.09
G1 F6000 X160.60 Y144.59 E176.42747
G0 F12000 X160.87 Y144.88
G1 F6000 X154.34 Y151.41 E176.65783
G0 F12000 X154.52 Y151.80
G1 F6000 X161.13 Y145.18 E176.89130
G0 F12000 X161.39 Y145.49
G1 F6000 X154.62 Y152.27 E177.13029
G0 F12000 X154.61 Y152.84
G1 F6000 X161.63 Y145.82 E177.37811
G0 F12000 X161.87 Y146.15
G1 F6000 X146.14 Y161.87 E177.93284
G0 F12000 X145.81 Y161.64
G1 F6000 X152.84 Y154.61 E178.18084
G0 F12000 X152.27 Y154.62
G1 F6000 X145.49 Y161.39 E178.41981
G0 F12000 X145.18 Y161.14
G1 F6000 X151.80 Y154.52 E178.65340
G0 F12000 X151.41 Y154.34
G1 F6000 X144.88 Y160.87 E178.88383
G0 F12000 X144.59 Y160.60
G1 F6000 X151.09 Y154.10 E179.11303
G0 F12000 X150.81 Y153.81
G1 F6000 X144.31 Y160.31 E179.34253
G0 F12000 X144.04 Y160.02
G1 F6000 X150.59 Y153.46 E179.57381
G0 F12000 X150.44 Y153.05
G1 F6000 X143.77 Y159.72 E179.80890
G0 F12000 X143.52 Y159.40
G1 F6000 X150.36 Y152.56 E180.05013
G0 F12000 X150.45 Y151.91
G1 F6000 X143.28 Y159.08 E180.30293
G0 F12000 X142.43 Y157.67
G1 F6000 X157.67 Y142.43 E180.84049
G0 F12000 X157.29 Y142.24
G1 F6000 X142.24 Y157.29 E181.37132
G0 F12000 X142.07 Y156.90
G1 F6000 X156.89 Y142.07 E181.89442
G0 F12000 X156.49 Y141.91
G1 F6000 X141.91 Y156.49 E182.40894
G0 F12000 X141.75 Y156.08
G1 F6000 X156.07 Y141.76 E182.91412
G0 F12000 X155.64 Y141.63
G1 F6000 X141.62 Y155.64 E183.40866
G0 F12000 X141.50 Y155.20
G1 F6000 X155.19 Y141.51 E183.89164
G0 F12000 X154.73 Y141.40
G1 F6000 X141.40 Y154.74 E184.36207
G0 F12000 X141.31 Y154.26
G1 F6000 X154.25 Y141.32 E184.81853
G0 F12000 X153.75 Y141.25
G1 F6000 X141.25 Y153.76 E185.25968
G0 F12000 X141.20 Y153.24
G1 F6000 X153.24 Y141.20 E185.68426
G0 F12000 X152.70 Y141.18
G1 F6000 X141.18 Y152.69 E186.09059
G0 F12000 X141.18 Y152.13
G1 F6000 X152.12 Y141.19 E186.47658
G0 F12000 X151.52 Y141.22
G1 F6000 X141.22 Y151.53 E186.84007
G0 F12000 X141.29 Y150.88
G1 F6000 X150.88 Y141.30 E187.17829
G0 F12000 X150.19 Y141.42
G1 F6000 X141.41 Y150.20 E187.48821
G0 F12000 X141.59 Y149.45
G1 F6000 X149.45 Y141.60 E187.76531
G0 F12000 X148.62 Y141.86
G1 F6000 X141.87 Y148.61 E188.00345
G0 F12000 X142.27 Y147.64
G1 F6000 X147.64 Y142.27 E188.19284
G0 F12000 X146.37 Y142.98
G1 F6000 X142.97 Y146.38 E188.31261
G0 F12000 X146.49 Y162.09
G1 F6000 X162.09 Y146.49 E188.86300
G0 F12000 X162.30 Y146.84
G1 F6000 X146.84 Y162.31 E189.40853
G0 F12000 X147.21 Y162.51
G1 F6000 X162.50 Y147.21 E189.94821
G0 F12000 X162.69 Y147.59
G1 F6000 X147.58 Y162.70 E190.48129
G0 F12000 X147.97 Y162.88
G1 F6000 X162.87 Y147.97 E191.00714
G0 F12000 X163.04 Y148.37
G1 F6000 X148.37 Y163.04 E191.52459
G0 F12000 X148.78 Y163.19
G1 F6000 X163.19 Y148.79 E192.03284
G0 F12000 X163.33 Y149.21
G1 F6000 X149.21 Y163.33 E192.53105
G0 F12000 X149.65 Y163.45
G1 F6000 X163.45 Y149.65 E193.01788
G0 F12000 X163.56 Y150.11
G1 F6000 X150.11 Y163.56 E193.49249
G0 F12000 X150.58 Y163.66
G1 F6000 X163.65 Y150.58 E193.95374
G0 F12000 X163.73 Y151.07
G1 F6000 X151.07 Y163.73 E194.40015
G0 F12000 X151.59 Y163.78
G1 F6000 X163.78 Y151.59 E194.83027
G0 F12000 X163.81 Y152.13
G1 F6000 X152.12 Y163.81 E195.24260
G0 F12000 X152.68 Y163.82
G1 F6000 X163.81 Y152.69 E195.63545
G0 F12000 X163.79 Y153.28
G1 F6000 X153.27 Y163.79 E196.00657
G0 F12000 X153.90 Y163.73
G1 F6000 X163.73 Y153.90 E196.35339
G0 F12000 X163.63 Y154.57
G1 F6000 X154.57 Y163.63 E196.67299
G0 F12000 X155.29 Y163.47
G1 F6000 X163.47 Y155.30 E196.96136
G0 F12000 X163.23 Y156.10
G1 F6000 X156.09 Y163.23 E197.21291
G0 F12000 X157.02 Y162.87
G1 F6000 X162.88 Y157.01 E197.41960
G0 F12000 X162.30 Y158.16
G1 F6000 X158.16 Y162.30 E197.56558
;LAYER:6
G0 F12000 X158.52 Y162.25 Z1.15
;TYPE:WALL-INNER
G1 F6000 X157.93 Y162.60 E197.58270
G1 X157.32 Y162.90 E197.59968
G1 X156.69 Y163.17 E197.61683
G1 X156.03 Y163.41 E197.63411
G1 X155.38 Y163.59 E197.65102
G1 X154.71 Y163.75 E197.66824
G1 X154.04 Y163.86 E197.68518
G1 X153.34 Y163.93 E197.70269
G1 X152.68 Y163.96 E197.71932
G1 X151.98 Y163.95 E197.73673
G1 X151.31 Y163.90 E197.75342
G1 X150.62 Y163.81 E197.77084
G1 X149.95 Y163.68 E197.78792
G1 X149.28 Y163.50 E197.80509
G1 X148.63 Y163.29 E197.82209
G1 X147.99 Y163.04 E197.83942
G1 X147.36 Y162.75 E197.85655
G1 X146.78 Y162.43 E197.87318
G1 X146.18 Y162.06 E197.89076
G1 X145.62 Y161.67 E197.90770
G1 X145.08 Y161.24 E197.92485
G1 X144.58 Y160.79 E197.94168
G1 X144.09 Y160.30 E197.95905
G1 X143.63 Y159.77 E197.97659
G1 X143.22 Y159.24 E197.99331
G1 X142.84 Y158.67 E198.01031
G1 X142.49 Y158.09 E198.02719
G1 X142.17 Y157.47 E198.04475
G1 X141.89 Y156.85 E198.06152
G1 X141.65 Y156.21 E198.07879
G1 X141.45 Y155.55 E198.09596
G1 X141.28 Y154.87 E198.11350
G1 X141.16 Y154.22 E198.12975
G1 X141.08 Y153.52 E198.14736
G1 X141.04 Y152.84 E198.16441
G1 X141.04 Y152.15 E198.18154
G1 X141.08 Y151.48 E198.19846
G1 X141.16 Y150.77 E198.21613
G1 X141.28 Y150.13 E198.23232
G1 X141.45 Y149.45 E198.24986
G1 X141.65 Y148.79 E198.26704
G1 X141.89 Y148.15 E198.28430
G1 X142.17 Y147.53 E198.30107
G1 X142.49 Y146.91 E198.31863
G1 X142.84 Y146.33 E198.33552
G1 X143.22 Y145.76 E198.35252
G1 X143.63 Y145.23 E198.36923
G1 X144.09 Y144.70 E198.38677
G1 X144.58 Y144.21 E198.40414
G1 X145.08 Y143.76 E198.42098
G1 X145.62 Y143.33 E198.43812
G1 X146.18 Y142.94 E198.45506
G1 X146.78 Y142.57 E198.47264
G1 X147.36 Y142.25 E198.48927
G1 X147.99 Y141.96 E198.50640
G1 X148.63 Y141.71 E198.52373
G1 X149.28 Y141.50 E198.54073
G1 X149.95 Y141.32 E198.55790
G1 X150.62 Y141.19 E198.57499
G1 X151.31 Y141.10 E198.59241
G1 X151.98 Y141.05 E198.60909
G1 X152.68 Y141.04 E198.62650
G1 X153.34 Y141.07 E198.64313
G1 X154.04 Y141.14 E198.66064
G1 X154.71 Y141.25 E198.67758
G1 X155.38 Y141.41 E198.69481
G1 X156.03 Y141.59 E198.71172
G1 X156.69 Y141.83 E198.72900
G1 X157.32 Y142.10 E198.74614
G1 X157.93 Y142.40 E198.76312
G1 X158.52 Y142.75 E198.78024
G1 X159.10 Y143.13 E198.79762
G1 X159.65 Y143.54 E198.81469
G1 X160.16 Y143.97 E198.83119
G1 X160.67 Y144.46 E198.84893
G1 X161.13 Y144.95 E198.86572
G1 X161.56 Y145.48 E198.88284
G1 X161.98 Y146.06 E198.90052
G1 X162.34 Y146.61 E198.91703
G1 X162.67 Y147.21 E198.93416
G1 X162.97 Y147.85 E198.95166
G1 X163.22 Y148.46 E198.96807
G1 X163.46 Y149.13 E198.98585
G1 X163.63 Y149.78 E199.00256
G1 X163.78 Y150.46 E199.02006
G1 X163.88 Y151.11 E199.03653
G1 X163.94 Y151.82 E199.05414
G1 X163.96 Y152.50 E199.07118
G1 X163.94 Y153.18 E199.08820
G1 X163.88 Y153.88 E199.10574
G1 X163.78 Y154.54 E199.12231
G1 X163.63 Y155.22 E199.13980
G1 X163.46 Y155.87 E199.15652
G1 X163.23 Y156.54 E199.17410
G1 X162.97 Y157.15 E199.19070
G1 X162.67 Y157.79 E199.20821
G1 X162.34 Y158.39 E199.22534
G1 X161.98 Y158.94 E199.24184
G1 X161.56 Y159.52 E199.25953
G1 X161.13 Y160.05 E199.27665
G1 X160.67 Y160.54 E199.29343
G1 X160.16 Y161.03 E199.31108
G1 X159.65 Y161.46 E199.32768
G1 X159.10 Y161.87 E199.34474
G1 X158.52 Y162.25 E199.36212
G0 F12000 X153.50 Y154.23
G1 F6000 X153.78 Y154.03 E199.37082
G1 X154.03 Y153.78 E199.37953
G1 X154.23 Y153.50 E199.38819
G1 X154.38 Y153.18 E199.39692
G1 X154.47 Y152.85 E199.40562
G1 X154.50 Y152.50 E199.41429
G1 X154.47 Y152.15 E199.42295
G1 X154.38 Y151.82 E199.43165
G1 X154.23 Y151.50 E199.44038
G1 X154.03 Y151.22 E199.44904
G1 X153.78 Y150.97 E199.45776
G1 X153.50 Y150.77 E199.46645
G1 X153.18 Y150.62 E199.47512
G1 X152.84 Y150.53 E199.48384
G1 X152.50 Y150.50 E199.49248
G1 X152.15 Y150.53 E199.50117
G1 X151.81 Y150.62 E199.50987
G1 X151.50 Y150.77 E199.51857
G1 X151.21 Y150.97 E199.52727
G1 X150.97 Y151.22 E199.53595
G1 X150.77 Y151.50 E199.54461
G1 X150.62 Y151.82 E199.55334
G1 X150.53 Y152.15 E199.56204
G1 X150.50 Y152.50 E199.57071
G1 X150.53 Y152.85 E199.57937
G1 X150.62 Y153.18 E199.58807
G1 X150.77 Y153.50 E199.59680
G1 X150.97 Y153.78 E199.60546
G1 X151.21 Y154.03 E199.61414
G1 X151.50 Y154.23 E199.62285
G1 X151.81 Y154.38 E199.63154
G1 X152.15 Y154.47 E199.64024
G1 X152.50 Y154.50 E199.64893
G1 X152.84 Y154.47 E199.65757
G1 X153.18 Y154.38 E199.66629
G1 X153.50 Y154.23 E199.67496
G0 F12000 X153.29 Y153.88
;TYPE:WALL-OUTER
G1 F6000 X153.52 Y153.72 E199.68192
G1 X153.72 Y153.53 E199.68889
G1 X153.88 Y153.30 E199.69581
G1 X154.00 Y153.05 E199.70278
G1 X154.07 Y152.78 E199.70972
G1 X154.09 Y152.50 E199.71666
G1 X154.07 Y152.22 E199.72360
G1 X154.00 Y151.95 E199.73054
G1 X153.88 Y151.70 E199.73751
G1 X153.72 Y151.47 E199.74443
G1 X153.52 Y151.28 E199.75140
G1 X153.29 Y151.12 E199.75836
G1 X153.04 Y151.00 E199.76527
G1 X152.77 Y150.93 E199.77224
G1 X152.50 Y150.90 E199.77916
G1 X152.22 Y150.93 E199.78612
G1 X151.95 Y151.00 E199.79306
G1 X151.70 Y151.12 E199.80000
G1 X151.47 Y151.28 E199.80694
G1 X151.27 Y151.47 E199.81390
G1 X151.11 Y151.70 E199.82083
G1 X151.00 Y151.95 E199.82780
G1 X150.92 Y152.22 E199.83474
G1 X150.90 Y152.50 E199.84168
G1 X150.92 Y152.78 E199.84861
G1 X151.00 Y153.05 E199.85556
G1 X151.11 Y153.30 E199.86252
G1 X151.27 Y153.53 E199.86945
G1 X151.47 Y153.72 E199.87642
G1 X151.70 Y153.88 E199.88335
G1 X151.95 Y154.00 E199.89029
G1 X152.22 Y154.07 E199.89724
G1 X152.50 Y154.10 E199.90420
G1 X152.77 Y154.07 E199.91111
G1 X153.04 Y154.00 E199.91808
G1 X153.29 Y153.88 E199.92500
G0 F12000 X153.47 Y154.13
G0 X157.98 Y162.68
G0 X158.12 Y162.95
G1 F6000 X157.49 Y163.26 E199.94261
G1 X156.83 Y163.55 E199.96056
G1 X156.16 Y163.78 E199.97813
G1 X155.48 Y163.98 E199.99580
G1 X154.78 Y164.14 E200.01374
G1 X154.09 Y164.26 E200.03113
G1 X153.38 Y164.33 E200.04894
G1 X152.67 Y164.36 E200.06677
G1 X151.96 Y164.35 E200.08451
G1 X151.26 Y164.30 E200.10197
G1 X150.55 Y164.21 E200.11979
G1 X149.86 Y164.07 E200.13736
G1 X149.16 Y163.89 E200.15538
G1 X148.50 Y163.67 E200.17293
G1 X147.83 Y163.41 E200.19077
G1 X147.20 Y163.11 E200.20818
G1 X146.56 Y162.77 E200.22619
G1 X145.96 Y162.40 E200.24390
G1 X145.39 Y162.00 E200.26128
G1 X144.83 Y161.55 E200.27901
G1 X144.29 Y161.07 E200.29703
G1 X143.81 Y160.57 E200.31442
G1 X143.33 Y160.03 E200.33244
G1 X142.90 Y159.48 E200.34986
G1 X142.50 Y158.88 E200.36786
G1 X142.14 Y158.28 E200.38526
G1 X141.81 Y157.64 E200.40326
G1 X141.52 Y156.99 E200.42096
G1 X141.27 Y156.34 E200.43845
G1 X141.06 Y155.65 E200.45640
G1 X140.89 Y154.97 E200.47387
G1 X140.77 Y154.27 E200.49151
G1 X140.68 Y153.56 E200.50952
G1 X140.64 Y152.85 E200.52724
G1 X140.64 Y152.15 E200.54460
G1 X140.68 Y151.44 E200.56232
G1 X140.77 Y150.73 E200.58034
G1 X140.89 Y150.03 E200.59805
G1 X141.06 Y149.35 E200.61544
G1 X141.27 Y148.66 E200.63345
G1 X141.52 Y148.01 E200.65088
G1 X141.81 Y147.36 E200.66858
G1 X142.14 Y146.72 E200.68659
G1 X142.50 Y146.12 E200.70398
G1 X142.90 Y145.52 E200.72198
G1 X143.33 Y144.97 E200.73941
G1 X143.81 Y144.43 E200.75742
G1 X144.29 Y143.93 E200.77481
G1 X144.83 Y143.45 E200.79283
G1 X145.39 Y143.00 E200.81055
G1 X145.96 Y142.60 E200.82794
G1 X146.56 Y142.23 E200.84565
G1 X147.20 Y141.89 E200.86367
G1 X147.83 Y141.59 E200.88108
G1 X148.50 Y141.33 E200.89891
G1 X149.16 Y141.11 E200.91646
G1 X149.86 Y140.93 E200.93448
G1 X150.55 Y140.79 E200.95205
G1 X151.26 Y140.70 E200.96987
G1 X151.96 Y140.65 E200.98733
G1 X152.67 Y140.64 E201.00507
G1 X153.38 Y140.67 E201.02290
G1 X154.09 Y140.74 E201.04071
G1 X154.78 Y140.86 E201.05811
G1 X155.48 Y141.02 E201.07604
G1 X156.16 Y141.22 E201.09372
G1 X156.83 Y141.45 E201.11126
G1 X157.49 Y141.74 E201.12924
G1 X158.12 Y142.05 E201.14681
G1 X158.73 Y142.40 E201.16438
G1 X159.33 Y142.80 E201.18222
G1 X159.89 Y143.22 E201.19981
G1 X160.43 Y143.68 E201.21751
G1 X160.94 Y144.17 E201.23520
G1 X161.43 Y144.69 E201.25291
G1 X161.88 Y145.24 E201.27063
G1 X162.30 Y145.82 E201.28863
G1 X162.68 Y146.41 E201.30602
G1 X163.03 Y147.04 E201.32405
G1 X163.33 Y147.67 E201.34146
G1 X163.60 Y148.33 E201.35917
G1 X163.83 Y149.00 E201.37687
G1 X164.02 Y149.68 E201.39459
G1 X164.17 Y150.39 E201.41260
G1 X164.28 Y151.09 E201.43030
G1 X164.34 Y151.78 E201.44771
G1 X164.36 Y152.49 E201.46540
G1 X164.34 Y153.21 E201.48337
G1 X164.28 Y153.91 E201.50081
G1 X164.17 Y154.61 E201.51851
G1 X164.02 Y155.32 E201.53649
G1 X163.83 Y156.00 E201.55419
G1 X163.61 Y156.66 E201.57164
G1 X163.34 Y157.33 E201.58953
G1 X163.03 Y157.96 E201.60706
G1 X162.68 Y158.59 E201.62509
G1 X162.30 Y159.18 E201.64247
G1 X161.89 Y159.75 E201.66019
G1 X161.43 Y160.31 E201.67810
G1 X160.95 Y160.83 E201.69578
G1 X160.44 Y161.32 E201.71348
G1 X159.89 Y161.78 E201.73121
G1 X159.33 Y162.20 E201.74889
G1 X158.73 Y162.59 E201.76664
G1 X158.12 Y162.95 E201.78427
G0 F12000 X157.73 Y162.54
;TYPE:FILL
G1 F6000 X151.26 Y156.07 E202.01246
G0 F12000 X151.59 Y155.83
G1 F6000 X149.18 Y153.42 E202.09751
G0 F12000 X148.93 Y153.74
G1 F6000 X142.46 Y147.27 E202.32576
G0 F12000 X142.66 Y146.90
G1 F6000 X148.76 Y153.00 E202.54092
G0 F12000 X149.06 Y152.73
G1 F6000 X152.26 Y155.94 E202.65405
G0 F12000 X152.00 Y156.25
G1 F6000 X158.09 Y162.34 E202.86891
G0 F12000 X158.45 Y162.13
G1 F6000 X152.60 Y156.28 E203.07531
G0 F12000 X152.82 Y155.93
G1 F6000 X149.06 Y152.17 E203.20795
G0 F12000 X148.72 Y152.40
G1 F6000 X142.87 Y146.54 E203.41443
G0 F12000 X143.09 Y146.20
G1 F6000 X148.77 Y151.88 E203.61484
G0 F12000 X149.15 Y151.69
G1 F6000 X150.41 Y152.96 E203.65965
G0 F12000 X150.37 Y152.35
G1 F6000 X149.28 Y151.26 E203.69813
G0 F12000 X149.04 Y151.02
G1 F6000 X143.56 Y145.54 E203.89114
G0 F12000 X143.82 Y145.23
G1 F6000 X149.22 Y150.63 E204.08157
G0 F12000 X149.46 Y150.87
G1 F6000 X150.46 Y151.87 E204.11686
G0 F12000 X150.62 Y151.47
G1 F6000 X149.67 Y150.52 E204.15038
G0 F12000 X149.44 Y150.29
G1 F6000 X144.08 Y144.93 E204.33948
G0 F12000 X144.35 Y144.64
G1 F6000 X149.70 Y149.98 E204.52797
G0 F12000 X149.92 Y150.21
G1 F6000 X150.85 Y151.13 E204.56071
G0 F12000 X151.13 Y150.85
G1 F6000 X150.21 Y149.93 E204.59338
G0 F12000 X149.97 Y149.69
G1 F6000 X144.63 Y144.35 E204.78169
G0 F12000 X144.93 Y144.08
G1 F6000 X150.29 Y149.44 E204.97074
G0 F12000 X150.52 Y149.68
G1 F6000 X151.47 Y150.62 E205.00422
G0 F12000 X151.87 Y150.46
G1 F6000 X150.87 Y149.46 E205.03950
G0 F12000 X150.63 Y149.22
G1 F6000 X145.23 Y143.82 E205.22994
G0 F12000 X145.54 Y143.57
G1 F6000 X151.01 Y149.03 E205.42268
G0 F12000 X151.26 Y149.28
G1 F6000 X152.35 Y150.37 E205.46117
G0 F12000 X152.96 Y150.42
G1 F6000 X151.69 Y149.15 E205.50597
G0 F12000 X151.42 Y148.88
G1 F6000 X145.87 Y143.32 E205.70185
G0 F12000 X146.20 Y143.09
G1 F6000 X151.89 Y148.78 E205.90262
G0 F12000 X152.18 Y149.07
G1 F6000 X155.93 Y152.82 E206.03505
G0 F12000 X156.27 Y152.60
G1 F6000 X162.13 Y158.45 E206.24160
G0 F12000 X161.91 Y158.80
G1 F6000 X156.22 Y153.11 E206.44214
G0 F12000 X155.85 Y153.31
G1 F6000 X154.58 Y152.03 E206.48708
G0 F12000 X154.62 Y152.64
G1 F6000 X155.72 Y153.74 E206.52582
G0 F12000 X155.97 Y153.99
G1 F6000 X161.43 Y159.45 E206.71854
G0 F12000 X161.18 Y159.76
G1 F6000 X155.78 Y154.37 E206.90893
G0 F12000 X155.54 Y154.12
G1 F6000 X154.54 Y153.12 E206.94430
G0 F12000 X154.37 Y153.52
G1 F6000 X155.32 Y154.47 E206.97788
G0 F12000 X155.56 Y154.71
G1 F6000 X160.92 Y160.07 E207.16697
G0 F12000 X160.64 Y160.36
G1 F6000 X155.30 Y155.02 E207.35550
G0 F12000 X155.08 Y154.79
G1 F6000 X154.14 Y153.86 E207.38845
G0 F12000 X153.86 Y154.15
G1 F6000 X154.79 Y155.07 E207.42120
G0 F12000 X155.02 Y155.31
G1 F6000 X160.36 Y160.64 E207.60943
G0 F12000 X160.07 Y160.92
G1 F6000 X154.71 Y155.56 E207.79851
G0 F12000 X154.47 Y155.32
G1 F6000 X153.52 Y154.37 E207.83208
G0 F12000 X153.12 Y154.54
G1 F6000 X154.13 Y155.54 E207.86745
G0 F12000 X154.37 Y155.78
G1 F6000 X159.76 Y161.18 E208.05773
G0 F12000 X159.45 Y161.43
G1 F6000 X153.99 Y155.97 E208.25046
G0 F12000 X153.74 Y155.72
G1 F6000 X152.65 Y154.62 E208.28898
G0 F12000 X152.04 Y154.58
G1 F6000 X153.31 Y155.85 E208.33385
G0 F12000 X153.57 Y156.12
G1 F6000 X159.13 Y161.67 E208.52975
G0 F12000 X158.79 Y161.90
G1 F6000 X153.11 Y156.22 E208.73034
G0 F12000 X152.06 Y156.78
G1 F6000 X148.21 Y152.93 E208.86609
G0 F12000 X148.88 Y151.42
G1 F6000 X143.32 Y145.86 E209.06213
G0 F12000 X142.27 Y147.64
G1 F6000 X157.35 Y162.72 E209.59418
G0 F12000 X156.96 Y162.90
G1 F6000 X142.09 Y148.03 E210.11860
G0 F12000 X141.93 Y148.44
G1 F6000 X156.56 Y163.06 E210.63468
G0 F12000 X156.14 Y163.22
G1 F6000 X141.78 Y148.85 E211.14152
G0 F12000 X141.64 Y149.28
G1 F6000 X155.71 Y163.35 E211.63786
G0 F12000 X155.27 Y163.47
G1 F6000 X141.52 Y149.72 E212.12292
G0 F12000 X141.41 Y150.18
G1 F6000 X154.81 Y163.58 E212.59561
G0 F12000 X154.33 Y163.67
G1 F6000 X141.33 Y150.66 E213.05447
G0 F12000 X141.26 Y151.16
G1 F6000 X153.84 Y163.74 E213.49826
G0 F12000 X153.33 Y163.79
G1 F6000 X141.21 Y151.67 E213.92581
G0 F12000 X141.18 Y152.21
G1 F6000 X152.78 Y163.82 E214.33530
G0 F12000 X152.22 Y163.81
G1 F6000 X141.18 Y152.77 E214.72476
G0 F12000 X141.21 Y153.37
G1 F6000 X151.62 Y163.78 E215.09211
G0 F12000 X150.99 Y163.72
G1 F6000 X141.28 Y154.01 E215.43465
G0 F12000 X141.39 Y154.68
G1 F6000 X150.31 Y163.60 E215.74944
G0 F12000 X149.57 Y163.43
G1 F6000 X141.56 Y155.42 E216.03229
G0 F12000 X141.81 Y156.23
G1 F6000 X148.76 Y163.19 E216.27758
G0 F12000 X147.81 Y162.80
G1 F6000 X142.19 Y157.18 E216.47579
G0 F12000 X142.83 Y158.38
G1 F6000 X146.61 Y162.17 E216.60923
G0 F12000 X150.23 Y156.15
G1 F6000 X151.24 Y155.14 E216.64486
G0 F12000 X150.51 Y155.32
G1 F6000 X149.69 Y154.50 E216.67370
G0 F12000 X150.97 Y151.22
G0 X152.73 Y149.06
G1 F6000 X155.93 Y152.26 E216.78662
G0 F12000 X156.23 Y151.99
G1 F6000 X162.34 Y158.09 E217.00194
G0 F12000 X162.54 Y157.73
G1 F6000 X156.06 Y151.25 E217.23055
G0 F12000 X155.82 Y151.58
G1 F6000 X153.42 Y149.18 E217.31510
G0 F12000 X153.74 Y148.93
G1 F6000 X147.27 Y142.46 E217.54345
G0 F12000 X146.90 Y142.66
G1 F6000 X153.00 Y148.76 E217.75873
G0 F12000 X152.94 Y148.22
G1 F6000 X156.78 Y152.06 E217.89425
G0 F12000 X156.12 Y153.57
G1 F6000 X161.67 Y159.13 E218.09022
G0 F12000 X162.72 Y157.35
G1 F6000 X147.65 Y142.27 E218.62214
G0 F12000 X148.03 Y142.09
G1 F6000 X162.90 Y156.96 E219.14670
G0 F12000 X163.06 Y156.56
G1 F6000 X148.44 Y141.93 E219.66270
G0 F12000 X148.85 Y141.78
G1 F6000 X163.21 Y156.14 E220.16929
G0 F12000 X163.35 Y155.71
G1 F6000 X149.28 Y141.64 E220.66565
G0 F12000 X149.73 Y141.53
G1 F6000 X163.47 Y155.27 E221.15058
G0 F12000 X163.58 Y154.81
G1 F6000 X150.19 Y141.42 E221.62298
G0 F12000 X150.66 Y141.33
G1 F6000 X163.67 Y154.33 E222.08184
G0 F12000 X163.74 Y153.84
G1 F6000 X151.16 Y141.26 E222.52568
G0 F12000 X151.68 Y141.21
G1 F6000 X163.79 Y153.32 E222.95297
G0 F12000 X163.81 Y152.78
G1 F6000 X152.22 Y141.18 E223.36208
G0 F12000 X152.78 Y141.18
G1 F6000 X163.81 Y152.22 E223.75135
G0 F12000 X163.78 Y151.62
G1 F6000 X153.37 Y141.21 E224.11854
G0 F12000 X154.01 Y141.28
G1 F6000 X163.72 Y150.99 E224.46102
G0 F12000 X163.60 Y150.31
G1 F6000 X154.68 Y141.39 E224.77564
G0 F12000 X155.42 Y141.56
G1 F6000 X163.43 Y149.57 E225.05811
G0 F12000 X163.18 Y148.75
G1 F6000 X156.24 Y141.82 E225.30269
G0 F12000 X157.19 Y142.20
G1 F6000 X162.80 Y147.81 E225.50081
G0 F12000 X162.17 Y146.61
G1 F6000 X158.39 Y142.83 E225.63418
G0 F12000 X156.15 Y150.23
G1 F6000 X155.14 Y151.24 E225.66979
G0 F12000 X155.32 Y150.51
G1 F6000 X154.52 Y149.71 E225.69808
G0 F12000 X152.40 Y148.72
G1 F6000 X146.55 Y142.87 E225.90446
;LAYER:7
G0 F12000 X146.62 Y142.66 Z1.30
;TYPE:WALL-INNER
G1 F6000 X147.24 Y142.32 E225.92206
G1 X147.84 Y142.03 E225.93875
G1 X148.48 Y141.77 E225.95589
G1 X149.12 Y141.55 E225.97285
G1 X149.80 Y141.36 E225.99032
G1 X150.48 Y141.22 E226.00758
G1 X151.13 Y141.12 E226.02410
G1 X151.83 Y141.06 E226.04153
G1 X152.53 Y141.04 E226.05905
G1 X152.68 Y141.04 E226.06276
G1 X153.20 Y141.06 E226.07590
G1 X153.88 Y141.12 E226.09286
G1 X154.55 Y141.23 E226.10982
G1 X155.24 Y141.37 E226.12726
G1 X155.39 Y141.41 E226.13113
G1 X155.89 Y141.55 E226.14409
G1 X156.53 Y141.77 E226.16108
G1 X157.18 Y142.04 E226.17845
G1 X157.78 Y142.33 E226.19521
G1 X158.39 Y142.67 E226.21270
G1 X158.97 Y143.04 E226.22974
G1 X159.53 Y143.45 E226.24702
G1 X160.03 Y143.87 E226.26342
G1 X160.54 Y144.34 E226.28073
G1 X161.03 Y144.84 E226.29815
G1 X161.47 Y145.37 E226.31526
G1 X161.88 Y145.92 E226.33241
G1 X162.26 Y146.50 E226.34968
G1 X162.59 Y147.07 E226.36608
G1 X162.90 Y147.70 E226.38370
G1 X163.17 Y148.32 E226.40043
G1 X163.41 Y148.98 E226.41813
G1 X163.59 Y149.62 E226.43470
G1 X163.74 Y150.29 E226.45176
G1 X163.85 Y150.97 E226.46893
G1 X163.93 Y151.68 E226.48669
G1 X163.96 Y152.36 E226.50369
G1 X163.96 Y152.50 E226.50738
G1 X163.95 Y153.03 E226.52059
G1 X163.94 Y153.18 E226.52430
G1 X163.89 Y153.70 E226.53728
G1 X163.80 Y154.39 E226.55467
G1 X163.66 Y155.08 E226.57212
G1 X163.49 Y155.73 E226.58888
G1 X163.28 Y156.39 E226.60617
G1 X163.03 Y157.03 E226.62328
G1 X162.75 Y157.63 E226.63992
G1 X162.42 Y158.23 E226.65701
G1 X162.04 Y158.84 E226.67484
G1 X161.97 Y158.96 E226.67838
G1 X161.66 Y159.38 E226.69124
G1 X161.23 Y159.92 E226.70869
G1 X160.78 Y160.42 E226.72547
G1 X160.28 Y160.92 E226.74307
G1 X159.78 Y161.35 E226.75959
G1 X159.21 Y161.79 E226.77749
G1 X158.66 Y162.16 E226.79407
G1 X158.06 Y162.52 E226.81134
G1 X157.46 Y162.83 E226.82830
G1 X156.82 Y163.11 E226.84563
G1 X156.19 Y163.35 E226.86249
G1 X155.53 Y163.55 E226.87968
G1 X154.85 Y163.72 E226.89704
G1 X154.18 Y163.84 E226.91412
G1 X153.51 Y163.91 E226.93100
G1 X152.81 Y163.96 E226.94854
G1 X152.67 Y163.96 E226.95189
G1 X152.13 Y163.96 E226.96536
G1 X151.98 Y163.95 E226.96928
G1 X151.47 Y163.91 E226.98183
G1 X150.77 Y163.83 E226.99960
G1 X150.11 Y163.71 E227.01631
