;-- START GCODE --
;Sliced for Type A Machines Series 1
;Sliced at: Sat 14-03-2015 18:13:01
;Basic settings: Layer height: 0.15 Walls: 0.8 Fill: 12
;Print Speed: 100 Support: 0 
;Retraction Speed: 40 Retraction Distance: 1.2
;Print time: #P_TIME#
;Filament used: #F_AMNT#m #F_WGHT#g
;Filament cost: #F_COST#
M106 S255	 ;start with the fan on
G21        ;metric values
G90        ;absolute positioning
M106 S255    ;start with the fan on
G28     ;move to endstops
G29		;allows for auto-levelling
G1 X150 Y5  Z15.0 F12000 ;center and move the platform down 15mm
M109 S220 ;Heat To temp
G92 E0                  ;zero the extruded length
G1 F200 E30              ;extrude 30mm of feed stock
G92 E0                  ;zero the extruded length again
G1 X175 Y25  Z0 F12000 ;remove bugger
G1 X220 F12000 ;remove bugger
G1 X150 Y150  Z15 F12000 ;recenter and begin
G1 F12000

;Layer count: 40
;LAYER:0
M106 S255
G0 F12000 X141.16 Y141.36 Z0.25
;TYPE:SKIRT
G1 F1800 X141.84 Y140.70 E0.03949
G1 X142.56 Y140.08 E0.07901
G1 X143.33 Y139.51 E0.11874
G1 X144.12 Y138.99 E0.15822
G1 X144.94 Y138.51 E0.19777
G1 X145.79 Y138.08 E0.23735
G1 X146.67 Y137.71 E0.27689
G1 X147.56 Y137.38 E0.31649
G1 X148.48 Y137.12 E0.35604
G1 X149.40 Y136.90 E0.39554
G1 X150.34 Y136.75 E0.43513
G1 X151.29 Y136.65 E0.47472
G1 X152.18 Y136.60 E0.51155
G1 X152.31 Y136.60 E0.51708
G1 X153.19 Y136.61 E0.55376
G1 X154.14 Y136.68 E0.59332
G1 X155.08 Y136.81 E0.63283
G1 X156.02 Y136.99 E0.67244
G1 X156.94 Y137.23 E0.71199
G1 X157.84 Y137.52 E0.75150
G1 X158.73 Y137.87 E0.79105
G1 X159.59 Y138.27 E0.83065
G1 X160.43 Y138.72 E0.87005
G1 X161.24 Y139.22 E0.90967
G1 X162.02 Y139.76 E0.94936
G1 X162.76 Y140.36 E0.98880
G1 X163.47 Y140.99 E1.02825
G1 X164.14 Y141.67 E1.06788
G1 X164.77 Y142.38 E1.10757
G1 X165.35 Y143.14 E1.14704
G1 X165.89 Y143.92 E1.18652
G1 X166.38 Y144.74 E1.22616
G1 X166.81 Y145.58 E1.26564
G1 X167.20 Y146.45 E1.30526
G1 X167.52 Y147.29 E1.34280
G1 X167.57 Y147.42 E1.34846
G1 X167.82 Y148.25 E1.38449
G1 X168.05 Y149.17 E1.42391
G1 X168.22 Y150.11 E1.46339
G1 X168.33 Y151.05 E1.50293
G1 X168.39 Y152.00 E1.54246
G1 X168.40 Y152.95 E1.58204
G1 X168.34 Y153.90 E1.62161
G1 X168.23 Y154.84 E1.66113
G1 X168.06 Y155.78 E1.70071
G1 X167.83 Y156.71 E1.74028
G1 X167.57 Y157.57 E1.77803
G1 X167.52 Y157.70 E1.78361
G1 X167.22 Y158.51 E1.81945
G1 X166.84 Y159.38 E1.85897
G1 X166.40 Y160.22 E1.89848
G1 X165.91 Y161.04 E1.93804
G1 X165.38 Y161.83 E1.97766
G1 X164.80 Y162.58 E2.01711
G1 X164.17 Y163.30 E2.05663
G1 X163.50 Y163.98 E2.09638
G1 X162.80 Y164.62 E2.13592
G1 X162.06 Y165.21 E2.17523
G1 X161.28 Y165.76 E2.21490
G1 X160.47 Y166.26 E2.25459
G1 X159.63 Y166.71 E2.29395
G1 X158.77 Y167.11 E2.33359
G1 X158.55 Y167.20 E2.34333
G1 X158.73 Y167.27 E2.35128
G1 X159.59 Y167.66 E2.39064
G1 X160.43 Y168.11 E2.43019
G1 X161.24 Y168.61 E2.46974
G1 X162.02 Y169.16 E2.50935
G1 X162.76 Y169.75 E2.54885
G1 X163.47 Y170.38 E2.58830
G1 X164.14 Y171.06 E2.62793
G1 X164.77 Y171.78 E2.66762
G1 X165.35 Y172.53 E2.70715
G1 X165.89 Y173.32 E2.74660
G1 X166.38 Y174.13 E2.78615
G1 X166.81 Y174.97 E2.82569
G1 X167.20 Y175.84 E2.86531
G1 X167.52 Y176.69 E2.90284
G1 X167.57 Y176.82 E2.90851
G1 X167.82 Y177.65 E2.94454
G1 X168.05 Y178.57 E2.98396
G1 X168.22 Y179.50 E3.02344
G1 X168.33 Y180.45 E3.06298
G1 X168.39 Y181.40 E3.10251
G1 X168.40 Y182.35 E3.14217
G1 X168.34 Y183.30 E3.18174
G1 X168.23 Y184.24 E3.22122
G1 X168.06 Y185.18 E3.26080
G1 X167.83 Y186.10 E3.30037
G1 X167.57 Y186.97 E3.33812
G1 X167.52 Y187.10 E3.34370
G1 X167.22 Y187.91 E3.37954
G1 X166.84 Y188.78 E3.41906
G1 X166.40 Y189.62 E3.45857
G1 X165.91 Y190.44 E3.49813
G1 X165.38 Y191.22 E3.53769
G1 X164.80 Y191.98 E3.57724
G1 X164.17 Y192.69 E3.61675
G1 X163.50 Y193.38 E3.65641
G1 X162.80 Y194.01 E3.69604
G1 X162.06 Y194.60 E3.73541
G1 X161.28 Y195.15 E3.77499
G1 X160.47 Y195.66 E3.81468
G1 X159.63 Y196.11 E3.85404
G1 X158.77 Y196.51 E3.89368
G1 X157.89 Y196.86 E3.93321
G1 X156.98 Y197.15 E3.97280
G1 X156.06 Y197.39 E4.01233
G1 X155.13 Y197.58 E4.05187
G1 X154.19 Y197.71 E4.09144
G1 X153.24 Y197.78 E4.13093
G1 X152.29 Y197.80 E4.17035
G1 X151.34 Y197.76 E4.20997
G1 X150.39 Y197.66 E4.24963
G1 X149.45 Y197.50 E4.28920
G1 X148.52 Y197.29 E4.32876
G1 X147.61 Y197.03 E4.36829
G1 X146.71 Y196.71 E4.40779
G1 X145.84 Y196.34 E4.44742
G1 X144.99 Y195.91 E4.48696
G1 X144.16 Y195.44 E4.52649
G1 X143.37 Y194.91 E4.56603
G1 X142.60 Y194.34 E4.60559
G1 X141.88 Y193.73 E4.64521
G1 X141.19 Y193.07 E4.68479
G1 X140.54 Y192.38 E4.72424
G1 X139.98 Y191.69 E4.76106
G1 X139.89 Y191.59 E4.76669
G1 X139.37 Y190.87 E4.80353
G1 X138.86 Y190.07 E4.84296
G1 X138.40 Y189.24 E4.88243
G1 X137.98 Y188.38 E4.92209
G1 X137.62 Y187.50 E4.96165
G1 X137.31 Y186.60 E5.00124
G1 X137.06 Y185.69 E5.04072
G1 X136.86 Y184.76 E5.08022
G1 X136.72 Y183.82 E5.11975
G1 X136.63 Y182.87 E5.15946
G1 X136.60 Y182.01 E5.19527
G1 X136.60 Y181.88 E5.20076
G1 X136.63 Y180.97 E5.23852
G1 X136.71 Y180.02 E5.27801
G1 X136.85 Y179.08 E5.31756
G1 X137.05 Y178.15 E5.35712
G1 X137.30 Y177.23 E5.39665
G1 X137.60 Y176.33 E5.43617
G1 X137.96 Y175.45 E5.47580
G1 X138.38 Y174.59 E5.51539
G1 X138.84 Y173.76 E5.55490
G1 X139.35 Y172.96 E5.59449
G1 X139.91 Y172.19 E5.63409
G1 X140.51 Y171.45 E5.67358
G1 X141.16 Y170.75 E5.71312
G1 X141.84 Y170.10 E5.75261
G1 X142.53 Y169.51 E5.79042
G1 X142.64 Y169.42 E5.79619
G1 X143.33 Y168.91 E5.83192
G1 X144.12 Y168.38 E5.87124
G1 X144.94 Y167.91 E5.91088
G1 X145.80 Y167.48 E5.95056
G1 X146.45 Y167.20 E5.98005
G1 X145.84 Y166.94 E6.00769
G1 X144.99 Y166.51 E6.04724
G1 X144.16 Y166.04 E6.08676
G1 X143.37 Y165.52 E6.12630
G1 X142.60 Y164.95 E6.16592
G1 X141.88 Y164.33 E6.20551
G1 X141.19 Y163.68 E6.24500
G1 X140.54 Y162.98 E6.28457
G1 X139.98 Y162.29 E6.32140
G1 X139.89 Y162.19 E6.32699
G1 X139.37 Y161.47 E6.36378
G1 X138.86 Y160.68 E6.40318
G1 X138.40 Y159.85 E6.44269
G1 X137.98 Y158.99 E6.48236
G1 X137.62 Y158.11 E6.52192
G1 X137.31 Y157.21 E6.56152
G1 X137.06 Y156.29 E6.60103
G1 X136.86 Y155.36 E6.64044
G1 X136.72 Y154.42 E6.68002
G1 X136.63 Y153.47 E6.71973
G1 X136.60 Y152.61 E6.75554
G1 X136.60 Y152.48 E6.76103
G1 X136.63 Y151.57 E6.79875
G1 X136.71 Y150.63 E6.83824
G1 X136.85 Y149.69 E6.87779
G1 X137.05 Y148.75 E6.91735
G1 X137.30 Y147.84 E6.95688
G1 X137.60 Y146.94 E6.99640
G1 X137.96 Y146.05 E7.03603
G1 X138.38 Y145.20 E7.07562
G1 X138.84 Y144.37 E7.11513
G1 X139.35 Y143.56 E7.15472
G1 X139.91 Y142.79 E7.19431
G1 X140.51 Y142.06 E7.23381
G1 X141.16 Y141.36 E7.27335
G1 F2400 E6.07335
G0 F12000 X143.87 Y144.02
;TYPE:WALL-INNER
G1 F2400 E7.27335
G1 F1800 X144.39 Y143.53 E7.30299
G1 X144.94 Y143.06 E7.33307
G1 X145.54 Y142.61 E7.36422
G1 X146.12 Y142.22 E7.39329
G1 X146.75 Y141.85 E7.42380
G1 X147.40 Y141.53 E7.45370
G1 X148.06 Y141.25 E7.48348
G1 X148.75 Y141.00 E7.51400
G1 X149.44 Y140.79 E7.54412
G1 X150.14 Y140.63 E7.57398
G1 X150.86 Y140.51 E7.60429
G1 X151.59 Y140.44 E7.63477
G1 X152.31 Y140.40 E7.66469
G1 X152.34 Y140.40 E7.66590
G1 X153.03 Y140.41 E7.69475
G1 X153.73 Y140.46 E7.72406
G1 X154.47 Y140.56 E7.75481
G1 X155.18 Y140.70 E7.78485
G1 X155.87 Y140.88 E7.81477
G1 X156.57 Y141.11 E7.84515
G1 X157.23 Y141.37 E7.87474
G1 X157.90 Y141.67 E7.90515
G1 X158.54 Y142.02 E7.93571
G1 X159.15 Y142.39 E7.96515
G1 X159.75 Y142.81 E7.99559
G1 X160.31 Y143.26 E8.02556
G1 X160.84 Y143.74 E8.05530
G1 X161.37 Y144.27 E8.08646
G1 X161.83 Y144.79 E8.11530
G1 X162.28 Y145.38 E8.14615
G1 X162.69 Y145.97 E8.17591
G1 X163.06 Y146.60 E8.20634
G1 X163.39 Y147.23 E8.23587
G1 X163.69 Y147.90 E8.26669
G1 X163.94 Y148.57 E8.29642
G1 X164.15 Y149.25 E8.32576
G1 X164.33 Y149.98 E8.35697
G1 X164.46 Y150.66 E8.38597
G1 X164.55 Y151.40 E8.41700
G1 X164.59 Y152.12 E8.44704
G1 X164.59 Y152.84 E8.47689
G1 X164.55 Y153.57 E8.50704
G1 X164.47 Y154.29 E8.53743
G1 X164.34 Y154.99 E8.56709
G1 X164.17 Y155.69 E8.59694
G1 X163.96 Y156.39 E8.62735
G1 X163.70 Y157.07 E8.65747
G1 X163.41 Y157.74 E8.68774
G1 X163.08 Y158.37 E8.71754
G1 X162.70 Y159.01 E8.74836
G1 X162.31 Y159.59 E8.77751
G1 X161.86 Y160.17 E8.80792
G1 X161.37 Y160.72 E8.83863
G1 X160.88 Y161.23 E8.86812
G1 X160.34 Y161.72 E8.89832
G1 X159.78 Y162.16 E8.92793
G1 X159.17 Y162.59 E8.95880
G1 X158.56 Y162.97 E8.98858
G1 X157.93 Y163.31 E9.01873
G1 X157.27 Y163.62 E9.04892
G1 X156.59 Y163.88 E9.07903
G1 X155.93 Y164.10 E9.10824
G1 X155.19 Y164.29 E9.13978
G1 X154.50 Y164.43 E9.16920
G1 X153.79 Y164.53 E9.19908
G1 X153.06 Y164.59 E9.22918
G1 X152.33 Y164.60 E9.25983
G1 X151.62 Y164.57 E9.28908
G1 X150.89 Y164.49 E9.31971
G1 X150.17 Y164.37 E9.34997
G1 X149.48 Y164.22 E9.37965
G1 X148.78 Y164.01 E9.40991
G1 X148.10 Y163.77 E9.44006
G1 X147.43 Y163.49 E9.46998
G1 X146.78 Y163.16 E9.50045
G1 X146.16 Y162.80 E9.53027
G1 X145.56 Y162.41 E9.56019
G1 X144.97 Y161.97 E9.59043
G1 X144.41 Y161.50 E9.62090
G1 X143.90 Y161.01 E9.65057
G1 X143.40 Y160.48 E9.68067
G1 X142.93 Y159.90 E9.71165
G1 X142.51 Y159.33 E9.74087
G1 X142.12 Y158.71 E9.77148
G1 X141.77 Y158.09 E9.80098
G1 X141.46 Y157.44 E9.83112
G1 X141.18 Y156.77 E9.86121
G1 X140.94 Y156.08 E9.89179
G1 X140.75 Y155.40 E9.92117
G1 X140.60 Y154.67 E9.95200
G1 X140.49 Y153.97 E9.98144
G1 X140.42 Y153.24 E10.01196
G1 X140.40 Y152.50 E10.04265
G1 X140.40 Y152.48 E10.04344
G1 X140.42 Y151.80 E10.07193
G1 X140.49 Y151.06 E10.10286
G1 X140.59 Y150.36 E10.13200
G1 X140.74 Y149.66 E10.16200
G1 X140.94 Y148.94 E10.19282
G1 X141.16 Y148.28 E10.22174
G1 X141.44 Y147.59 E10.25281
G1 X141.76 Y146.93 E10.28344
G1 X142.10 Y146.31 E10.31254
G1 X142.49 Y145.70 E10.34266
G1 X142.91 Y145.12 E10.37275
G1 X143.38 Y144.55 E10.40327
G1 X143.87 Y144.02 E10.43339
G0 F12000 X148.27 Y148.62
G1 F1800 X147.95 Y149.00 E10.45410
G1 X147.62 Y149.48 E10.47826
G1 X147.36 Y149.94 E10.50054
G1 X147.16 Y150.40 E10.52114
G1 X146.98 Y150.91 E10.54366
G1 X146.85 Y151.47 E10.56772
G1 X146.78 Y151.96 E10.58826
G1 X146.76 Y152.50 E10.61074
G1 X146.79 Y153.08 E10.63484
G1 X146.86 Y153.57 E10.65543
G1 X146.98 Y154.09 E10.67782
G1 X147.17 Y154.65 E10.70202
G1 X147.40 Y155.13 E10.72438
G1 X147.64 Y155.57 E10.74505
G1 X147.98 Y156.04 E10.76908
G1 X148.30 Y156.42 E10.78978
G1 X148.72 Y156.82 E10.81401
G1 X149.14 Y157.16 E10.83635
G1 X149.59 Y157.45 E10.85872
G1 X150.07 Y157.70 E10.88110
G1 X150.57 Y157.91 E10.90353
G1 X151.08 Y158.06 E10.92591
G1 X151.60 Y158.17 E10.94815
G1 X152.10 Y158.23 E10.96875
G1 X152.64 Y158.24 E10.99117
G1 X153.22 Y158.20 E11.01531
G1 X153.75 Y158.10 E11.03776
G1 X154.27 Y157.96 E11.06016
G1 X154.77 Y157.78 E11.08253
G1 X155.25 Y157.54 E11.10494
G1 X155.71 Y157.26 E11.12726
G1 X156.14 Y156.94 E11.14954
G1 X156.51 Y156.61 E11.17021
G1 X156.91 Y156.18 E11.19440
G1 X157.23 Y155.75 E11.21672
G1 X157.50 Y155.33 E11.23742
G1 X157.76 Y154.81 E11.26159
G1 X157.95 Y154.30 E11.28444
G1 X158.19 Y153.32 E11.32619
G1 X158.24 Y152.77 E11.34924
G1 X158.23 Y152.19 E11.37339
G1 X158.18 Y151.65 E11.39579
G1 X158.07 Y151.12 E11.41818
G1 X157.92 Y150.61 E11.44052
G1 X157.72 Y150.11 E11.46293
G1 X157.47 Y149.63 E11.48534
G1 X157.18 Y149.18 E11.50759
G1 X156.88 Y148.79 E11.52817
G1 X156.51 Y148.39 E11.55067
G1 X156.07 Y148.01 E11.57483
G1 X155.64 Y147.69 E11.59722
G1 X155.17 Y147.42 E11.61955
G1 X154.69 Y147.19 E11.64187
G1 X154.22 Y147.02 E11.66256
G1 X153.66 Y146.88 E11.68663
G1 X153.17 Y146.80 E11.70724
G1 X152.63 Y146.76 E11.72966
G1 X152.05 Y146.78 E11.75382
G1 X151.52 Y146.84 E11.77624
G1 X150.99 Y146.96 E11.79861
G1 X150.48 Y147.13 E11.82099
G1 X149.99 Y147.34 E11.84338
G1 X149.51 Y147.60 E11.86574
G1 X149.07 Y147.90 E11.88804
G1 X148.68 Y148.21 E11.90871
G1 X148.27 Y148.62 E11.93279
G0 F12000 X148.56 Y148.89
;TYPE:WALL-OUTER
G1 F1800 X148.27 Y149.24 E11.95193
G1 X147.96 Y149.69 E11.97447
G1 X147.72 Y150.12 E11.99523
G1 X147.53 Y150.54 E12.01436
G1 X147.37 Y151.02 E12.03522
G1 X147.25 Y151.55 E12.05774
G1 X147.18 Y152.00 E12.07681
G1 X147.16 Y152.50 E12.09766
G1 X147.19 Y153.04 E12.12019
G1 X147.25 Y153.50 E12.13926
G1 X147.37 Y153.98 E12.16008
G1 X147.54 Y154.50 E12.18264
G1 X147.75 Y154.95 E12.20346
G1 X147.98 Y155.35 E12.22258
G1 X148.29 Y155.79 E12.24506
G1 X148.59 Y156.14 E12.26421
G1 X148.98 Y156.52 E12.28679
G1 X149.38 Y156.83 E12.30756
G1 X149.79 Y157.10 E12.32840
G1 X150.24 Y157.34 E12.34921
G1 X150.70 Y157.53 E12.37007
G1 X151.18 Y157.68 E12.39089
G1 X151.67 Y157.78 E12.41165
G1 X152.12 Y157.83 E12.43074
G1 X152.62 Y157.84 E12.45153
G1 X153.17 Y157.80 E12.47409
G1 X153.66 Y157.71 E12.49494
G1 X154.14 Y157.58 E12.51578
G1 X154.61 Y157.41 E12.53657
G1 X155.06 Y157.19 E12.55740
G1 X155.49 Y156.93 E12.57820
G1 X155.89 Y156.63 E12.59900
G1 X156.23 Y156.32 E12.61808
G1 X156.60 Y155.92 E12.64068
G1 X156.90 Y155.52 E12.66148
G1 X157.15 Y155.13 E12.68062
G1 X157.39 Y154.65 E12.70315
G1 X157.57 Y154.18 E12.72413
G1 X157.79 Y153.25 E12.76358
G1 X157.84 Y152.75 E12.78463
G1 X157.83 Y152.21 E12.80720
G1 X157.78 Y151.71 E12.82801
G1 X157.69 Y151.22 E12.84879
G1 X157.54 Y150.74 E12.86961
G1 X157.35 Y150.27 E12.89045
G1 X157.12 Y149.83 E12.91128
G1 X156.85 Y149.41 E12.93203
G1 X156.57 Y149.04 E12.95113
G1 X156.23 Y148.68 E12.97204
G1 X155.82 Y148.32 E12.99455
G1 X155.42 Y148.03 E13.01540
G1 X154.99 Y147.77 E13.03618
G1 X154.53 Y147.56 E13.05699
G1 X154.10 Y147.40 E13.07611
G1 X153.58 Y147.27 E13.09860
G1 X153.12 Y147.19 E13.11773
G1 X152.62 Y147.16 E13.13857
G1 X152.08 Y147.17 E13.16107
G1 X151.59 Y147.24 E13.18190
G1 X151.10 Y147.35 E13.20273
G1 X150.62 Y147.50 E13.22354
G1 X150.16 Y147.70 E13.24438
G1 X149.72 Y147.94 E13.26515
G1 X149.31 Y148.22 E13.28598
G1 X148.95 Y148.51 E13.30511
G1 X148.56 Y148.89 E13.32760
G0 F12000 X148.34 Y148.70
G0 X143.30 Y144.49
G0 X143.08 Y144.29
G1 F1800 X143.59 Y143.74 E13.35870
G1 X144.12 Y143.23 E13.38934
G1 X144.69 Y142.74 E13.42066
G1 X145.29 Y142.29 E13.45181
G1 X145.92 Y141.87 E13.48307
G1 X146.56 Y141.50 E13.51367
G1 X147.23 Y141.17 E13.54511
G1 X147.92 Y140.87 E13.57638
G1 X148.62 Y140.62 E13.60717
G1 X149.34 Y140.41 E13.63824
G1 X150.07 Y140.24 E13.66968
G1 X150.80 Y140.12 E13.70024
G1 X151.55 Y140.04 E13.73151
G1 X152.30 Y140.00 E13.76294
G1 X152.33 Y140.00 E13.76419
G1 X153.05 Y140.01 E13.79396
G1 X153.78 Y140.07 E13.82464
G1 X154.53 Y140.17 E13.85606
G1 X155.26 Y140.31 E13.88681
G1 X155.99 Y140.50 E13.91838
G1 X156.70 Y140.73 E13.94927
G1 X157.39 Y141.00 E13.98002
G1 X158.08 Y141.32 E14.01163
G1 X158.74 Y141.67 E14.04267
G1 X159.37 Y142.06 E14.07332
G1 X159.99 Y142.49 E14.10492
G1 X160.57 Y142.96 E14.13596
G1 X161.12 Y143.45 E14.16661
G1 X161.65 Y143.99 E14.19818
G1 X162.15 Y144.55 E14.22930
G1 X162.60 Y145.13 E14.25988
G1 X163.02 Y145.75 E14.29093
G1 X163.41 Y146.40 E14.32257
G1 X163.75 Y147.06 E14.35316
G1 X164.06 Y147.75 E14.38474
G1 X164.32 Y148.44 E14.41559
G1 X164.54 Y149.15 E14.44645
G1 X164.72 Y149.88 E14.47753
G1 X164.85 Y150.61 E14.50859
G1 X164.95 Y151.35 E14.53967
G1 X164.99 Y152.11 E14.57129
G1 X165.00 Y152.85 E14.60181
G1 X164.95 Y153.60 E14.63296
G1 X164.86 Y154.34 E14.66398
G1 X164.73 Y155.09 E14.69558
G1 X164.56 Y155.80 E14.72620
G1 X164.34 Y156.52 E14.75752
G1 X164.07 Y157.22 E14.78840
G1 X163.77 Y157.90 E14.81951
G1 X163.42 Y158.57 E14.85106
G1 X163.04 Y159.22 E14.88221
G1 X162.63 Y159.83 E14.91277
G1 X162.17 Y160.42 E14.94387
G1 X161.68 Y160.98 E14.97499
G1 X161.16 Y161.52 E15.00603
G1 X160.59 Y162.03 E15.03762
G1 X160.02 Y162.49 E15.06826
G1 X159.40 Y162.92 E15.09973
G1 X158.77 Y163.31 E15.13044
G1 X158.10 Y163.67 E15.16201
G1 X157.44 Y163.98 E15.19261
G1 X156.74 Y164.26 E15.22389
G1 X156.03 Y164.49 E15.25480
G1 X155.29 Y164.68 E15.28638
G1 X154.57 Y164.83 E15.31720
G1 X153.82 Y164.93 E15.34851
G1 X153.09 Y164.99 E15.37915
G1 X152.34 Y165.00 E15.41034
G1 X151.58 Y164.97 E15.44159
G1 X150.84 Y164.89 E15.47285
G1 X150.11 Y164.77 E15.50362
G1 X149.38 Y164.60 E15.53477
G1 X148.65 Y164.39 E15.56617
G1 X147.96 Y164.15 E15.59679
G1 X147.26 Y163.85 E15.62816
G1 X146.59 Y163.51 E15.65928
G1 X145.95 Y163.14 E15.69022
G1 X145.32 Y162.73 E15.72138
G1 X144.72 Y162.29 E15.75239
G1 X144.15 Y161.80 E15.78354
G1 X143.60 Y161.28 E15.81495
G1 X143.10 Y160.74 E15.84575
G1 X142.62 Y160.16 E15.87694
G1 X142.18 Y159.55 E15.90821
G1 X141.78 Y158.92 E15.93933
G1 X141.42 Y158.28 E15.96997
G1 X141.09 Y157.59 E16.00150
G1 X140.80 Y156.90 E16.03256
G1 X140.56 Y156.21 E16.06322
G1 X140.36 Y155.49 E16.09433
G1 X140.21 Y154.74 E16.12584
G1 X140.09 Y154.00 E16.15692
G1 X140.03 Y153.27 E16.18760
G1 X140.00 Y152.49 E16.22013
G1 X140.02 Y151.77 E16.25016
G1 X140.09 Y151.03 E16.28075
G1 X140.20 Y150.29 E16.31186
G1 X140.35 Y149.56 E16.34296
G1 X140.55 Y148.83 E16.37456
G1 X140.79 Y148.13 E16.40511
G1 X141.07 Y147.43 E16.43672
G1 X141.39 Y146.76 E16.46735
G1 X141.76 Y146.11 E16.49844
G1 X142.16 Y145.47 E16.53003
G1 X142.60 Y144.87 E16.56060
G1 X143.08 Y144.29 E16.59218
G0 F12000 X143.37 Y144.78
;TYPE:FILL
G1 F1800 X147.70 Y149.11 E16.84677
G0 F12000 X147.94 Y148.79
G1 F1800 X143.63 Y144.48 E17.10003
G0 F12000 X143.91 Y144.19
G1 F1800 X148.20 Y148.49 E17.35274
G0 F12000 X148.49 Y148.20
G1 F1800 X144.19 Y143.91 E17.60533
G0 F12000 X144.48 Y143.63
G1 F1800 X148.79 Y147.94 E17.85877
G0 F12000 X149.11 Y147.70
G1 F1800 X144.78 Y143.37 E18.11324
G0 F12000 X145.09 Y143.11
G1 F1800 X149.45 Y147.47 E18.36935
G0 F12000 X149.82 Y147.27
G1 F1800 X145.42 Y142.87 E18.62806
G0 F12000 X145.75 Y142.63
G1 F1800 X150.20 Y147.09 E18.89008
G0 F12000 X150.61 Y146.94
G1 F1800 X146.09 Y142.41 E19.15619
G0 F12000 X146.44 Y142.20
G1 F1800 X151.05 Y146.80 E19.42710
G0 F12000 X151.51 Y146.70
G1 F1800 X146.80 Y141.99 E19.70423
G0 F12000 X147.17 Y141.80
G1 F1800 X152.01 Y146.64 E19.98875
G0 F12000 X152.56 Y146.62
G1 F1800 X147.56 Y141.62 E20.28299
G0 F12000 X147.95 Y141.44
G1 F1800 X153.16 Y146.65 E20.58929
G0 F12000 X153.85 Y146.78
G1 F1800 X148.36 Y141.29 E20.91232
G0 F12000 X148.77 Y141.14
G1 F1800 X154.67 Y147.04 E21.25919
G0 F12000 X155.94 Y147.74
G1 F1800 X149.21 Y141.01 E21.65494
G0 F12000 X149.66 Y140.89
G1 F1800 X164.11 Y155.34 E22.50481
G0 F12000 X163.99 Y155.79
G1 F1800 X157.28 Y149.07 E22.89966
G0 F12000 X157.95 Y150.32
G1 F1800 X163.86 Y156.22 E23.24700
G0 F12000 X163.71 Y156.64
G1 F1800 X158.22 Y151.15 E23.56990
G0 F12000 X158.34 Y151.83
G1 F1800 X163.56 Y157.05 E23.87679
G0 F12000 X163.38 Y157.44
G1 F1800 X158.37 Y152.43 E24.17130
G0 F12000 X158.35 Y152.98
G1 F1800 X163.20 Y157.83 E24.45617
G0 F12000 X163.01 Y158.20
G1 F1800 X158.29 Y153.48 E24.73354
G0 F12000 X158.18 Y153.94
G1 F1800 X162.80 Y158.56 E25.00527
G0 F12000 X162.59 Y158.91
G1 F1800 X158.06 Y154.39 E25.27144
G0 F12000 X157.91 Y154.80
G1 F1800 X162.36 Y159.25 E25.53343
G0 F12000 X162.13 Y159.59
G1 F1800 X157.73 Y155.18 E25.79243
G0 F12000 X157.53 Y155.55
G1 F1800 X161.88 Y159.90 E26.04866
G0 F12000 X161.63 Y160.22
G1 F1800 X157.30 Y155.89 E26.30313
G0 F12000 X157.06 Y156.21
G1 F1800 X161.37 Y160.52 E26.55643
G0 F12000 X161.09 Y160.81
G1 F1800 X156.79 Y156.51 E26.80931
G0 F12000 X156.51 Y156.79
G1 F1800 X160.81 Y161.09 E27.06216
G0 F12000 X160.52 Y161.36
G1 F1800 X156.21 Y157.06 E27.31525
G0 F12000 X155.89 Y157.30
G1 F1800 X160.22 Y161.63 E27.56975
G0 F12000 X159.90 Y161.88
G1 F1800 X155.54 Y157.53 E27.82595
G0 F12000 X155.18 Y157.73
G1 F1800 X159.58 Y162.13 E28.08463
G0 F12000 X159.25 Y162.36
G1 F1800 X154.80 Y157.91 E28.34630
G0 F12000 X154.39 Y158.07
G1 F1800 X158.91 Y162.59 E28.61206
G0 F12000 X158.56 Y162.80
G1 F1800 X153.95 Y158.19 E28.88314
G0 F12000 X153.48 Y158.29
G1 F1800 X158.20 Y163.01 E29.16033
G0 F12000 X157.83 Y163.20
G1 F1800 X152.98 Y158.35 E29.44538
G0 F12000 X152.44 Y158.38
G1 F1800 X157.44 Y163.38 E29.73965
G0 F12000 X157.05 Y163.55
G1 F1800 X151.83 Y158.34 E30.04636
G0 F12000 X151.15 Y158.22
G1 F1800 X156.64 Y163.71 E30.36945
G0 F12000 X156.22 Y163.86
G1 F1800 X150.32 Y157.96 E30.71652
G0 F12000 X149.08 Y157.28
G1 F1800 X155.79 Y163.99 E31.11119
G0 F12000 X155.34 Y164.11
G1 F1800 X140.88 Y149.65 E31.96115
G0 F12000 X141.01 Y149.21
G1 F1800 X147.74 Y155.94 E32.35685
G0 F12000 X147.03 Y154.67
G1 F1800 X141.14 Y148.78 E32.70351
G0 F12000 X141.28 Y148.35
G1 F1800 X146.78 Y153.85 E33.02689
G0 F12000 X146.66 Y153.16
G1 F1800 X141.44 Y147.95 E33.33342
G0 F12000 X141.61 Y147.55
G1 F1800 X146.62 Y152.56 E33.62778
G0 F12000 X146.64 Y152.01
G1 F1800 X141.80 Y147.17 E33.91259
G0 F12000 X141.99 Y146.80
G1 F1800 X146.71 Y151.51 E34.18985
G0 F12000 X146.81 Y151.05
G1 F1800 X142.19 Y146.43 E34.46110
G0 F12000 X142.41 Y146.09
G1 F1800 X146.94 Y150.61 E34.72721
G0 F12000 X147.09 Y150.20
G1 F1800 X142.63 Y145.74 E34.98941
G0 F12000 X142.87 Y145.41
G1 F1800 X147.27 Y149.81 E35.24812
G0 F12000 X147.47 Y149.45
G1 F1800 X143.11 Y145.09 E35.50432
G0 F12000 X140.78 Y150.12
G1 F1800 X154.88 Y164.21 E36.33305
G0 F12000 X154.40 Y164.30
G1 F1800 X140.70 Y150.60 E37.13903
G0 F12000 X140.62 Y151.09
G1 F1800 X153.91 Y164.37 E37.92002
G0 F12000 X153.39 Y164.42
G1 F1800 X140.58 Y151.61 E38.67329
G0 F12000 X140.55 Y152.15
G1 F1800 X152.85 Y164.45 E39.39654
G0 F12000 X152.29 Y164.46
G1 F1800 X140.55 Y152.71 E40.08710
G0 F12000 X140.57 Y153.30
G1 F1800 X151.70 Y164.43 E40.74168
G0 F12000 X151.08 Y164.37
G1 F1800 X140.62 Y153.92 E41.35613
G0 F12000 X140.73 Y154.59
G1 F1800 X150.41 Y164.27 E41.92554
G0 F12000 X149.69 Y164.12
G1 F1800 X140.88 Y155.30 E42.44392
G0 F12000 X141.09 Y156.08
G1 F1800 X148.91 Y163.91 E42.90382
G0 F12000 X148.03 Y163.59
G1 F1800 X141.41 Y156.97 E43.29317
G0 F12000 X141.88 Y158.01
G1 F1800 X146.98 Y163.10 E43.59285
G0 F12000 X145.51 Y162.20
G1 F1800 X142.81 Y159.49 E43.75172
G0 F12000 X150.12 Y140.78
G1 F1800 X164.22 Y154.88 E44.58074
G0 F12000 X164.30 Y154.40
G1 F1800 X150.60 Y140.70 E45.38652
G0 F12000 X151.09 Y140.63
G1 F1800 X164.37 Y153.90 E46.16698
G0 F12000 X164.42 Y153.39
G1 F1800 X151.61 Y140.57 E46.92045
G0 F12000 X152.15 Y140.55
G1 F1800 X164.45 Y152.86 E47.64400
G0 F12000 X164.45 Y152.29
G1 F1800 X152.71 Y140.55 E48.33438
G0 F12000 X153.30 Y140.57
G1 F1800 X164.43 Y151.70 E48.98849
G0 F12000 X164.37 Y151.07
G1 F1800 X153.92 Y140.63 E49.60244
G0 F12000 X154.59 Y140.73
G1 F1800 X164.27 Y150.41 E50.17155
G0 F12000 X164.12 Y149.69
G1 F1800 X155.30 Y140.88 E50.68981
G0 F12000 X156.09 Y141.10
G1 F1800 X163.90 Y148.91 E51.14922
G0 F12000 X163.59 Y148.03
G1 F1800 X156.97 Y141.41 E51.53833
G0 F12000 X158.02 Y141.90
G1 F1800 X163.10 Y146.98 E51.83719
G0 F12000 X162.20 Y145.52
G1 F1800 X159.50 Y142.81 E51.99644
G1 F2400 E50.79644
G0 F12000 X154.47 Y169.96
;TYPE:WALL-INNER
G1 F2400 E51.99644
G1 F1800 X155.18 Y170.10 E52.02648
G1 X155.87 Y170.28 E52.05641
G1 X156.57 Y170.50 E52.08691
G1 X157.23 Y170.76 E52.11650
G1 X157.89 Y171.06 E52.14651
G1 X158.53 Y171.41 E52.17694
G1 X159.16 Y171.80 E52.20773
G1 X159.74 Y172.20 E52.23684
G1 X160.31 Y172.66 E52.26719
G1 X160.84 Y173.13 E52.29693
G1 X161.37 Y173.67 E52.32809
G1 X161.83 Y174.19 E52.35693
G1 X162.28 Y174.78 E52.38779
G1 X162.68 Y175.36 E52.41722
G1 X163.07 Y176.00 E52.44852
G1 X163.39 Y176.62 E52.47750
G1 X163.69 Y177.30 E52.50832
G1 X163.94 Y177.97 E52.53805
G1 X164.15 Y178.64 E52.56739
G1 X164.33 Y179.37 E52.59860
G1 X164.46 Y180.06 E52.62760
G1 X164.55 Y180.80 E52.65863
G1 X164.59 Y181.52 E52.68866
G1 X164.59 Y182.24 E52.71860
G1 X164.55 Y182.96 E52.74871
G1 X164.47 Y183.69 E52.77910
G1 X164.34 Y184.39 E52.80876
G1 X164.17 Y185.09 E52.83861
G1 X163.96 Y185.79 E52.86902
G1 X163.70 Y186.47 E52.89914
G1 X163.41 Y187.13 E52.92941
G1 X163.08 Y187.77 E52.95921
G1 X162.70 Y188.41 E52.99003
G1 X162.30 Y188.99 E53.01960
G1 X161.86 Y189.57 E53.04972
G1 X161.38 Y190.11 E53.07977
G1 X160.89 Y190.62 E53.10911
G1 X160.34 Y191.11 E53.13994
G1 X159.77 Y191.57 E53.17013
G1 X159.17 Y191.99 E53.20047
G1 X158.56 Y192.37 E53.23025
G1 X157.93 Y192.71 E53.26040
G1 X157.27 Y193.02 E53.29059
G1 X156.59 Y193.28 E53.32070
G1 X155.93 Y193.50 E53.34992
G1 X155.19 Y193.69 E53.38146
G1 X154.50 Y193.83 E53.41088
G1 X153.79 Y193.93 E53.44075
G1 X153.06 Y193.98 E53.47086
G1 X152.33 Y194.00 E53.50150
G1 X151.62 Y193.97 E53.53076
G1 X150.89 Y193.89 E53.56139
G1 X150.17 Y193.77 E53.59165
G1 X149.48 Y193.61 E53.62132
G1 X148.78 Y193.41 E53.65158
G1 X148.10 Y193.17 E53.68174
G1 X147.43 Y192.88 E53.71165
G1 X146.78 Y192.56 E53.74213
G1 X146.16 Y192.20 E53.77194
G1 X145.56 Y191.80 E53.80186
G1 X144.96 Y191.36 E53.83258
G1 X144.43 Y190.91 E53.86164
G1 X143.89 Y190.39 E53.89272
G1 X143.40 Y189.87 E53.92234
G1 X142.93 Y189.30 E53.95329
G1 X142.51 Y188.72 E53.98317
G1 X142.12 Y188.12 E54.01277
G1 X141.77 Y187.49 E54.04266
G1 X141.46 Y186.84 E54.07280
G1 X141.18 Y186.17 E54.10289
G1 X140.94 Y185.47 E54.13347
G1 X140.75 Y184.79 E54.16280
G1 X140.60 Y184.07 E54.19363
G1 X140.49 Y183.37 E54.22312
G1 X140.42 Y182.64 E54.25364
G1 X140.40 Y181.90 E54.28433
G1 X140.40 Y181.88 E54.28512
G1 X140.42 Y181.19 E54.31366
G1 X140.49 Y180.45 E54.34458
G1 X140.59 Y179.76 E54.37372
G1 X140.74 Y179.05 E54.40372
G1 X140.94 Y178.34 E54.43454
G1 X141.16 Y177.68 E54.46346
G1 X141.44 Y176.99 E54.49453
G1 X141.76 Y176.32 E54.52516
G1 X142.10 Y175.71 E54.55426
G1 X142.49 Y175.10 E54.58438
G1 X142.91 Y174.51 E54.61447
G1 X143.38 Y173.95 E54.64499
G1 X143.87 Y173.41 E54.67511
G1 X144.39 Y172.92 E54.70475
G1 X144.96 Y172.44 E54.73587
G1 X145.51 Y172.02 E54.76449
G1 X146.13 Y171.61 E54.79548
G1 X146.75 Y171.25 E54.82556
G1 X147.39 Y170.93 E54.85509
G1 X148.07 Y170.64 E54.88599
G1 X148.74 Y170.40 E54.91534
G1 X149.44 Y170.19 E54.94589
G1 X150.14 Y170.03 E54.97583
G1 X150.85 Y169.91 E55.00584
G1 X151.59 Y169.83 E55.03657
G1 X152.31 Y169.80 E55.06646
G1 X152.34 Y169.80 E55.06766
G1 X153.03 Y169.81 E55.09652
G1 X153.73 Y169.86 E55.12583
G1 X154.47 Y169.96 E55.15657
G0 F12000 X153.66 Y176.27
G1 F1800 X153.17 Y176.19 E55.17718
G1 X152.63 Y176.15 E55.19965
G1 X152.04 Y176.17 E55.22435
G1 X151.05 Y176.34 E55.26623
G1 X150.48 Y176.52 E55.29090
G1 X149.99 Y176.73 E55.31334
G1 X149.51 Y176.99 E55.33570
G1 X149.07 Y177.29 E55.35800
G1 X148.68 Y177.60 E55.37867
G1 X148.27 Y178.01 E55.40275
G1 X147.95 Y178.39 E55.42346
G1 X147.62 Y178.87 E55.44761
G1 X147.36 Y179.34 E55.46989
G1 X147.16 Y179.79 E55.49049
G1 X146.98 Y180.31 E55.51302
G1 X146.85 Y180.87 E55.53707
G1 X146.78 Y181.36 E55.55761
G1 X146.76 Y181.90 E55.58013
G1 X146.79 Y182.48 E55.60424
G1 X146.86 Y182.97 E55.62486
G1 X146.98 Y183.49 E55.64726
G1 X147.17 Y184.04 E55.67143
G1 X147.40 Y184.53 E55.69377
G1 X147.64 Y184.96 E55.71440
G1 X147.98 Y185.44 E55.73850
G1 X148.30 Y185.81 E55.75921
G1 X148.72 Y186.22 E55.78341
G1 X149.14 Y186.55 E55.80575
G1 X149.59 Y186.85 E55.82812
G1 X150.07 Y187.10 E55.85049
G1 X150.57 Y187.30 E55.87292
G1 X151.08 Y187.46 E55.89531
G1 X151.60 Y187.57 E55.91755
G1 X152.10 Y187.63 E55.93815
G1 X152.64 Y187.64 E55.96056
G1 X153.22 Y187.59 E55.98470
G1 X153.75 Y187.50 E56.00720
G1 X154.27 Y187.36 E56.02956
G1 X154.77 Y187.17 E56.05194
G1 X155.25 Y186.94 E56.07434
G1 X155.71 Y186.66 E56.09666
G1 X156.14 Y186.34 E56.11894
G1 X156.51 Y186.00 E56.13961
G1 X156.91 Y185.58 E56.16380
G1 X157.23 Y185.15 E56.18612
G1 X157.50 Y184.73 E56.20682
G1 X157.76 Y184.21 E56.23096
G1 X157.95 Y183.69 E56.25380
G1 X158.19 Y182.72 E56.29559
G1 X158.24 Y182.16 E56.31864
G1 X158.23 Y181.58 E56.34280
G1 X158.18 Y181.05 E56.36520
G1 X158.07 Y180.52 E56.38762
G1 X157.92 Y180.00 E56.40997
G1 X157.72 Y179.50 E56.43237
G1 X157.47 Y179.02 E56.45478
G1 X157.18 Y178.57 E56.47704
G1 X156.88 Y178.18 E56.49761
G1 X156.51 Y177.79 E56.52011
G1 X156.07 Y177.40 E56.54427
G1 X155.64 Y177.09 E56.56667
G1 X155.17 Y176.81 E56.58902
G1 X154.69 Y176.59 E56.61130
G1 X154.22 Y176.42 E56.63199
G1 X153.66 Y176.27 E56.65602
G0 F12000 X153.58 Y176.67
;TYPE:WALL-OUTER
G1 F1800 X153.12 Y176.59 E56.67512
G1 X152.62 Y176.56 E56.69600
G1 X152.08 Y176.57 E56.71870
G1 X151.14 Y176.73 E56.75822
G1 X150.62 Y176.90 E56.78092
G1 X150.16 Y177.09 E56.80178
G1 X149.72 Y177.33 E56.82255
G1 X149.31 Y177.62 E56.84338
G1 X148.95 Y177.90 E56.86251
G1 X148.56 Y178.28 E56.88500
G1 X148.27 Y178.64 E56.90415
G1 X147.96 Y179.08 E56.92669
G1 X147.72 Y179.52 E56.94744
G1 X147.53 Y179.94 E56.96657
G1 X147.37 Y180.41 E56.98744
G1 X147.25 Y180.94 E57.00996
G1 X147.18 Y181.40 E57.02903
G1 X147.16 Y181.90 E57.04992
G1 X147.19 Y182.44 E57.07245
G1 X147.25 Y182.89 E57.09155
G1 X147.37 Y183.38 E57.11238
G1 X147.54 Y183.89 E57.13490
G1 X147.75 Y184.35 E57.15572
G1 X147.98 Y184.75 E57.17480
G1 X148.29 Y185.19 E57.19735
G1 X148.59 Y185.54 E57.21646
G1 X148.98 Y185.92 E57.23905
G1 X149.38 Y186.23 E57.25982
G1 X149.79 Y186.50 E57.28066
G1 X150.24 Y186.74 E57.30147
G1 X150.70 Y186.93 E57.32233
G1 X151.18 Y187.07 E57.34315
G1 X151.67 Y187.17 E57.36391
G1 X152.12 Y187.23 E57.38300
G1 X152.62 Y187.24 E57.40379
G1 X153.17 Y187.20 E57.42635
G1 X153.66 Y187.11 E57.44724
G1 X154.14 Y186.98 E57.46805
G1 X154.61 Y186.80 E57.48884
G1 X155.06 Y186.58 E57.50966
G1 X155.49 Y186.32 E57.53047
G1 X155.89 Y186.02 E57.55126
G1 X156.23 Y185.72 E57.57035
G1 X156.60 Y185.32 E57.59294
G1 X156.90 Y184.92 E57.61375
G1 X157.15 Y184.53 E57.63288
G1 X157.39 Y184.05 E57.65538
G1 X157.57 Y183.57 E57.67636
G1 X157.79 Y182.65 E57.71585
G1 X157.84 Y182.15 E57.73689
G1 X157.83 Y181.60 E57.75947
G1 X157.78 Y181.11 E57.78028
G1 X157.69 Y180.62 E57.80110
G1 X157.54 Y180.13 E57.82192
G1 X157.35 Y179.67 E57.84276
G1 X157.12 Y179.22 E57.86358
G1 X156.85 Y178.81 E57.88434
G1 X156.57 Y178.44 E57.90343
G1 X156.23 Y178.07 E57.92435
G1 X155.82 Y177.72 E57.94686
G1 X155.42 Y177.42 E57.96771
G1 X154.99 Y177.17 E57.98849
G1 X154.53 Y176.96 E58.00928
G1 X154.10 Y176.80 E58.02840
G1 X153.58 Y176.67 E58.05089
G0 F12000 X153.63 Y176.37
G0 X155.20 Y170.00
G0 X155.26 Y169.71
G1 F1800 X155.99 Y169.90 E58.08245
G1 X156.70 Y170.12 E58.11339
G1 X156.74 Y170.14 E58.11493
G1 X157.39 Y170.39 E58.14412
G1 X158.08 Y170.71 E58.17570
G1 X158.74 Y171.06 E58.20675
G1 X159.37 Y171.45 E58.23742
G1 X159.99 Y171.89 E58.26900
G1 X160.57 Y172.35 E58.30003
G1 X161.12 Y172.84 E58.33068
G1 X161.65 Y173.38 E58.36226
G1 X162.15 Y173.95 E58.39337
G1 X162.60 Y174.53 E58.42396
G1 X163.02 Y175.15 E58.45503
G1 X163.41 Y175.80 E58.48664
G1 X163.75 Y176.45 E58.51723
G1 X164.06 Y177.15 E58.54882
G1 X164.32 Y177.84 E58.57966
G1 X164.54 Y178.55 E58.61052
G1 X164.72 Y179.27 E58.64160
G1 X164.85 Y180.01 E58.67267
G1 X164.95 Y180.75 E58.70375
G1 X164.99 Y181.51 E58.73536
G1 X165.00 Y182.25 E58.76596
G1 X164.95 Y182.99 E58.79707
G1 X164.86 Y183.73 E58.82809
G1 X164.73 Y184.48 E58.85969
G1 X164.56 Y185.20 E58.89032
G1 X164.34 Y185.92 E58.92163
G1 X164.07 Y186.61 E58.95252
G1 X163.77 Y187.30 E58.98362
G1 X163.42 Y187.97 E59.01518
G1 X163.04 Y188.62 E59.04633
G1 X162.63 Y189.22 E59.07689
G1 X162.17 Y189.82 E59.10801
G1 X161.68 Y190.38 E59.13910
G1 X161.16 Y190.91 E59.17015
G1 X160.59 Y191.42 E59.20176
G1 X160.02 Y191.88 E59.23238
G1 X159.40 Y192.32 E59.26385
G1 X158.77 Y192.71 E59.29456
G1 X158.10 Y193.07 E59.32613
G1 X157.44 Y193.38 E59.35672
G1 X156.74 Y193.66 E59.38801
G1 X156.03 Y193.89 E59.41892
G1 X155.29 Y194.08 E59.45050
G1 X154.57 Y194.22 E59.48132
G1 X153.82 Y194.33 E59.51262
G1 X153.09 Y194.38 E59.54327
G1 X152.34 Y194.40 E59.57446
G1 X151.58 Y194.36 E59.60571
G1 X150.84 Y194.29 E59.63697
G1 X150.11 Y194.16 E59.66773
G1 X149.38 Y194.00 E59.69889
G1 X148.65 Y193.79 E59.73028
G1 X147.96 Y193.54 E59.76091
G1 X147.26 Y193.25 E59.79228
G1 X146.59 Y192.91 E59.82340
G1 X145.95 Y192.54 E59.85434
G1 X145.32 Y192.13 E59.88549
G1 X144.72 Y191.68 E59.91651
G1 X144.15 Y191.20 E59.94763
G1 X143.60 Y190.68 E59.97907
G1 X143.10 Y190.13 E60.00987
G1 X142.62 Y189.56 E60.04102
G1 X142.18 Y188.95 E60.07230
G1 X141.78 Y188.32 E60.10345
G1 X141.42 Y187.68 E60.13409
G1 X141.09 Y186.99 E60.16562
G1 X140.80 Y186.30 E60.19668
G1 X140.56 Y185.60 E60.22734
G1 X140.36 Y184.88 E60.25841
G1 X140.21 Y184.14 E60.28996
G1 X140.09 Y183.40 E60.32104
G1 X140.03 Y182.67 E60.35173
G1 X140.00 Y181.88 E60.38425
G1 X140.02 Y181.16 E60.41432
G1 X140.09 Y180.43 E60.44492
G1 X140.20 Y179.69 E60.47602
G1 X140.35 Y178.96 E60.50712
G1 X140.55 Y178.22 E60.53872
G1 X140.79 Y177.53 E60.56928
G1 X141.07 Y176.82 E60.60088
G1 X141.39 Y176.16 E60.63151
G1 X141.76 Y175.51 E60.66261
G1 X142.16 Y174.87 E60.69420
G1 X142.60 Y174.27 E60.72477
G1 X143.08 Y173.68 E60.75635
G1 X143.59 Y173.13 E60.78744
G1 X144.12 Y172.62 E60.81808
G1 X144.69 Y172.14 E60.84934
G1 X145.29 Y171.69 E60.88026
G1 X145.92 Y171.27 E60.91184
G1 X146.56 Y170.90 E60.94241
G1 X147.23 Y170.56 E60.97385
G1 X147.92 Y170.27 E61.00510
G1 X148.62 Y170.01 E61.03590
G1 X149.34 Y169.80 E61.06698
G1 X150.07 Y169.63 E61.09841
G1 X150.80 Y169.51 E61.12897
G1 X151.55 Y169.43 E61.16025
G1 X152.30 Y169.40 E61.19167
G1 X152.33 Y169.40 E61.19292
G1 X153.05 Y169.41 E61.22269
G1 X153.78 Y169.46 E61.25337
G1 X154.53 Y169.56 E61.28479
G1 X155.26 Y169.71 E61.31555
G0 F12000 X155.28 Y170.27
;TYPE:FILL
G1 F1800 X164.13 Y179.12 E61.83589
G0 F12000 X164.27 Y179.83
G1 F1800 X154.56 Y170.12 E62.40689
G0 F12000 X153.90 Y170.02
G1 F1800 X164.37 Y180.49 E63.02243
G0 F12000 X164.43 Y181.11
G1 F1800 X153.28 Y169.97 E63.67795
G0 F12000 X152.69 Y169.94
G1 F1800 X164.45 Y181.71 E64.36966
G0 F12000 X164.45 Y182.27
G1 F1800 X152.13 Y169.95 E65.09432
G0 F12000 X151.59 Y169.97
G1 F1800 X164.42 Y182.81 E65.84888
G0 F12000 X164.37 Y183.32
G1 F1800 X151.08 Y170.03 E66.63037
G0 F12000 X150.58 Y170.10
G1 F1800 X164.30 Y183.82 E67.43699
G0 F12000 X164.21 Y184.30
G1 F1800 X150.10 Y170.18 E68.26684
G0 F12000 X149.64 Y170.29
G1 F1800 X164.11 Y184.76 E69.11754
G0 F12000 X163.99 Y185.20
G1 F1800 X157.33 Y178.54 E69.50903
G0 F12000 X157.97 Y179.75
G1 F1800 X163.86 Y185.63 E69.85528
G0 F12000 X163.71 Y186.05
G1 F1800 X158.23 Y180.57 E70.17754
G0 F12000 X158.34 Y181.25
G1 F1800 X163.55 Y186.46 E70.48399
G0 F12000 X163.38 Y186.85
G1 F1800 X158.37 Y181.85 E70.77814
G0 F12000 X158.35 Y182.40
G1 F1800 X163.19 Y187.24 E71.06272
G0 F12000 X163.00 Y187.61
G1 F1800 X158.29 Y182.89 E71.33994
G0 F12000 X158.18 Y183.35
G1 F1800 X162.79 Y187.97 E71.61140
G0 F12000 X162.59 Y188.32
G1 F1800 X158.06 Y183.80 E71.87737
G0 F12000 X157.90 Y184.21
G1 F1800 X162.36 Y188.66 E72.13916
G0 F12000 X162.12 Y188.99
G1 F1800 X157.72 Y184.59 E72.39804
G0 F12000 X157.52 Y184.96
G1 F1800 X161.88 Y189.31 E72.65424
G0 F12000 X161.62 Y189.62
G1 F1800 X157.29 Y185.30 E72.90862
G0 F12000 X157.05 Y185.62
G1 F1800 X161.36 Y189.93 E73.16189
G0 F12000 X161.08 Y190.22
G1 F1800 X156.78 Y185.92 E73.41471
G0 F12000 X156.50 Y186.20
G1 F1800 X160.80 Y190.50 E73.66759
G0 F12000 X160.51 Y190.77
G1 F1800 X156.20 Y186.47 E73.92071
G0 F12000 X155.88 Y186.71
G1 F1800 X160.21 Y191.04 E74.17533
G0 F12000 X159.89 Y191.29
G1 F1800 X155.53 Y186.93 E74.43162
G0 F12000 X155.17 Y187.13
G1 F1800 X159.57 Y191.53 E74.69047
G0 F12000 X159.24 Y191.77
G1 F1800 X154.79 Y187.31 E74.95235
G0 F12000 X154.38 Y187.47
G1 F1800 X158.90 Y191.99 E75.21828
G0 F12000 X158.55 Y192.21
G1 F1800 X153.94 Y187.59 E75.48951
G0 F12000 X153.47 Y187.69
G1 F1800 X158.19 Y192.41 E75.76685
G0 F12000 X157.82 Y192.61
G1 F1800 X152.96 Y187.75 E76.05216
G0 F12000 X152.42 Y187.77
G1 F1800 X157.43 Y192.79 E76.34688
G0 F12000 X157.03 Y192.96
G1 F1800 X151.81 Y187.73 E76.65403
G0 F12000 X151.12 Y187.61
G1 F1800 X156.63 Y193.12 E76.97773
G0 F12000 X156.21 Y193.26
G1 F1800 X150.29 Y187.34 E77.32589
G0 F12000 X149.00 Y186.62
G1 F1800 X155.78 Y193.39 E77.72409
G0 F12000 X155.33 Y193.51
G1 F1800 X140.88 Y179.06 E78.57349
G0 F12000 X141.00 Y178.62
G1 F1800 X147.78 Y185.40 E78.97213
G0 F12000 X147.05 Y184.10
G1 F1800 X141.13 Y178.19 E79.31979
G0 F12000 X141.28 Y177.76
G1 F1800 X146.79 Y183.27 E79.64375
G0 F12000 X146.66 Y182.58
G1 F1800 X141.44 Y177.36 E79.95079
G0 F12000 X141.61 Y176.96
G1 F1800 X146.62 Y181.98 E80.24556
G0 F12000 X146.64 Y181.43
G1 F1800 X141.79 Y176.58 E80.53067
G0 F12000 X141.98 Y176.21
G1 F1800 X146.70 Y180.93 E80.80818
G0 F12000 X146.80 Y180.46
G1 F1800 X142.19 Y175.84 E81.07965
G0 F12000 X142.40 Y175.49
G1 F1800 X146.93 Y180.02 E81.34590
G0 F12000 X147.08 Y179.61
G1 F1800 X142.62 Y175.15 E81.60819
G0 F12000 X142.86 Y174.82
G1 F1800 X147.26 Y179.22 E81.86696
G0 F12000 X147.46 Y178.86
G1 F1800 X143.10 Y174.50 E82.12325
G0 F12000 X143.36 Y174.19
G1 F1800 X147.69 Y178.52 E82.37789
G0 F12000 X147.93 Y178.20
G1 F1800 X143.62 Y173.89 E82.63122
G0 F12000 X143.90 Y173.59
G1 F1800 X148.19 Y177.89 E82.88389
G0 F12000 X148.48 Y177.61
G1 F1800 X144.18 Y173.31 E83.13648
G0 F12000 X144.47 Y173.04
G1 F1800 X148.78 Y177.34 E83.38986
G0 F12000 X149.10 Y177.10
G1 F1800 X144.77 Y172.78 E83.64425
G0 F12000 X145.08 Y172.52
G1 F1800 X149.44 Y176.87 E83.90039
G0 F12000 X149.80 Y176.67
G1 F1800 X145.40 Y172.27 E84.15898
G0 F12000 X145.74 Y172.04
G1 F1800 X150.19 Y176.49 E84.42080
G0 F12000 X150.60 Y176.33
G1 F1800 X146.07 Y171.81 E84.68658
G0 F12000 X146.43 Y171.60
G1 F1800 X151.03 Y176.20 E84.95699
G0 F12000 X151.51 Y176.12
G1 F1800 X146.78 Y171.39 E85.23480
G0 F12000 X147.16 Y171.20
G1 F1800 X151.99 Y176.03 E85.51896
G0 F12000 X152.54 Y176.01
G1 F1800 X147.54 Y171.02 E85.81282
G0 F12000 X147.94 Y170.85
G1 F1800 X153.14 Y176.05 E86.11865
G0 F12000 X153.83 Y176.17
G1 F1800 X148.34 Y170.69 E86.44103
G0 F12000 X148.76 Y170.54
G1 F1800 X154.64 Y176.42 E86.78702
G0 F12000 X155.87 Y177.08
G1 F1800 X149.19 Y170.41 E87.17934
G0 F12000 X156.06 Y170.48
G1 F1800 X163.91 Y178.34 E87.64115
G0 F12000 X163.60 Y177.46
G1 F1800 X156.94 Y170.79 E88.03312
G0 F12000 X157.98 Y171.27
G1 F1800 X163.13 Y176.42 E88.33594
G0 F12000 X162.25 Y174.98
G1 F1800 X159.42 Y172.15 E88.50222
G0 F12000 X140.78 Y179.53
G1 F1800 X154.86 Y193.61 E89.33019
G0 F12000 X154.39 Y193.70
G1 F1800 X140.69 Y180.01 E90.13534
G0 F12000 X140.62 Y180.50
G1 F1800 X153.89 Y193.77 E90.91551
G0 F12000 X153.37 Y193.82
G1 F1800 X140.57 Y181.02 E91.66784
G0 F12000 X140.55 Y181.56
G1 F1800 X152.83 Y193.84 E92.39003
G0 F12000 X152.27 Y193.85
G1 F1800 X140.55 Y182.13 E93.07944
G0 F12000 X140.57 Y182.71
G1 F1800 X151.68 Y193.82 E93.73273
G0 F12000 X151.05 Y193.76
G1 F1800 X140.63 Y183.34 E94.34580
G0 F12000 X140.73 Y184.00
G1 F1800 X150.39 Y193.66 E94.91371
G0 F12000 X149.67 Y193.51
G1 F1800 X140.88 Y184.72 E95.43047
G0 F12000 X141.10 Y185.51
G1 F1800 X148.89 Y193.29 E95.88817
G0 F12000 X148.00 Y192.97
G1 F1800 X141.43 Y186.40 E96.27463
G0 F12000 X141.90 Y187.44
G1 F1800 X146.94 Y192.48 E96.57099
G0 F12000 X145.44 Y191.54
G1 F1800 X142.86 Y188.96 E96.72287
;LAYER:1
G0 F12000 X142.94 Y189.32 Z0.40
;TYPE:WALL-INNER
G1 F2820 X142.53 Y188.75 E96.74034
G1 X142.13 Y188.13 E96.75884
G1 X141.77 Y187.48 E96.77724
G1 X141.46 Y186.85 E96.79479
G1 X141.18 Y186.16 E96.81338
G1 X140.95 Y185.50 E96.83082
G1 X140.76 Y184.80 E96.84890
G1 X140.60 Y184.08 E96.86724
G1 X140.49 Y183.36 E96.88542
G1 X140.43 Y182.67 E96.90288
G1 X140.40 Y181.91 E96.92169
G1 X140.40 Y181.88 E96.92252
G1 X140.42 Y181.21 E96.93931
G1 X140.48 Y180.47 E96.95767
G1 X140.59 Y179.77 E96.97540
G1 X140.74 Y179.07 E96.99332
G1 X140.93 Y178.34 E97.01203
G1 X141.16 Y177.69 E97.02937
G1 X141.44 Y177.00 E97.04784
G1 X141.74 Y176.35 E97.06567
G1 X142.10 Y175.71 E97.08398
G1 X142.48 Y175.11 E97.10175
G1 X142.91 Y174.52 E97.12000
G1 X143.36 Y173.96 E97.13787
G1 X143.86 Y173.43 E97.15618
G1 X144.38 Y172.93 E97.17396
G1 X144.93 Y172.46 E97.19217
G1 X145.51 Y172.03 E97.21011
G1 X146.11 Y171.62 E97.22815
G1 X146.74 Y171.26 E97.24646
G1 X147.39 Y170.93 E97.26453
G1 X148.05 Y170.65 E97.28246
G1 X148.73 Y170.40 E97.30055
G1 X149.41 Y170.20 E97.31823
G1 X150.13 Y170.03 E97.33667
G1 X150.86 Y169.91 E97.35498
G1 X151.56 Y169.83 E97.37267
G1 X152.28 Y169.80 E97.39075
G1 X152.34 Y169.80 E97.39222
G1 X153.02 Y169.81 E97.40904
G1 X153.72 Y169.86 E97.42662
G1 X154.45 Y169.96 E97.44506
G1 X155.16 Y170.09 E97.46306
G1 X155.86 Y170.27 E97.48101
G1 X156.54 Y170.49 E97.49891
G1 X157.24 Y170.76 E97.51750
G1 X157.88 Y171.06 E97.53509
G1 X158.52 Y171.40 E97.55336
G1 X159.13 Y171.78 E97.57113
G1 X159.73 Y172.20 E97.58951
G1 X160.30 Y172.65 E97.60755
G1 X160.84 Y173.13 E97.62559
G1 X161.34 Y173.64 E97.64335
G1 X161.83 Y174.19 E97.66173
G1 X162.27 Y174.76 E97.67969
G1 X162.68 Y175.36 E97.69784
G1 X163.05 Y175.97 E97.71559
G1 X163.39 Y176.62 E97.73406
G1 X163.68 Y177.28 E97.75194
G1 X163.94 Y177.95 E97.76986
G1 X164.15 Y178.64 E97.78784
G1 X164.33 Y179.36 E97.80631
G1 X164.46 Y180.05 E97.82397
G1 X164.55 Y180.78 E97.84234
G1 X164.59 Y181.51 E97.86038
G1 X164.59 Y182.22 E97.87832
G1 X164.55 Y182.95 E97.89641
G1 X164.47 Y183.66 E97.91427
G1 X164.34 Y184.39 E97.93277
G1 X164.17 Y185.08 E97.95044
G1 X163.96 Y185.78 E97.96881
G1 X163.71 Y186.45 E97.98653
G1 X163.41 Y187.12 E98.00483
G1 X163.08 Y187.76 E98.02287
G1 X162.72 Y188.38 E98.04070
G1 X162.31 Y188.98 E98.05874
G1 X161.86 Y189.57 E98.07731
G1 X161.39 Y190.10 E98.09501
G1 X160.88 Y190.62 E98.11309
G1 X160.35 Y191.10 E98.13115
G1 X159.79 Y191.55 E98.14891
G1 X159.19 Y191.98 E98.16744
G1 X158.59 Y192.35 E98.18510
G1 X157.93 Y192.71 E98.20383
G1 X157.29 Y193.01 E98.22130
G1 X156.61 Y193.28 E98.23958
G1 X155.91 Y193.51 E98.25798
G1 X155.22 Y193.69 E98.27571
G1 X154.51 Y193.83 E98.29370
G1 X153.80 Y193.93 E98.31166
G1 X153.08 Y193.98 E98.32970
G1 X152.36 Y194.00 E98.34768
G1 X151.62 Y193.97 E98.36603
G1 X150.91 Y193.89 E98.38401
G1 X150.19 Y193.77 E98.40209
G1 X149.49 Y193.62 E98.42004
G1 X148.79 Y193.41 E98.43811
G1 X148.12 Y193.17 E98.45607
G1 X147.44 Y192.89 E98.47433
G1 X146.80 Y192.57 E98.49224
G1 X146.17 Y192.21 E98.51020
G1 X145.56 Y191.81 E98.52840
G1 X144.98 Y191.37 E98.54665
G1 X144.43 Y190.91 E98.56448
G1 X143.91 Y190.41 E98.58253
G1 X143.41 Y189.88 E98.60055
G1 X142.94 Y189.32 E98.61892
G0 F12000 X148.01 Y185.48
G1 F2820 X148.68 Y186.18 E98.64317
G1 X149.17 Y186.57 E98.65880
G1 X149.56 Y186.83 E98.67035
G1 X150.10 Y187.11 E98.68578
G1 X150.60 Y187.31 E98.69921
G1 X151.12 Y187.47 E98.71254
G1 X151.56 Y187.56 E98.72394
G1 X152.10 Y187.63 E98.73738
G1 X152.64 Y187.64 E98.75085
G1 X153.25 Y187.59 E98.76632
G1 X153.80 Y187.49 E98.78004
G1 X154.72 Y187.19 E98.80426
G1 X155.29 Y186.91 E98.82005
G1 X155.75 Y186.63 E98.83348
G1 X156.18 Y186.31 E98.84690
G1 X156.57 Y185.95 E98.86018
G1 X156.88 Y185.61 E98.87171
G1 X157.25 Y185.12 E98.88703
G1 X157.50 Y184.73 E98.89858
G1 X157.77 Y184.17 E98.91401
G1 X157.96 Y183.67 E98.92732
G1 X158.09 Y183.23 E98.93885
G1 X158.19 Y182.62 E98.95417
G1 X158.24 Y182.16 E98.96570
G1 X158.23 Y181.54 E98.98112
G1 X158.17 Y181.01 E98.99457
G1 X158.06 Y180.48 E99.00804
G1 X157.91 Y179.97 E99.02132
G1 X157.74 Y179.54 E99.03282
G1 X157.45 Y179.00 E99.04818
G1 X157.21 Y178.60 E99.05970
G1 X156.82 Y178.12 E99.07513
G1 X156.45 Y177.73 E99.08859
G1 X156.04 Y177.38 E99.10202
G1 X155.60 Y177.07 E99.11542
G1 X155.13 Y176.79 E99.12910
G1 X154.23 Y176.42 E99.15333
G1 X153.62 Y176.27 E99.16898
G1 X153.17 Y176.19 E99.18039
G1 X152.63 Y176.15 E99.19394
G1 X152.01 Y176.18 E99.20937
G1 X151.48 Y176.25 E99.22281
G1 X150.96 Y176.37 E99.23620
G1 X150.45 Y176.53 E99.24951
G1 X150.02 Y176.72 E99.26107
G1 X149.48 Y177.01 E99.27638
G1 X149.10 Y177.27 E99.28791
G1 X148.62 Y177.66 E99.30334
G1 X148.24 Y178.04 E99.31678
G1 X147.90 Y178.46 E99.33011
G1 X147.64 Y178.84 E99.34161
G1 X147.34 Y179.38 E99.35707
G1 X147.13 Y179.87 E99.37051
G1 X146.96 Y180.39 E99.38393
G1 X146.85 Y180.91 E99.39720
G1 X146.78 Y181.36 E99.40862
G1 X146.76 Y181.90 E99.42215
G1 X146.79 Y182.52 E99.43759
G1 X146.88 Y183.06 E99.45135
G1 X147.15 Y183.99 E99.47544
G1 X147.38 Y184.50 E99.48929
G1 X147.69 Y185.03 E99.50472
G1 X148.01 Y185.48 E99.51843
G0 F12000 X148.32 Y185.22
;TYPE:WALL-OUTER
G1 F2820 X148.95 Y185.89 E99.54128
G1 X149.41 Y186.25 E99.55578
G1 X149.76 Y186.48 E99.56637
G1 X150.27 Y186.75 E99.58078
G1 X150.74 Y186.94 E99.59330
G1 X151.21 Y187.08 E99.60574
G1 X151.63 Y187.17 E99.61628
G1 X152.12 Y187.23 E99.62879
G1 X152.63 Y187.24 E99.64129
G1 X153.20 Y187.19 E99.65573
G1 X153.70 Y187.10 E99.66831
G1 X154.57 Y186.82 E99.69114
G1 X155.09 Y186.56 E99.70568
G1 X155.52 Y186.30 E99.71817
G1 X155.92 Y186.00 E99.73065
G1 X156.58 Y185.35 E99.75367
G1 X156.92 Y184.89 E99.76807
G1 X157.15 Y184.53 E99.77866
G1 X157.40 Y184.01 E99.79310
G1 X157.58 Y183.54 E99.80555
G1 X157.70 Y183.14 E99.81614
G1 X157.80 Y182.57 E99.83050
G1 X157.84 Y182.15 E99.84110
G1 X157.83 Y181.57 E99.85552
G1 X157.78 Y181.07 E99.86802
G1 X157.68 Y180.58 E99.88055
G1 X157.37 Y179.71 E99.90354
G1 X157.11 Y179.19 E99.91795
G1 X156.88 Y178.84 E99.92854
G1 X156.52 Y178.38 E99.94296
G1 X156.17 Y178.02 E99.95545
G1 X155.79 Y177.69 E99.96796
G1 X155.39 Y177.41 E99.98043
G1 X154.95 Y177.15 E99.99300
G1 X154.11 Y176.80 E100.01581
G1 X153.54 Y176.66 E100.03032
G1 X153.12 Y176.59 E100.04086
G1 X152.62 Y176.56 E100.05342
G1 X152.05 Y176.57 E100.06782
G1 X151.55 Y176.64 E100.08033
G1 X151.06 Y176.75 E100.09279
G1 X150.59 Y176.91 E100.10524
G1 X150.20 Y177.07 E100.11585
G1 X149.69 Y177.35 E100.13022
G1 X149.34 Y177.59 E100.14082
G1 X148.89 Y177.96 E100.15524
G1 X148.54 Y178.31 E100.16775
G1 X148.22 Y178.70 E100.18021
G1 X147.98 Y179.05 E100.19077
G1 X147.70 Y179.55 E100.20521
G1 X147.50 Y180.01 E100.21771
G1 X147.35 Y180.49 E100.23019
G1 X147.24 Y180.98 E100.24264
G1 X147.18 Y181.40 E100.25318
G1 X147.16 Y181.90 E100.26571
G1 X147.19 Y182.47 E100.28013
G1 X147.27 Y182.97 E100.29276
G1 X147.53 Y183.85 E100.31551
G1 X147.73 Y184.31 E100.32816
G1 X148.03 Y184.81 E100.34259
G1 X148.32 Y185.22 E100.35515
G0 F12000 X148.10 Y185.43
G0 X142.87 Y189.38
G0 X142.63 Y189.57
G1 F2820 X142.19 Y188.97 E100.37365
G1 X141.79 Y188.34 E100.39218
G1 X141.42 Y187.68 E100.41114
G1 X141.09 Y187.01 E100.42980
G1 X140.81 Y186.31 E100.44845
G1 X140.57 Y185.62 E100.46680
G1 X140.37 Y184.89 E100.48576
G1 X140.21 Y184.16 E100.50441
G1 X140.09 Y183.42 E100.52309
G1 X140.03 Y182.68 E100.54145
G1 X140.00 Y181.93 E100.56034
G1 X140.00 Y181.87 E100.56176
G1 X140.02 Y181.18 E100.57901
G1 X140.09 Y180.44 E100.59739
G1 X140.19 Y179.70 E100.61605
G1 X140.35 Y178.97 E100.63468
G1 X140.55 Y178.24 E100.65366
G1 X140.78 Y177.54 E100.67201
G1 X141.07 Y176.84 E100.69096
G1 X141.39 Y176.17 E100.70933
G1 X141.75 Y175.52 E100.72797
G1 X142.16 Y174.88 E100.74695
G1 X142.59 Y174.28 E100.76529
G1 X143.06 Y173.70 E100.78391
G1 X143.58 Y173.15 E100.80289
G1 X144.11 Y172.63 E100.82125
G1 X144.68 Y172.15 E100.84006
G1 X145.27 Y171.70 E100.85855
G1 X145.91 Y171.28 E100.87752
G1 X146.55 Y170.91 E100.89602
G1 X147.22 Y170.57 E100.91473
G1 X147.91 Y170.27 E100.93349
G1 X148.60 Y170.02 E100.95184
G1 X149.32 Y169.81 E100.97070
G1 X150.06 Y169.64 E100.98944
G1 X150.78 Y169.52 E101.00783
G1 X151.53 Y169.44 E101.02660
G1 X152.29 Y169.40 E101.04543
G1 X152.34 Y169.40 E101.04687
G1 X153.03 Y169.41 E101.06401
G1 X153.77 Y169.46 E101.08247
G1 X154.51 Y169.56 E101.10124
G1 X155.24 Y169.70 E101.11972
G1 X155.98 Y169.89 E101.13867
G1 X156.68 Y170.12 E101.15701
G1 X157.38 Y170.39 E101.17571
G1 X158.07 Y170.71 E101.19465
G1 X158.71 Y171.05 E101.21298
G1 X159.35 Y171.44 E101.23166
G1 X159.97 Y171.88 E101.25059
G1 X160.56 Y172.34 E101.26927
G1 X161.11 Y172.83 E101.28760
G1 X161.64 Y173.37 E101.30657
G1 X162.13 Y173.93 E101.32491
G1 X162.59 Y174.53 E101.34388
G1 X163.02 Y175.14 E101.36254
G1 X163.40 Y175.78 E101.38090
G1 X163.75 Y176.45 E101.39985
G1 X164.05 Y177.12 E101.41819
G1 X164.32 Y177.83 E101.43716
G1 X164.54 Y178.53 E101.45552
G1 X164.72 Y179.26 E101.47415
G1 X164.85 Y179.99 E101.49282
G1 X164.94 Y180.74 E101.51149
G1 X164.99 Y181.50 E101.53044
G1 X165.00 Y182.23 E101.54878
G1 X164.95 Y182.98 E101.56744
G1 X164.86 Y183.73 E101.58635
G1 X164.73 Y184.47 E101.60505
G1 X164.56 Y185.18 E101.62342
G1 X164.34 Y185.90 E101.64205
G1 X164.08 Y186.60 E101.66073
G1 X163.78 Y187.28 E101.67938
G1 X163.43 Y187.96 E101.69832
G1 X163.05 Y188.59 E101.71670
G1 X162.63 Y189.21 E101.73537
G1 X162.17 Y189.81 E101.75431
G1 X161.69 Y190.37 E101.77267
G1 X161.16 Y190.91 E101.79161
G1 X160.61 Y191.41 E101.80998
G1 X160.03 Y191.87 E101.82863
G1 X159.41 Y192.31 E101.84752
G1 X158.78 Y192.70 E101.86593
G1 X158.12 Y193.06 E101.88477
G1 X157.44 Y193.38 E101.90344
G1 X156.75 Y193.65 E101.92203
G1 X156.03 Y193.88 E101.94077
G1 X155.31 Y194.07 E101.95946
G1 X154.58 Y194.22 E101.97801
G1 X153.84 Y194.32 E101.99677
G1 X153.10 Y194.38 E102.01518
G1 X152.35 Y194.40 E102.03392
G1 X151.60 Y194.36 E102.05267
G1 X150.85 Y194.29 E102.07142
G1 X150.12 Y194.17 E102.08980
G1 X149.39 Y194.00 E102.10854
G1 X148.66 Y193.79 E102.12737
G1 X147.97 Y193.55 E102.14578
G1 X147.28 Y193.25 E102.16452
G1 X146.61 Y192.92 E102.18324
G1 X145.96 Y192.55 E102.20179
G1 X145.33 Y192.14 E102.22049
G1 X144.74 Y191.69 E102.23910
G1 X144.16 Y191.21 E102.25780
G1 X143.62 Y190.69 E102.27647
G1 X143.10 Y190.14 E102.29531
G1 X142.63 Y189.57 E102.31392
G0 F12000 X143.08 Y189.26
;TYPE:FILL
G1 F2820 X147.45 Y184.89 E102.46801
G0 F12000 X147.67 Y185.24
G1 F2820 X143.34 Y189.57 E102.62085
G0 F12000 X143.60 Y189.88
G1 F2820 X147.90 Y185.57 E102.77283
G0 F12000 X148.18 Y185.86
G1 F2820 X143.87 Y190.17 E102.92484
G0 F12000 X144.15 Y190.45
G1 F2820 X148.45 Y186.15 E103.07661
G0 F12000 X148.75 Y186.42
G1 F2820 X144.44 Y190.73 E103.22863
G0 F12000 X144.74 Y190.99
G1 F2820 X149.07 Y186.67 E103.38121
G0 F12000 X149.41 Y186.89
G1 F2820 X145.05 Y191.25 E103.53485
G0 F12000 X145.37 Y191.49
G1 F2820 X149.77 Y187.10 E103.68993
G0 F12000 X150.15 Y187.28
G1 F2820 X145.70 Y191.73 E103.84689
G0 F12000 X146.04 Y191.96
G1 F2820 X150.55 Y187.44 E104.00607
G0 F12000 X150.99 Y187.57
G1 F2820 X146.39 Y192.17 E104.16824
G0 F12000 X146.75 Y192.38
G1 F2820 X151.45 Y187.68 E104.33396
G0 F12000 X151.94 Y187.75
G1 F2820 X147.12 Y192.57 E104.50414
G0 F12000 X147.50 Y192.76
G1 F2820 X152.49 Y187.77 E104.68007
G0 F12000 X153.08 Y187.74
G1 F2820 X147.90 Y192.93 E104.86307
G0 F12000 X148.30 Y193.09
G1 F2820 X153.75 Y187.64 E105.05542
G0 F12000 X154.56 Y187.39
G1 F2820 X148.72 Y193.24 E105.26171
G0 F12000 X149.15 Y193.37
G1 F2820 X155.70 Y186.82 E105.49272
G0 F12000 X157.44 Y185.09
G1 F2820 X163.97 Y178.55 E105.72344
G0 F12000 X163.84 Y178.11
G1 F2820 X158.00 Y183.96 E105.92953
G0 F12000 X158.24 Y183.15
G1 F2820 X163.69 Y177.70 E106.12176
G0 F12000 X163.53 Y177.29
G1 F2820 X158.35 Y182.48 E106.30476
G0 F12000 X158.37 Y181.88
G1 F2820 X163.36 Y176.90 E106.48066
G0 F12000 X163.18 Y176.52
G1 F2820 X158.35 Y181.34 E106.65091
G0 F12000 X158.28 Y180.85
G1 F2820 X162.98 Y176.15 E106.81669
G0 F12000 X162.77 Y175.79
G1 F2820 X158.18 Y180.38 E106.97876
G0 F12000 X158.05 Y179.95
G1 F2820 X162.56 Y175.43 E107.13800
G0 F12000 X162.33 Y175.10
G1 F2820 X157.89 Y179.54 E107.29471
G0 F12000 X157.70 Y179.16
G1 F2820 X162.10 Y174.77 E107.44984
G0 F12000 X161.85 Y174.45
G1 F2820 X157.50 Y178.80 E107.60340
G0 F12000 X157.27 Y178.46
G1 F2820 X161.59 Y174.14 E107.75589
G0 F12000 X161.33 Y173.84
G1 F2820 X157.02 Y178.14 E107.90785
G0 F12000 X156.76 Y177.85
G1 F2820 X161.06 Y173.55 E108.05951
G0 F12000 X160.77 Y173.26
G1 F2820 X156.47 Y177.56 E108.21126
G0 F12000 X156.17 Y177.30
G1 F2820 X160.48 Y172.99 E108.36332
G0 F12000 X160.18 Y172.73
G1 F2820 X155.84 Y177.06 E108.51636
G0 F12000 X155.50 Y176.84
G1 F2820 X159.86 Y172.48 E108.67038
G0 F12000 X159.54 Y172.23
G1 F2820 X155.13 Y176.64 E108.82585
G0 F12000 X154.73 Y176.47
G1 F2820 X159.21 Y172.00 E108.98370
G0 F12000 X158.87 Y171.78
G1 F2820 X154.33 Y176.31 E109.14365
G0 F12000 X153.89 Y176.19
G1 F2820 X158.51 Y171.56 E109.30691
G0 F12000 X158.15 Y171.36
G1 F2820 X153.42 Y176.09 E109.47379
G0 F12000 X152.91 Y176.03
G1 F2820 X157.78 Y171.16 E109.64552
G0 F12000 X157.39 Y170.99
G1 F2820 X152.36 Y176.02 E109.82313
G0 F12000 X151.74 Y176.07
G1 F2820 X157.00 Y170.82 E110.00841
G0 F12000 X156.59 Y170.66
G1 F2820 X151.05 Y176.20 E110.20399
G0 F12000 X150.19 Y176.49
G1 F2820 X156.17 Y170.52 E110.41472
G0 F12000 X155.73 Y170.38
G1 F2820 X148.71 Y177.41 E110.66256
G0 F12000 X148.00 Y178.11
G1 F2820 X140.99 Y185.12 E110.90997
G0 F12000 X141.12 Y185.56
G1 F2820 X147.10 Y179.58 E111.12094
G0 F12000 X146.81 Y180.44
G1 F2820 X141.26 Y185.98 E111.31642
G0 F12000 X141.42 Y186.39
G1 F2820 X146.67 Y181.14 E111.50150
G0 F12000 X146.62 Y181.76
G1 F2820 X141.59 Y186.79 E111.67909
G0 F12000 X141.77 Y187.17
G1 F2820 X146.64 Y182.31 E111.85072
G0 F12000 X146.70 Y182.81
G1 F2820 X141.97 Y187.54 E112.01763
G0 F12000 X142.17 Y187.91
G1 F2820 X146.80 Y183.28 E112.18088
G0 F12000 X146.93 Y183.72
G1 F2820 X142.38 Y188.26 E112.34115
G0 F12000 X142.60 Y188.60
G1 F2820 X147.07 Y184.14 E112.49859
G0 F12000 X147.24 Y184.53
G1 F2820 X142.84 Y188.94 E112.65387
G0 F12000 X140.87 Y184.68
G1 F2820 X155.28 Y170.27 E113.16225
G0 F12000 X154.82 Y170.17
G1 F2820 X140.77 Y184.21 E113.65773
G0 F12000 X140.69 Y183.73
G1 F2820 X154.34 Y170.08 E114.13932
G0 F12000 X153.84 Y170.01
G1 F2820 X140.62 Y183.24 E114.60580
G0 F12000 X140.57 Y182.72
G1 F2820 X153.32 Y169.97 E115.05559
G0 F12000 X152.78 Y169.94
G1 F2820 X140.55 Y182.17 E115.48704
G0 F12000 X140.55 Y181.61
G1 F2820 X152.22 Y169.94 E115.89862
G0 F12000 X151.62 Y169.97
G1 F2820 X140.58 Y181.01 E116.28826
G0 F12000 X140.64 Y180.39
G1 F2820 X150.99 Y170.04 E116.65340
G0 F12000 X150.32 Y170.14
G1 F2820 X140.74 Y179.72 E116.99122
G0 F12000 X140.90 Y178.99
G1 F2820 X149.60 Y170.30 E117.29789
G0 F12000 X148.81 Y170.52
G1 F2820 X141.13 Y178.20 E117.56867
G0 F12000 X141.47 Y177.30
G1 F2820 X147.90 Y170.86 E117.79573
G0 F12000 X146.83 Y171.37
G1 F2820 X141.98 Y176.22 E117.96685
G0 F12000 X143.00 Y174.63
G1 F2820 X145.22 Y172.41 E118.04506
G0 F12000 X164.09 Y178.99
G1 F2820 X149.59 Y193.50 E118.55665
G0 F12000 X150.05 Y193.60
G1 F2820 X164.20 Y179.45 E119.05583
G0 F12000 X164.29 Y179.93
G1 F2820 X150.53 Y193.69 E119.54126
G0 F12000 X151.02 Y193.76
G1 F2820 X164.36 Y180.42 E120.01177
G0 F12000 X164.41 Y180.94
G1 F2820 X151.54 Y193.81 E120.46611
G0 F12000 X152.07 Y193.84
G1 F2820 X164.45 Y181.47 E120.90267
G0 F12000 X164.45 Y182.03
G1 F2820 X152.63 Y193.85 E121.31967
G0 F12000 X153.22 Y193.83
G1 F2820 X164.43 Y182.62 E121.71528
G0 F12000 X164.38 Y183.24
G1 F2820 X153.83 Y193.78 E122.08721
G0 F12000 X154.49 Y193.69
G1 F2820 X164.28 Y183.90 E122.43267
G0 F12000 X164.14 Y184.60
G1 F2820 X155.20 Y193.54 E122.74816
G0 F12000 X155.97 Y193.34
G1 F2820 X163.94 Y185.37 E123.02907
G0 F12000 X163.64 Y186.24
G1 F2820 X156.84 Y193.03 E123.26884
G0 F12000 X157.85 Y192.59
G1 F2820 X163.19 Y187.26 E123.45704
G0 F12000 X162.37 Y188.63
G1 F2820 X159.23 Y191.78 E123.56787
G1 F2400 E122.36787
G0 F12000 X154.51 Y164.43
;TYPE:WALL-INNER
G1 F2400 E123.56787
G1 F2820 X153.80 Y164.53 E123.58582
G1 X153.08 Y164.58 E123.60386
G1 X152.36 Y164.60 E123.62185
G1 X151.62 Y164.57 E123.64020
G1 X150.91 Y164.49 E123.65818
G1 X150.19 Y164.38 E123.67625
G1 X149.49 Y164.22 E123.69420
G1 X148.79 Y164.02 E123.71228
G1 X148.12 Y163.78 E123.73023
G1 X147.44 Y163.49 E123.74850
G1 X146.80 Y163.17 E123.76640
G1 X146.17 Y162.81 E123.78437
G1 X145.56 Y162.41 E123.80257
G1 X144.99 Y161.98 E123.82053
G1 X144.42 Y161.51 E123.83891
G1 X143.91 Y161.01 E123.85671
G1 X143.41 Y160.49 E123.87471
G1 X142.95 Y159.93 E123.89287
G1 X142.53 Y159.35 E123.91081
G1 X142.13 Y158.73 E123.92906
G1 X141.77 Y158.09 E123.94746
G1 X141.46 Y157.45 E123.96501
G1 X141.18 Y156.76 E123.98360
G1 X140.95 Y156.10 E124.00104
G1 X140.76 Y155.41 E124.01911
G1 X140.60 Y154.69 E124.03746
G1 X140.49 Y153.97 E124.05563
G1 X140.43 Y153.27 E124.07309
G1 X140.40 Y152.52 E124.09191
G1 X140.40 Y152.48 E124.09273
G1 X140.42 Y151.81 E124.10950
G1 X140.48 Y151.08 E124.12786
G1 X140.59 Y150.38 E124.14559
G1 X140.74 Y149.67 E124.16351
G1 X140.93 Y148.95 E124.18223
G1 X141.16 Y148.29 E124.19956
G1 X141.44 Y147.60 E124.21803
G1 X141.74 Y146.96 E124.23586
G1 X142.10 Y146.32 E124.25417
G1 X142.48 Y145.72 E124.27194
G1 X142.91 Y145.12 E124.29019
G1 X143.36 Y144.57 E124.30807
G1 X143.86 Y144.03 E124.32637
G1 X144.38 Y143.53 E124.34415
G1 X144.93 Y143.06 E124.36245
G1 X145.50 Y142.63 E124.38023
G1 X146.11 Y142.23 E124.39833
G1 X146.74 Y141.86 E124.41665
G1 X147.38 Y141.54 E124.43457
G1 X148.05 Y141.25 E124.45258
G1 X148.74 Y141.00 E124.47101
G1 X149.41 Y140.80 E124.48843
G1 X150.13 Y140.64 E124.50681
G1 X150.84 Y140.52 E124.52487
G1 X151.58 Y140.44 E124.54324
G1 X152.28 Y140.40 E124.56094
G1 X152.34 Y140.40 E124.56242
G1 X153.02 Y140.41 E124.57923
G1 X153.72 Y140.46 E124.59681
G1 X154.45 Y140.56 E124.61526
G1 X155.16 Y140.70 E124.63325
G1 X155.86 Y140.88 E124.65120
G1 X156.55 Y141.10 E124.66926
G1 X157.22 Y141.36 E124.68735
G1 X157.88 Y141.66 E124.70546
G1 X158.52 Y142.00 E124.72342
G1 X159.15 Y142.39 E124.74179
G1 X159.72 Y142.79 E124.75937
G1 X160.30 Y143.25 E124.77775
G1 X160.84 Y143.73 E124.79578
G1 X161.34 Y144.24 E124.81355
G1 X161.83 Y144.79 E124.83193
G1 X162.26 Y145.35 E124.84963
G1 X162.68 Y145.96 E124.86792
G1 X163.05 Y146.59 E124.88615
G1 X163.39 Y147.23 E124.90425
G1 X163.68 Y147.88 E124.92214
G1 X163.94 Y148.55 E124.94006
G1 X164.15 Y149.24 E124.95803
G1 X164.33 Y149.96 E124.97651
G1 X164.46 Y150.66 E124.99416
G1 X164.55 Y151.39 E125.01253
G1 X164.59 Y152.11 E125.03058
G1 X164.59 Y152.83 E125.04849
G1 X164.55 Y153.55 E125.06658
G1 X164.47 Y154.26 E125.08443
G1 X164.34 Y154.99 E125.10294
G1 X164.17 Y155.68 E125.12059
G1 X163.96 Y156.39 E125.13898
G1 X163.71 Y157.05 E125.15670
G1 X163.41 Y157.72 E125.17500
G1 X163.08 Y158.37 E125.19304
G1 X162.72 Y158.98 E125.21087
G1 X162.31 Y159.58 E125.22887
G1 X161.87 Y160.16 E125.24717
G1 X161.38 Y160.71 E125.26551
G1 X160.89 Y161.22 E125.28324
G1 X160.36 Y161.70 E125.30104
G1 X159.78 Y162.16 E125.31935
G1 X159.19 Y162.58 E125.33760
G1 X158.59 Y162.96 E125.35527
G1 X157.93 Y163.31 E125.37400
G1 X157.29 Y163.61 E125.39146
G1 X156.61 Y163.88 E125.40975
G1 X155.91 Y164.11 E125.42815
G1 X155.22 Y164.29 E125.44588
G1 X154.51 Y164.43 E125.46387
G0 F12000 X153.25 Y158.19
G1 F2820 X153.80 Y158.09 E125.47758
G1 X154.72 Y157.80 E125.50180
G1 X155.29 Y157.52 E125.51760
G1 X155.75 Y157.23 E125.53102
G1 X156.18 Y156.91 E125.54445
G1 X156.57 Y156.55 E125.55773
G1 X156.88 Y156.21 E125.56925
G1 X157.25 Y155.72 E125.58458
G1 X157.50 Y155.33 E125.59613
G1 X157.77 Y154.77 E125.61157
G1 X157.96 Y154.27 E125.62489
G1 X158.09 Y153.83 E125.63640
G1 X158.19 Y153.22 E125.65172
G1 X158.24 Y152.76 E125.66325
G1 X158.23 Y152.15 E125.67866
G1 X158.17 Y151.61 E125.69212
G1 X158.06 Y151.08 E125.70556
G1 X157.91 Y150.57 E125.71884
G1 X157.74 Y150.15 E125.73034
G1 X157.45 Y149.60 E125.74571
G1 X157.21 Y149.21 E125.75722
G1 X156.82 Y148.72 E125.77266
G1 X156.45 Y148.33 E125.78612
G1 X156.04 Y147.98 E125.79954
G1 X155.60 Y147.67 E125.81294
G1 X155.13 Y147.40 E125.82663
G1 X154.23 Y147.02 E125.85086
G1 X153.62 Y146.87 E125.86652
G1 X153.17 Y146.80 E125.87795
G1 X152.63 Y146.76 E125.89145
G1 X152.01 Y146.78 E125.90687
G1 X151.48 Y146.85 E125.92034
G1 X150.95 Y146.97 E125.93376
G1 X150.45 Y147.14 E125.94707
G1 X150.02 Y147.32 E125.95861
G1 X149.48 Y147.62 E125.97392
G1 X149.10 Y147.87 E125.98545
G1 X148.62 Y148.27 E126.00088
G1 X148.24 Y148.65 E126.01432
G1 X147.90 Y149.06 E126.02765
G1 X147.64 Y149.44 E126.03915
G1 X147.34 Y149.98 E126.05461
G1 X147.13 Y150.48 E126.06804
G1 X146.96 Y150.99 E126.08147
G1 X146.85 Y151.51 E126.09474
G1 X146.78 Y151.96 E126.10615
G1 X146.76 Y152.50 E126.11966
G1 X146.79 Y153.12 E126.13513
G1 X146.88 Y153.66 E126.14884
G1 X147.15 Y154.59 E126.17295
G1 X147.38 Y155.10 E126.18681
G1 X147.69 Y155.63 E126.20227
G1 X148.01 Y156.08 E126.21592
G1 X148.68 Y156.79 E126.24018
G1 X149.17 Y157.17 E126.25582
G1 X149.56 Y157.43 E126.26737
G1 X150.10 Y157.72 E126.28280
G1 X150.60 Y157.92 E126.29623
G1 X151.12 Y158.07 E126.30956
G1 X151.56 Y158.17 E126.32096
G1 X152.10 Y158.23 E126.33439
G1 X152.64 Y158.24 E126.34789
G1 X153.25 Y158.19 E126.36334
G0 F12000 X153.20 Y157.79
;TYPE:WALL-OUTER
G1 F2820 X153.70 Y157.71 E126.37591
G1 X154.57 Y157.43 E126.39875
G1 X155.09 Y157.17 E126.41329
G1 X155.52 Y156.90 E126.42577
G1 X155.92 Y156.60 E126.43826
G1 X156.58 Y155.96 E126.46128
G1 X156.92 Y155.49 E126.47567
G1 X157.15 Y155.13 E126.48627
G1 X157.40 Y154.61 E126.50071
G1 X157.58 Y154.15 E126.51318
G1 X157.70 Y153.74 E126.52375
G1 X157.80 Y153.17 E126.53811
G1 X157.84 Y152.75 E126.54871
G1 X157.83 Y152.17 E126.56313
G1 X157.78 Y151.67 E126.57563
G1 X157.68 Y151.18 E126.58813
G1 X157.37 Y150.31 E126.61113
G1 X157.11 Y149.80 E126.62553
G1 X156.88 Y149.44 E126.63613
G1 X156.52 Y148.99 E126.65055
G1 X156.17 Y148.62 E126.66304
G1 X155.79 Y148.30 E126.67554
G1 X155.39 Y148.01 E126.68802
G1 X154.95 Y147.75 E126.70058
G1 X154.11 Y147.40 E126.72341
G1 X153.54 Y147.26 E126.73791
G1 X153.12 Y147.19 E126.74848
G1 X152.62 Y147.16 E126.76098
G1 X152.05 Y147.18 E126.77541
G1 X151.55 Y147.25 E126.78792
G1 X151.06 Y147.36 E126.80038
G1 X150.59 Y147.51 E126.81284
G1 X150.20 Y147.68 E126.82345
G1 X149.69 Y147.96 E126.83782
G1 X149.34 Y148.19 E126.84842
G1 X148.89 Y148.56 E126.86284
G1 X148.54 Y148.92 E126.87534
G1 X148.22 Y149.30 E126.88780
G1 X147.98 Y149.65 E126.89837
G1 X147.70 Y150.16 E126.91281
G1 X147.50 Y150.62 E126.92531
G1 X147.35 Y151.09 E126.93779
G1 X147.24 Y151.58 E126.95024
G1 X147.18 Y152.00 E126.96077
G1 X147.16 Y152.50 E126.97329
G1 X147.19 Y153.08 E126.98773
G1 X147.27 Y153.58 E127.00030
G1 X147.53 Y154.45 E127.02308
G1 X147.73 Y154.92 E127.03573
G1 X148.03 Y155.41 E127.05016
G1 X148.32 Y155.82 E127.06270
G1 X148.95 Y156.49 E127.08557
G1 X149.41 Y156.85 E127.10007
G1 X149.76 Y157.09 E127.11066
G1 X150.27 Y157.35 E127.12508
G1 X150.74 Y157.54 E127.13759
G1 X151.21 Y157.68 E127.15003
G1 X151.63 Y157.77 E127.16057
G1 X152.12 Y157.83 E127.17308
G1 X152.63 Y157.84 E127.18558
G1 X153.20 Y157.79 E127.20002
G0 F12000 X153.23 Y158.09
G0 X153.81 Y164.63
G0 X153.84 Y164.93
G1 F2820 X153.10 Y164.98 E127.21843
G1 X152.35 Y165.00 E127.23717
G1 X151.60 Y164.97 E127.25592
G1 X150.85 Y164.89 E127.27468
G1 X150.12 Y164.77 E127.29305
G1 X149.39 Y164.61 E127.31179
G1 X148.66 Y164.40 E127.33062
G1 X147.97 Y164.15 E127.34903
G1 X147.28 Y163.86 E127.36778
G1 X146.61 Y163.52 E127.38650
G1 X145.96 Y163.15 E127.40505
G1 X145.33 Y162.74 E127.42375
G1 X144.74 Y162.29 E127.44236
G1 X144.16 Y161.81 E127.46107
G1 X143.62 Y161.29 E127.47973
G1 X143.10 Y160.74 E127.49856
G1 X142.63 Y160.17 E127.51719
G1 X142.19 Y159.57 E127.53566
G1 X141.79 Y158.94 E127.55420
G1 X141.42 Y158.28 E127.57315
G1 X141.09 Y157.61 E127.59182
G1 X140.81 Y156.92 E127.61046
G1 X140.57 Y156.22 E127.62882
G1 X140.37 Y155.49 E127.64778
G1 X140.21 Y154.76 E127.66643
G1 X140.09 Y154.02 E127.68510
G1 X140.03 Y153.29 E127.70347
G1 X140.00 Y152.53 E127.72236
G1 X140.00 Y152.47 E127.72378
G1 X140.02 Y151.78 E127.74100
G1 X140.09 Y151.05 E127.75938
G1 X140.19 Y150.31 E127.77804
G1 X140.35 Y149.58 E127.79667
G1 X140.55 Y148.84 E127.81565
G1 X140.78 Y148.15 E127.83400
G1 X141.07 Y147.44 E127.85295
G1 X141.39 Y146.78 E127.87132
G1 X141.75 Y146.12 E127.88997
G1 X142.16 Y145.48 E127.90894
G1 X142.59 Y144.89 E127.92729
G1 X143.06 Y144.31 E127.94590
G1 X143.58 Y143.75 E127.96488
G1 X144.11 Y143.24 E127.98325
G1 X144.68 Y142.75 E128.00205
G1 X145.27 Y142.30 E128.02056
G1 X145.91 Y141.88 E128.03951
G1 X146.55 Y141.51 E128.05801
G1 X147.22 Y141.17 E128.07672
G1 X147.91 Y140.88 E128.09549
G1 X148.60 Y140.63 E128.11384
G1 X149.32 Y140.41 E128.13269
G1 X150.06 Y140.24 E128.15143
G1 X150.78 Y140.12 E128.16980
G1 X151.53 Y140.04 E128.18854
G1 X152.29 Y140.00 E128.20742
G1 X152.34 Y140.00 E128.20887
G1 X153.03 Y140.01 E128.22601
G1 X153.77 Y140.06 E128.24446
G1 X154.51 Y140.16 E128.26324
G1 X155.24 Y140.31 E128.28171
G1 X155.98 Y140.49 E128.30067
G1 X156.68 Y140.72 E128.31901
G1 X157.38 Y140.99 E128.33768
G1 X158.06 Y141.31 E128.35663
G1 X158.72 Y141.66 E128.37501
G1 X159.35 Y142.05 E128.39364
G1 X159.97 Y142.48 E128.41259
G1 X160.56 Y142.95 E128.43126
G1 X161.11 Y143.44 E128.44960
G1 X161.64 Y143.98 E128.46856
G1 X162.13 Y144.53 E128.48691
G1 X162.59 Y145.13 E128.50588
G1 X163.01 Y145.74 E128.52421
G1 X163.40 Y146.39 E128.54318
G1 X163.75 Y147.05 E128.56185
G1 X164.05 Y147.72 E128.58019
G1 X164.32 Y148.43 E128.59915
G1 X164.54 Y149.14 E128.61752
G1 X164.72 Y149.86 E128.63615
G1 X164.85 Y150.60 E128.65482
G1 X164.94 Y151.34 E128.67349
G1 X164.99 Y152.10 E128.69244
G1 X165.00 Y152.83 E128.71072
G1 X164.95 Y153.58 E128.72941
G1 X164.86 Y154.33 E128.74832
G1 X164.73 Y155.07 E128.76703
G1 X164.56 Y155.79 E128.78537
G1 X164.34 Y156.50 E128.80402
G1 X164.08 Y157.20 E128.82270
G1 X163.78 Y157.89 E128.84135
G1 X163.43 Y158.56 E128.86030
G1 X163.05 Y159.19 E128.87867
G1 X162.63 Y159.81 E128.89732
G1 X162.17 Y160.42 E128.91626
G1 X161.69 Y160.97 E128.93464
G1 X161.16 Y161.51 E128.95358
G1 X160.61 Y162.01 E128.97193
G1 X160.03 Y162.48 E128.99060
G1 X159.41 Y162.91 E129.00949
G1 X158.78 Y163.30 E129.02790
G1 X158.12 Y163.66 E129.04674
G1 X157.44 Y163.98 E129.06541
G1 X156.75 Y164.25 E129.08400
G1 X156.03 Y164.49 E129.10273
G1 X155.31 Y164.68 E129.12143
G1 X154.58 Y164.82 E129.13998
G1 X153.84 Y164.93 E129.15874
G0 F12000 X153.81 Y164.38
;TYPE:FILL
G1 F2820 X164.38 Y153.82 E129.53152
G0 F12000 X164.43 Y153.20
G1 F2820 X153.20 Y164.43 E129.92783
G0 F12000 X152.61 Y164.45
G1 F2820 X164.45 Y152.61 E130.34543
G0 F12000 X164.45 Y152.05
G1 F2820 X152.06 Y164.44 E130.78252
G0 F12000 X151.52 Y164.42
G1 F2820 X164.41 Y151.52 E131.23742
G0 F12000 X164.36 Y151.01
G1 F2820 X151.01 Y164.36 E131.70843
G0 F12000 X150.51 Y164.29
G1 F2820 X164.29 Y150.52 E132.19428
G0 F12000 X164.20 Y150.04
G1 F2820 X150.04 Y164.20 E132.69384
G0 F12000 X149.58 Y164.09
G1 F2820 X164.09 Y149.58 E133.20583
G0 F12000 X163.97 Y149.13
G1 F2820 X157.47 Y155.64 E133.43522
G0 F12000 X158.01 Y154.53
G1 F2820 X163.84 Y148.70 E133.64068
G0 F12000 X163.69 Y148.29
G1 F2820 X158.25 Y153.73 E133.83259
G0 F12000 X158.35 Y153.06
G1 F2820 X163.53 Y147.88 E134.01533
G0 F12000 X163.35 Y147.49
G1 F2820 X158.37 Y152.47 E134.19098
G0 F12000 X158.35 Y151.93
G1 F2820 X163.17 Y147.11 E134.36107
G0 F12000 X162.97 Y146.74
G1 F2820 X158.28 Y151.43 E134.52672
G0 F12000 X158.18 Y150.97
G1 F2820 X162.76 Y146.38 E134.68864
G0 F12000 X162.55 Y146.03
G1 F2820 X158.04 Y150.54 E134.84778
G0 F12000 X157.88 Y150.13
G1 F2820 X162.32 Y145.69 E135.00439
G0 F12000 X162.09 Y145.36
G1 F2820 X157.69 Y149.76 E135.15944
G0 F12000 X157.49 Y149.40
G1 F2820 X161.84 Y145.04 E135.31297
G0 F12000 X161.59 Y144.73
G1 F2820 X157.26 Y149.06 E135.46544
G0 F12000 X157.01 Y148.74
G1 F2820 X161.32 Y144.43 E135.61738
G0 F12000 X161.04 Y144.14
G1 F2820 X156.75 Y148.44 E135.76900
G0 F12000 X156.46 Y148.16
G1 F2820 X160.76 Y143.86 E135.92078
G0 F12000 X160.47 Y143.59
G1 F2820 X156.16 Y147.90 E136.07287
G0 F12000 X155.83 Y147.66
G1 F2820 X160.17 Y143.32 E136.22592
G0 F12000 X159.85 Y143.07
G1 F2820 X155.48 Y147.44 E136.38001
G0 F12000 X155.12 Y147.24
G1 F2820 X159.53 Y142.83 E136.53562
G0 F12000 X159.20 Y142.59
G1 F2820 X154.72 Y147.07 E136.69360
G0 F12000 X154.32 Y146.91
G1 F2820 X158.85 Y142.37 E136.85354
G0 F12000 X158.50 Y142.16
G1 F2820 X153.87 Y146.79 E137.01688
G0 F12000 X153.40 Y146.69
G1 F2820 X158.14 Y141.96 E137.18385
G0 F12000 X157.77 Y141.76
G1 F2820 X152.89 Y146.64 E137.35579
G0 F12000 X152.34 Y146.63
G1 F2820 X157.38 Y141.59 E137.53363
G0 F12000 X156.98 Y141.42
G1 F2820 X151.72 Y146.68 E137.71915
G0 F12000 X151.02 Y146.81
G1 F2820 X156.57 Y141.26 E137.91509
G0 F12000 X156.15 Y141.12
G1 F2820 X150.16 Y147.11 E138.12649
G0 F12000 X148.59 Y148.11
G1 F2820 X155.72 Y140.98 E138.37777
G0 F12000 X155.27 Y140.87
G1 F2820 X140.87 Y155.26 E138.88566
G0 F12000 X140.99 Y155.71
G1 F2820 X148.10 Y148.60 E139.13645
G0 F12000 X147.12 Y150.15
G1 F2820 X141.12 Y156.15 E139.34817
G0 F12000 X141.26 Y156.57
G1 F2820 X146.81 Y151.02 E139.54405
G0 F12000 X146.67 Y151.72
G1 F2820 X141.42 Y156.98 E139.72944
G0 F12000 X141.58 Y157.38
G1 F2820 X146.62 Y152.34 E139.90722
G0 F12000 X146.64 Y152.89
G1 F2820 X141.77 Y157.76 E140.07900
G0 F12000 X141.96 Y158.14
G1 F2820 X146.69 Y153.40 E140.24604
G0 F12000 X146.79 Y153.87
G1 F2820 X142.16 Y158.50 E140.40941
G0 F12000 X142.38 Y158.85
G1 F2820 X146.92 Y154.31 E140.56979
G0 F12000 X147.06 Y154.73
G1 F2820 X142.60 Y159.20 E140.72727
G0 F12000 X142.83 Y159.53
G1 F2820 X147.24 Y155.12 E140.88259
G0 F12000 X147.44 Y155.48
G1 F2820 X143.07 Y159.85 E141.03670
G0 F12000 X143.33 Y160.16
G1 F2820 X147.66 Y155.83 E141.18953
G0 F12000 X147.90 Y156.16
G1 F2820 X143.59 Y160.47 E141.34156
G0 F12000 X143.86 Y160.76
G1 F2820 X148.17 Y156.45 E141.49355
G0 F12000 X148.44 Y156.74
G1 F2820 X144.14 Y161.04 E141.64535
G0 F12000 X144.43 Y161.32
G1 F2820 X148.74 Y157.01 E141.79733
G0 F12000 X149.06 Y157.26
G1 F2820 X144.73 Y161.59 E141.94985
G0 F12000 X145.04 Y161.84
G1 F2820 X149.39 Y157.49 E142.10343
G0 F12000 X149.76 Y157.69
G1 F2820 X145.36 Y162.09 E142.25848
G0 F12000 X145.69 Y162.33
G1 F2820 X150.14 Y157.88 E142.41539
G0 F12000 X150.54 Y158.04
G1 F2820 X146.03 Y162.55 E142.57449
G0 F12000 X146.38 Y162.77
G1 F2820 X150.97 Y158.17 E142.73656
G0 F12000 X151.43 Y158.28
G1 F2820 X146.74 Y162.97 E142.90217
G0 F12000 X147.11 Y163.17
G1 F2820 X151.93 Y158.35 E143.07224
G0 F12000 X152.47 Y158.38
G1 F2820 X147.49 Y163.36 E143.24795
G0 F12000 X147.88 Y163.53
G1 F2820 X153.06 Y158.34 E143.43070
G0 F12000 X153.73 Y158.25
G1 F2820 X148.29 Y163.69 E143.62265
G0 F12000 X148.70 Y163.84
G1 F2820 X154.54 Y158.00 E143.82846
G0 F12000 X155.65 Y157.46
G1 F2820 X149.13 Y163.97 E144.05817
G0 F12000 X154.47 Y164.29
G1 F2820 X164.29 Y154.47 E144.40454
G0 F12000 X164.15 Y155.18
G1 F2820 X155.18 Y164.15 E144.72107
G0 F12000 X155.95 Y163.95
G1 F2820 X163.94 Y155.95 E145.00324
G0 F12000 X163.65 Y156.81
G1 F2820 X156.81 Y163.65 E145.24450
G0 F12000 X157.81 Y163.21
G1 F2820 X163.20 Y157.82 E145.43462
G0 F12000 X162.41 Y159.18
G1 F2820 X159.17 Y162.42 E145.54895
G0 F12000 X140.77 Y154.80
G1 F2820 X154.80 Y140.77 E146.04393
G0 F12000 X154.32 Y140.68
G1 F2820 X140.69 Y154.32 E146.52498
G0 F12000 X140.62 Y153.82
G1 F2820 X153.82 Y140.62 E146.99087
G0 F12000 X153.30 Y140.57
G1 F2820 X140.57 Y153.30 E147.44005
G0 F12000 X140.55 Y152.76
G1 F2820 X152.76 Y140.55 E147.87075
G0 F12000 X152.19 Y140.55
G1 F2820 X140.55 Y152.19 E148.28156
G0 F12000 X140.58 Y151.60
G1 F2820 X151.60 Y140.58 E148.67036
G0 F12000 X150.97 Y140.64
G1 F2820 X140.64 Y150.97 E149.03460
G0 F12000 X140.75 Y150.30
G1 F2820 X150.29 Y140.75 E149.37136
G0 F12000 X149.57 Y140.91
G1 F2820 X140.91 Y149.57 E149.67681
G0 F12000 X141.14 Y148.77
G1 F2820 X148.78 Y141.13 E149.94625
G0 F12000 X147.87 Y141.48
G1 F2820 X141.48 Y147.87 E150.17167
G0 F12000 X142.00 Y146.78
G1 F2820 X146.79 Y142.00 E150.34042
G0 F12000 X145.13 Y143.08
G1 F2820 X143.07 Y145.14 E150.41309
;LAYER:2
G0 F12000 X142.90 Y145.14 Z0.55
;TYPE:WALL-INNER
G1 F3900 X143.35 Y144.58 E150.43120
G1 X143.85 Y144.04 E150.44954
G1 X144.37 Y143.54 E150.46732
G1 X144.91 Y143.07 E150.48535
G1 X145.50 Y142.63 E150.50375
G1 X146.09 Y142.24 E150.52136
G1 X146.72 Y141.87 E150.53958
G1 X147.37 Y141.54 E150.55774
G1 X148.05 Y141.25 E150.57612
G1 X148.71 Y141.01 E150.59376
G1 X149.41 Y140.80 E150.61197
G1 X150.12 Y140.64 E150.62998
G1 X150.83 Y140.52 E150.64802
G1 X151.54 Y140.44 E150.66599
G1 X152.27 Y140.40 E150.68417
G1 X152.36 Y140.40 E150.68644
G1 X153.00 Y140.41 E150.70235
G1 X153.71 Y140.46 E150.71999
G1 X154.44 Y140.56 E150.73835
G1 X155.15 Y140.69 E150.75641
G1 X155.85 Y140.87 E150.77444
G1 X156.54 Y141.10 E150.79268
G1 X157.21 Y141.36 E150.81053
G1 X157.86 Y141.65 E150.82825
G1 X158.51 Y142.00 E150.84673
G1 X159.13 Y142.38 E150.86482
G1 X159.72 Y142.79 E150.88268
G1 X160.28 Y143.24 E150.90075
G1 X160.82 Y143.72 E150.91870
G1 X161.34 Y144.24 E150.93701
G1 X161.81 Y144.77 E150.95474
G1 X162.26 Y145.35 E150.97315
G1 X162.66 Y145.94 E150.99087
G1 X163.04 Y146.57 E151.00915
G1 X163.38 Y147.22 E151.02741
G1 X163.68 Y147.86 E151.04514
G1 X163.93 Y148.54 E151.06323
G1 X164.15 Y149.24 E151.08160
G1 X164.32 Y149.93 E151.09928
G1 X164.46 Y150.67 E151.11796
G1 X164.54 Y151.35 E151.13512
G1 X164.59 Y152.10 E151.15374
G1 X164.59 Y152.81 E151.17166
G1 X164.55 Y153.54 E151.18970
G1 X164.47 Y154.25 E151.20765
G1 X164.34 Y154.98 E151.22612
G1 X164.18 Y155.66 E151.24364
G1 X163.97 Y156.36 E151.26189
G1 X163.71 Y157.05 E151.28009
G1 X163.42 Y157.71 E151.29813
G1 X163.09 Y158.35 E151.31605
G1 X162.72 Y158.97 E151.33417
G1 X162.31 Y159.57 E151.35226
G1 X161.88 Y160.15 E151.37032
G1 X161.40 Y160.69 E151.38836
G1 X160.90 Y161.21 E151.40642
G1 X160.37 Y161.69 E151.42417
G1 X159.79 Y162.15 E151.44258
G1 X159.20 Y162.57 E151.46078
G1 X158.60 Y162.95 E151.47847
G1 X157.94 Y163.30 E151.49696
G1 X157.31 Y163.60 E151.51444
G1 X156.63 Y163.87 E151.53277
G1 X155.93 Y164.10 E151.55122
G1 X155.23 Y164.29 E151.56914
G1 X154.53 Y164.43 E151.58695
G1 X153.81 Y164.53 E151.60501
G1 X153.09 Y164.58 E151.62297
G1 X152.37 Y164.60 E151.64099
G1 X151.64 Y164.57 E151.65936
G1 X150.92 Y164.50 E151.67739
G1 X150.22 Y164.38 E151.69498
G1 X149.50 Y164.22 E151.71338
G1 X148.81 Y164.02 E151.73148
G1 X148.13 Y163.78 E151.74939
G1 X147.45 Y163.49 E151.76783
G1 X146.82 Y163.18 E151.78538
G1 X146.17 Y162.81 E151.80390
G1 X145.57 Y162.42 E151.82169
G1 X145.00 Y162.00 E151.83943
G1 X144.43 Y161.52 E151.85805
G1 X143.92 Y161.03 E151.87584
G1 X143.42 Y160.50 E151.89381
G1 X142.95 Y159.93 E151.91241
G1 X142.54 Y159.37 E151.92961
G1 X142.14 Y158.75 E151.94813
G1 X141.78 Y158.11 E151.96628
G1 X141.47 Y157.46 E151.98436
G1 X141.19 Y156.80 E152.00224
G1 X140.96 Y156.12 E152.02016
G1 X140.75 Y155.40 E152.03884
G1 X140.61 Y154.71 E152.05627
G1 X140.49 Y153.98 E152.07470
G1 X140.43 Y153.28 E152.09226
G1 X140.40 Y152.53 E152.11106
G1 X140.40 Y152.47 E152.11260
G1 X140.42 Y151.82 E152.12867
G1 X140.48 Y151.11 E152.14657
G1 X140.59 Y150.37 E152.16518
G1 X140.73 Y149.69 E152.18266
G1 X140.93 Y148.97 E152.20104
G1 X141.15 Y148.30 E152.21886
G1 X141.42 Y147.63 E152.23681
G1 X141.74 Y146.97 E152.25505
G1 X142.10 Y146.32 E152.27353
G1 X142.48 Y145.72 E152.29120
G1 X142.90 Y145.14 E152.30907
G0 F12000 X147.95 Y149.00
G1 F3900 X147.58 Y149.54 E152.32542
G1 X147.32 Y150.03 E152.33914
G1 X146.99 Y150.90 E152.36234
G1 X146.86 Y151.43 E152.37606
G1 X146.78 Y151.96 E152.38947
G1 X146.76 Y152.50 E152.40290
G1 X146.78 Y153.04 E152.41634
G1 X146.86 Y153.57 E152.42987
G1 X147.02 Y154.21 E152.44625
G1 X147.21 Y154.72 E152.45971
G1 X147.43 Y155.20 E152.47296
G1 X147.64 Y155.56 E152.48346
G1 X147.95 Y156.01 E152.49700
G1 X148.39 Y156.51 E152.51361
G1 X149.09 Y157.12 E152.53682
G1 X149.56 Y157.43 E152.55072
G1 X150.14 Y157.73 E152.56709
G1 X150.63 Y157.93 E152.58037
G1 X151.04 Y158.06 E152.59097
G1 X151.68 Y158.18 E152.60719
G1 X152.10 Y158.23 E152.61771
G1 X152.64 Y158.24 E152.63123
G1 X153.29 Y158.18 E152.64761
G1 X153.83 Y158.08 E152.66129
G1 X154.72 Y157.80 E152.68464
G1 X155.33 Y157.49 E152.70156
G1 X156.11 Y156.97 E152.72490
G1 X156.59 Y156.52 E152.74139
G1 X156.88 Y156.22 E152.75191
G1 X157.21 Y155.78 E152.76548
G1 X157.56 Y155.21 E152.78210
G1 X157.94 Y154.36 E152.80544
G1 X158.11 Y153.70 E152.82237
G1 X158.24 Y152.78 E152.84571
G1 X158.23 Y152.11 E152.86240
G1 X158.16 Y151.56 E152.87608
G1 X157.94 Y150.66 E152.89936
G1 X157.68 Y150.03 E152.91629
G1 X157.21 Y149.22 E152.93966
G1 X156.79 Y148.69 E152.95656
G1 X156.12 Y148.04 E152.97993
G1 X155.57 Y147.65 E152.99658
G1 X155.09 Y147.38 E153.01025
G1 X154.23 Y147.02 E153.03361
G1 X153.59 Y146.87 E153.05014
G1 X153.17 Y146.80 E153.06063
G1 X152.63 Y146.76 E153.07419
G1 X151.97 Y146.78 E153.09052
G1 X151.43 Y146.86 E153.10424
G1 X150.53 Y147.10 E153.12742
G1 X150.02 Y147.32 E153.14131
G1 X149.45 Y147.64 E153.15767
G1 X149.00 Y147.95 E153.17134
G1 X148.31 Y148.57 E153.19455
G1 X147.95 Y149.00 E153.20841
G0 F12000 X148.27 Y149.24
;TYPE:WALL-OUTER
G1 F3900 X147.92 Y149.75 E153.22371
G1 X147.68 Y150.19 E153.23630
G1 X147.37 Y151.01 E153.25821
G1 X147.25 Y151.50 E153.27081
G1 X147.18 Y152.00 E153.28328
G1 X147.16 Y152.50 E153.29577
G1 X147.18 Y153.00 E153.30825
G1 X147.25 Y153.50 E153.32078
G1 X147.41 Y154.09 E153.33610
G1 X147.58 Y154.56 E153.34860
G1 X147.98 Y155.35 E153.37068
G1 X148.27 Y155.76 E153.38320
G1 X148.68 Y156.23 E153.39862
G1 X149.34 Y156.81 E153.42052
G1 X149.76 Y157.09 E153.43319
G1 X150.31 Y157.37 E153.44849
G1 X150.77 Y157.55 E153.46094
G1 X151.14 Y157.67 E153.47062
G1 X151.74 Y157.78 E153.48590
G1 X152.12 Y157.83 E153.49557
G1 X152.63 Y157.84 E153.50807
G1 X153.24 Y157.79 E153.52342
G1 X153.73 Y157.69 E153.53598
G1 X154.57 Y157.43 E153.55794
G1 X155.13 Y157.15 E153.57344
G1 X155.86 Y156.66 E153.59538
G1 X156.31 Y156.24 E153.61074
G1 X156.57 Y155.96 E153.62041
G1 X156.88 Y155.56 E153.63296
G1 X157.20 Y155.03 E153.64837
G1 X157.56 Y154.22 E153.67032
G1 X157.72 Y153.62 E153.68582
G1 X157.84 Y152.75 E153.70774
G1 X157.83 Y152.13 E153.72319
G1 X157.77 Y151.63 E153.73577
G1 X157.56 Y150.78 E153.75766
G1 X157.32 Y150.21 E153.77318
G1 X156.88 Y149.44 E153.79514
G1 X156.49 Y148.96 E153.81065
G1 X155.86 Y148.35 E153.83260
G1 X155.36 Y147.99 E153.84801
G1 X154.92 Y147.74 E153.86059
G1 X154.10 Y147.40 E153.88254
G1 X153.51 Y147.26 E153.89792
G1 X153.12 Y147.19 E153.90758
G1 X152.62 Y147.16 E153.92011
G1 X152.01 Y147.18 E153.93541
G1 X151.51 Y147.25 E153.94800
G1 X150.66 Y147.48 E153.96987
G1 X150.20 Y147.68 E153.98253
G1 X149.66 Y147.98 E153.99783
G1 X149.25 Y148.27 E154.01041
G1 X148.59 Y148.85 E154.03232
G1 X148.27 Y149.24 E154.04497
G0 F12000 X148.04 Y149.05
G0 X142.82 Y145.08
G0 X142.58 Y144.90
G1 F3900 X143.06 Y144.31 E154.06389
G1 X143.56 Y143.77 E154.08227
G1 X144.10 Y143.24 E154.10123
G1 X144.66 Y142.76 E154.11958
G1 X145.27 Y142.31 E154.13853
G1 X145.88 Y141.90 E154.15688
G1 X146.53 Y141.52 E154.17567
G1 X147.20 Y141.18 E154.19422
G1 X147.89 Y140.88 E154.21317
G1 X148.59 Y140.63 E154.23150
G1 X149.31 Y140.42 E154.25036
G1 X150.04 Y140.25 E154.26906
G1 X150.77 Y140.12 E154.28748
G1 X151.52 Y140.04 E154.30625
G1 X152.27 Y140.00 E154.32511
G1 X152.36 Y140.00 E154.32735
G1 X153.02 Y140.01 E154.34369
G1 X153.75 Y140.06 E154.36212
G1 X154.50 Y140.16 E154.38089
G1 X155.23 Y140.30 E154.39939
G1 X155.96 Y140.49 E154.41831
G1 X156.67 Y140.72 E154.43696
G1 X157.36 Y140.99 E154.45535
G1 X158.04 Y141.30 E154.47401
G1 X158.71 Y141.65 E154.49295
G1 X159.35 Y142.04 E154.51162
G1 X159.96 Y142.47 E154.53009
G1 X160.55 Y142.94 E154.54889
G1 X161.10 Y143.43 E154.56728
G1 X161.63 Y143.97 E154.58623
G1 X162.12 Y144.52 E154.60457
G1 X162.59 Y145.12 E154.62355
G1 X163.01 Y145.73 E154.64217
G1 X163.39 Y146.37 E154.66056
G1 X163.74 Y147.04 E154.67951
G1 X164.04 Y147.71 E154.69786
G1 X164.31 Y148.41 E154.71654
G1 X164.54 Y149.13 E154.73549
G1 X164.71 Y149.85 E154.75384
G1 X164.85 Y150.59 E154.77279
G1 X164.94 Y151.32 E154.79114
G1 X164.99 Y152.08 E154.81011
G1 X165.00 Y152.82 E154.82842
G1 X164.95 Y153.56 E154.84708
G1 X164.87 Y154.32 E154.86597
G1 X164.74 Y155.06 E154.88469
G1 X164.56 Y155.77 E154.90303
G1 X164.35 Y156.49 E154.92170
G1 X164.08 Y157.20 E154.94056
G1 X163.79 Y157.87 E154.95898
G1 X163.44 Y158.55 E154.97795
G1 X163.06 Y159.18 E154.99632
G1 X162.64 Y159.80 E155.01497
G1 X162.18 Y160.40 E155.03392
G1 X161.70 Y160.96 E155.05227
G1 X161.17 Y161.50 E155.07122
G1 X160.62 Y162.00 E155.08958
G1 X160.04 Y162.47 E155.10825
G1 X159.43 Y162.90 E155.12689
G1 X158.80 Y163.30 E155.14558
G1 X158.13 Y163.66 E155.16452
G1 X157.46 Y163.97 E155.18287
G1 X156.76 Y164.25 E155.20165
G1 X156.04 Y164.49 E155.22051
G1 X155.32 Y164.68 E155.23908
G1 X154.60 Y164.82 E155.25756
G1 X153.85 Y164.93 E155.27642
G1 X153.12 Y164.98 E155.29481
G1 X152.37 Y165.00 E155.31352
G1 X151.61 Y164.97 E155.33230
G1 X150.87 Y164.89 E155.35103
G1 X150.14 Y164.77 E155.36940
G1 X149.40 Y164.61 E155.38827
G1 X148.69 Y164.40 E155.40670
G1 X147.97 Y164.15 E155.42564
G1 X147.29 Y163.86 E155.44413
G1 X146.63 Y163.53 E155.46268
G1 X145.97 Y163.16 E155.48165
G1 X145.35 Y162.75 E155.50012
G1 X144.75 Y162.31 E155.51862
G1 X144.17 Y161.82 E155.53758
G1 X143.63 Y161.31 E155.55595
G1 X143.12 Y160.76 E155.57491
G1 X142.64 Y160.18 E155.59355
G1 X142.20 Y159.58 E155.61202
G1 X141.79 Y158.95 E155.63086
G1 X141.43 Y158.30 E155.64929
G1 X141.10 Y157.63 E155.66787
G1 X140.81 Y156.93 E155.68683
G1 X140.57 Y156.24 E155.70517
G1 X140.37 Y155.50 E155.72413
G1 X140.21 Y154.78 E155.74252
G1 X140.10 Y154.03 E155.76145
G1 X140.03 Y153.30 E155.77986
G1 X140.00 Y152.54 E155.79876
G1 X140.00 Y152.46 E155.80090
G1 X140.02 Y151.80 E155.81737
G1 X140.08 Y151.06 E155.83575
G1 X140.19 Y150.32 E155.85438
G1 X140.35 Y149.58 E155.87334
G1 X140.54 Y148.86 E155.89203
G1 X140.78 Y148.16 E155.91038
G1 X141.06 Y147.47 E155.92903
G1 X141.39 Y146.78 E155.94799
G1 X141.74 Y146.14 E155.96632
G1 X142.15 Y145.50 E155.98529
G1 X142.58 Y144.90 E156.00366
G0 F12000 X143.11 Y145.09
;TYPE:FILL
G1 F3900 X147.47 Y149.45 E156.15740
G0 F12000 X147.70 Y149.11
G1 F3900 X143.37 Y144.78 E156.31022
G0 F12000 X143.63 Y144.48
G1 F3900 X147.94 Y148.79 E156.46218
G0 F12000 X148.20 Y148.48
G1 F3900 X143.90 Y144.19 E156.61375
G0 F12000 X144.19 Y143.91
G1 F3900 X148.50 Y148.21 E156.76566
G0 F12000 X148.79 Y147.95
G1 F3900 X144.48 Y143.63 E156.91788
G0 F12000 X144.78 Y143.37
G1 F3900 X149.11 Y147.70 E157.07063
G0 F12000 X149.45 Y147.47
G1 F3900 X145.09 Y143.11 E157.22444
G0 F12000 X145.41 Y142.87
G1 F3900 X149.82 Y147.27 E157.37970
G0 F12000 X150.20 Y147.09
G1 F3900 X145.75 Y142.64 E157.53679
G0 F12000 X146.09 Y142.41
G1 F3900 X150.61 Y146.94 E157.69646
G0 F12000 X151.06 Y146.81
G1 F3900 X146.44 Y142.20 E157.85937
G0 F12000 X146.80 Y141.99
G1 F3900 X151.51 Y146.71 E158.02578
G0 F12000 X152.02 Y146.64
G1 F3900 X147.17 Y141.80 E158.19663
G0 F12000 X147.56 Y141.62
G1 F3900 X152.56 Y146.62 E158.37314
G0 F12000 X153.16 Y146.65
G1 F3900 X147.95 Y141.45 E158.55688
G0 F12000 X148.36 Y141.29
G1 F3900 X153.86 Y146.79 E158.75087
G0 F12000 X154.70 Y147.06
G1 F3900 X148.77 Y141.14 E158.96000
G0 F12000 X149.21 Y141.01
G1 F3900 X155.95 Y147.75 E159.19782
G0 F12000 X157.28 Y149.08
G1 F3900 X163.99 Y155.79 E159.43450
G0 F12000 X163.86 Y156.22
G1 F3900 X157.95 Y150.31 E159.64308
G0 F12000 X158.20 Y151.13
G1 F3900 X163.71 Y156.64 E159.83757
G0 F12000 X163.56 Y157.05
G1 F3900 X158.33 Y151.83 E160.02186
G0 F12000 X158.37 Y152.43
G1 F3900 X163.38 Y157.44 E160.19871
G0 F12000 X163.20 Y157.83
G1 F3900 X158.35 Y152.98 E160.36980
G0 F12000 X158.28 Y153.47
G1 F3900 X163.01 Y158.20 E160.53654
G0 F12000 X162.80 Y158.56
G1 F3900 X158.19 Y153.95 E160.69930
G0 F12000 X158.07 Y154.39
G1 F3900 X162.59 Y158.91 E160.85882
G0 F12000 X162.36 Y159.25
G1 F3900 X157.90 Y154.79 E161.01635
G0 F12000 X157.72 Y155.18
G1 F3900 X162.13 Y159.58 E161.17173
G0 F12000 X161.88 Y159.91
G1 F3900 X157.52 Y155.54 E161.32569
G0 F12000 X157.30 Y155.89
G1 F3900 X161.63 Y160.22 E161.47832
G0 F12000 X161.37 Y160.52
G1 F3900 X157.06 Y156.21 E161.63029
G0 F12000 X156.79 Y156.51
G1 F3900 X161.09 Y160.81 E161.78193
G0 F12000 X160.81 Y161.09
G1 F3900 X156.51 Y156.79 E161.93382
G0 F12000 X156.21 Y157.06
G1 F3900 X160.52 Y161.37 E162.08564
G0 F12000 X160.22 Y161.63
G1 F3900 X155.88 Y157.29 E162.23869
G0 F12000 X155.54 Y157.52
G1 F3900 X159.90 Y161.88 E162.39261
G0 F12000 X159.58 Y162.13
G1 F3900 X155.18 Y157.72 E162.54795
G0 F12000 X154.80 Y157.91
G1 F3900 X159.25 Y162.36 E162.70494
G0 F12000 X158.91 Y162.59
G1 F3900 X154.38 Y158.06 E162.86482
G0 F12000 X153.95 Y158.19
G1 F3900 X158.56 Y162.80 E163.02754
G0 F12000 X158.20 Y163.00
G1 F3900 X153.48 Y158.29 E163.19389
G0 F12000 X152.98 Y158.35
G1 F3900 X157.83 Y163.20 E163.36506
G0 F12000 X157.44 Y163.38
G1 F3900 X152.44 Y158.38 E163.54169
G0 F12000 X151.83 Y158.34
G1 F3900 X157.05 Y163.55 E163.72565
G0 F12000 X156.64 Y163.71
G1 F3900 X151.15 Y158.22 E163.91953
G0 F12000 X150.31 Y157.95
G1 F3900 X156.22 Y163.86 E164.12795
G0 F12000 X155.79 Y163.99
G1 F3900 X149.08 Y157.28 E164.36461
G0 F12000 X147.73 Y155.93
G1 F3900 X141.01 Y149.21 E164.60170
G0 F12000 X141.14 Y148.78
G1 F3900 X147.04 Y154.68 E164.80998
G0 F12000 X146.79 Y153.86
G1 F3900 X141.28 Y148.35 E165.00422
G0 F12000 X141.44 Y147.95
G1 F3900 X146.66 Y153.16 E165.18815
G0 F12000 X146.62 Y152.56
G1 F3900 X141.61 Y147.55 E165.36470
G0 F12000 X141.80 Y147.17
G1 F3900 X146.64 Y152.01 E165.53559
G0 F12000 X146.70 Y151.51
G1 F3900 X141.99 Y146.80 E165.70183
G0 F12000 X142.19 Y146.44
G1 F3900 X146.81 Y151.05 E165.86453
G0 F12000 X146.94 Y150.62
G1 F3900 X142.41 Y146.09 E166.02445
G0 F12000 X142.63 Y145.74
G1 F3900 X147.10 Y150.21 E166.18209
G0 F12000 X147.27 Y149.82
G1 F3900 X142.87 Y145.41 E166.33743
G0 F12000 X140.89 Y149.65
G1 F3900 X155.34 Y164.11 E166.84741
G0 F12000 X154.88 Y164.21
G1 F3900 X140.78 Y150.12 E167.34457
G0 F12000 X140.70 Y150.60
G1 F3900 X154.40 Y164.30 E167.82805
G0 F12000 X153.91 Y164.37
G1 F3900 X140.62 Y151.09 E168.29661
G0 F12000 X140.58 Y151.61
G1 F3900 X153.39 Y164.42 E168.74852
G0 F12000 X152.85 Y164.45
G1 F3900 X140.55 Y152.15 E169.18244
G0 F12000 X140.55 Y152.71
G1 F3900 X152.29 Y164.45 E169.59670
G0 F12000 X151.70 Y164.43
G1 F3900 X140.57 Y153.29 E169.98948
G0 F12000 X140.63 Y153.92
G1 F3900 X151.07 Y164.37 E170.35810
G0 F12000 X150.41 Y164.27
G1 F3900 X140.73 Y154.59 E170.69973
G0 F12000 X140.88 Y155.30
G1 F3900 X149.69 Y164.12 E171.01084
G0 F12000 X148.91 Y163.90
G1 F3900 X141.09 Y156.08 E171.28673
G0 F12000 X141.41 Y156.97
G1 F3900 X148.03 Y163.59 E171.52018
G0 F12000 X146.98 Y163.10
G1 F3900 X141.89 Y158.01 E171.69985
G0 F12000 X142.81 Y159.50
G1 F3900 X145.51 Y162.20 E171.79517
G0 F12000 X164.11 Y155.34
G1 F3900 X149.66 Y140.89 E172.30504
G0 F12000 X150.12 Y140.78
G1 F3900 X164.22 Y154.88 E172.80248
G0 F12000 X164.30 Y154.40
G1 F3900 X150.60 Y140.70 E173.28590
G0 F12000 X151.09 Y140.63
G1 F3900 X164.37 Y153.90 E173.75421
G0 F12000 X164.42 Y153.39
G1 F3900 X151.61 Y140.58 E174.20626
G0 F12000 X152.15 Y140.55
G1 F3900 X164.45 Y152.85 E174.64034
G0 F12000 X164.45 Y152.29
G1 F3900 X152.71 Y140.55 E175.05457
G0 F12000 X153.30 Y140.57
G1 F3900 X164.42 Y151.70 E175.44700
G0 F12000 X164.37 Y151.07
G1 F3900 X153.92 Y140.63 E175.81544
G0 F12000 X154.59 Y140.73
G1 F3900 X164.27 Y150.41 E176.15693
G0 F12000 X164.12 Y149.69
G1 F3900 X155.30 Y140.88 E176.46788
G0 F12000 X156.09 Y141.10
G1 F3900 X163.90 Y148.91 E176.74349
G0 F12000 X163.59 Y148.03
G1 F3900 X156.97 Y141.41 E176.97701
G0 F12000 X158.02 Y141.90
G1 F3900 X163.10 Y146.98 E177.15629
G0 F12000 X162.20 Y145.51
G1 F3900 X159.49 Y142.80 E177.25180
G1 F2400 E176.05180
G0 F12000 X154.44 Y169.95
;TYPE:WALL-INNER
G1 F2400 E177.25180
G1 F3900 X155.15 Y170.09 E177.26987
G1 X155.85 Y170.27 E177.28789
G1 X156.54 Y170.49 E177.30597
G1 X157.20 Y170.75 E177.32375
G1 X157.87 Y171.06 E177.34210
G1 X158.51 Y171.40 E177.36030
G1 X159.12 Y171.77 E177.37813
G1 X159.72 Y172.19 E177.39612
G1 X160.28 Y172.63 E177.41420
G1 X160.82 Y173.11 E177.43215
G1 X161.34 Y173.63 E177.45046
G1 X161.81 Y174.17 E177.46818
G1 X162.25 Y174.74 E177.48626
G1 X162.68 Y175.36 E177.50499
G1 X163.03 Y175.95 E177.52213
G1 X163.38 Y176.60 E177.54069
G1 X163.68 Y177.26 E177.55859
G1 X163.93 Y177.94 E177.57667
G1 X164.15 Y178.64 E177.59504
G1 X164.32 Y179.33 E177.61273
G1 X164.46 Y180.06 E177.63140
G1 X164.54 Y180.75 E177.64857
G1 X164.59 Y181.49 E177.66719
G1 X164.59 Y182.21 E177.68515
G1 X164.55 Y182.93 E177.70317
G1 X164.47 Y183.65 E177.72112
G1 X164.34 Y184.38 E177.73959
G1 X164.18 Y185.06 E177.75711
G1 X163.97 Y185.76 E177.77536
G1 X163.71 Y186.44 E177.79356
G1 X163.42 Y187.11 E177.81160
G1 X163.09 Y187.75 E177.82952
G1 X162.72 Y188.37 E177.84764
G1 X162.31 Y188.97 E177.86575
G1 X161.88 Y189.54 E177.88356
G1 X161.39 Y190.10 E177.90209
G1 X160.90 Y190.60 E177.91961
G1 X160.35 Y191.10 E177.93819
G1 X159.80 Y191.54 E177.95577
G1 X159.20 Y191.97 E177.97425
G1 X158.60 Y192.35 E177.99194
G1 X157.94 Y192.70 E178.01043
G1 X157.31 Y193.00 E178.02792
G1 X156.63 Y193.27 E178.04625
G1 X155.93 Y193.50 E178.06469
G1 X155.23 Y193.68 E178.08261
G1 X154.53 Y193.82 E178.10042
G1 X153.81 Y193.92 E178.11848
G1 X153.09 Y193.98 E178.13645
G1 X152.37 Y194.00 E178.15446
G1 X151.64 Y193.97 E178.17283
G1 X150.92 Y193.89 E178.19086
G1 X150.22 Y193.78 E178.20845
G1 X149.50 Y193.62 E178.22686
G1 X148.81 Y193.42 E178.24495
G1 X148.13 Y193.18 E178.26286
G1 X147.45 Y192.89 E178.28130
G1 X146.82 Y192.58 E178.29885
G1 X146.17 Y192.21 E178.31738
G1 X145.57 Y191.82 E178.33516
G1 X145.00 Y191.39 E178.35317
G1 X144.45 Y190.93 E178.37093
G1 X143.91 Y190.41 E178.38960
G1 X143.41 Y189.89 E178.40760
G1 X142.97 Y189.35 E178.42514
G1 X142.53 Y188.76 E178.44340
G1 X142.14 Y188.14 E178.46161
G1 X141.78 Y187.51 E178.47976
G1 X141.47 Y186.86 E178.49784
G1 X141.19 Y186.19 E178.51596
G1 X140.96 Y185.51 E178.53364
G1 X140.75 Y184.79 E178.55229
G1 X140.61 Y184.11 E178.56974
G1 X140.49 Y183.38 E178.58818
G1 X140.43 Y182.68 E178.60574
G1 X140.40 Y181.93 E178.62453
G1 X140.40 Y181.87 E178.62608
G1 X140.42 Y181.22 E178.64218
G1 X140.48 Y180.50 E178.66008
G1 X140.59 Y179.77 E178.67869
G1 X140.73 Y179.08 E178.69617
G1 X140.93 Y178.37 E178.71454
G1 X141.15 Y177.69 E178.73236
G1 X141.42 Y177.03 E178.75031
G1 X141.74 Y176.37 E178.76856
G1 X142.10 Y175.72 E178.78704
G1 X142.48 Y175.12 E178.80470
G1 X142.90 Y174.54 E178.82257
G1 X143.35 Y173.98 E178.84067
G1 X143.85 Y173.44 E178.85901
G1 X144.37 Y172.94 E178.87680
G1 X144.92 Y172.46 E178.89507
G1 X145.50 Y172.03 E178.91297
G1 X146.09 Y171.63 E178.93085
G1 X146.72 Y171.27 E178.94906
G1 X147.38 Y170.94 E178.96739
G1 X148.04 Y170.65 E178.98530
G1 X148.72 Y170.40 E179.00339
G1 X149.41 Y170.20 E179.02145
G1 X150.10 Y170.04 E179.03912
G1 X150.84 Y169.91 E179.05782
G1 X151.55 Y169.84 E179.07551
G1 X152.27 Y169.80 E179.09364
G1 X152.36 Y169.80 E179.09591
G1 X153.00 Y169.81 E179.11183
G1 X153.71 Y169.86 E179.12946
G1 X154.44 Y169.95 E179.14783
G0 F12000 X153.59 Y176.26
G1 F3900 X153.17 Y176.19 E179.15829
G1 X152.63 Y176.15 E179.17188
G1 X151.97 Y176.18 E179.18823
G1 X151.44 Y176.26 E179.20170
G1 X150.92 Y176.38 E179.21509
G1 X150.41 Y176.55 E179.22838
G1 X150.02 Y176.72 E179.23899
G1 X149.45 Y177.04 E179.25535
G1 X149.00 Y177.35 E179.26902
G1 X148.31 Y177.97 E179.29223
G1 X147.95 Y178.40 E179.30609
G1 X147.58 Y178.94 E179.32245
G1 X147.32 Y179.42 E179.33617
G1 X146.99 Y180.29 E179.35937
G1 X146.86 Y180.83 E179.37309
G1 X146.78 Y181.36 E179.38649
G1 X146.76 Y181.90 E179.39996
G1 X146.78 Y182.44 E179.41339
G1 X146.86 Y182.97 E179.42695
G1 X147.02 Y183.61 E179.44333
G1 X147.21 Y184.12 E179.45677
G1 X147.43 Y184.59 E179.47001
G1 X147.65 Y184.97 E179.48064
G1 X148.03 Y185.50 E179.49725
G1 X148.68 Y186.19 E179.52060
G1 X149.21 Y186.60 E179.53727
G1 X149.66 Y186.88 E179.55058
G1 X150.03 Y187.08 E179.56118
G1 X150.63 Y187.32 E179.57739
G1 X151.04 Y187.45 E179.58802
G1 X151.68 Y187.58 E179.60424
G1 X152.10 Y187.63 E179.61476
G1 X152.64 Y187.64 E179.62828
G1 X153.29 Y187.58 E179.64466
G1 X153.83 Y187.48 E179.65836
G1 X154.72 Y187.19 E179.68169
G1 X155.33 Y186.89 E179.69861
G1 X156.11 Y186.37 E179.72196
G1 X156.59 Y185.92 E179.73845
G1 X156.88 Y185.61 E179.74896
G1 X157.21 Y185.18 E179.76254
G1 X157.56 Y184.61 E179.77916
G1 X157.94 Y183.76 E179.80248
G1 X158.11 Y183.10 E179.81943
G1 X158.24 Y182.17 E179.84276
G1 X158.23 Y181.50 E179.85945
G1 X158.16 Y180.96 E179.87314
G1 X157.94 Y180.05 E179.89644
G1 X157.68 Y179.43 E179.91337
G1 X157.21 Y178.61 E179.93674
G1 X156.79 Y178.08 E179.95364
G1 X156.12 Y177.43 E179.97701
G1 X155.56 Y177.04 E179.99391
G1 X154.74 Y176.60 E180.01723
G1 X154.10 Y176.39 E180.03392
G1 X153.59 Y176.26 E180.04721
G0 F12000 X153.12 Y176.59
;TYPE:WALL-OUTER
G1 F3900 X152.62 Y176.56 E180.05976
G1 X152.01 Y176.58 E180.07506
G1 X151.51 Y176.65 E180.08758
G1 X151.03 Y176.76 E180.10004
G1 X150.55 Y176.92 E180.11249
G1 X150.20 Y177.07 E180.12218
G1 X149.66 Y177.38 E180.13748
G1 X149.25 Y177.66 E180.15006
G1 X148.59 Y178.25 E180.17197
G1 X148.27 Y178.64 E180.18462
G1 X147.92 Y179.15 E180.19992
G1 X147.68 Y179.59 E180.21251
G1 X147.37 Y180.41 E180.23442
G1 X147.25 Y180.90 E180.24702
G1 X147.18 Y181.40 E180.25949
G1 X147.16 Y181.90 E180.27200
G1 X147.18 Y182.40 E180.28449
G1 X147.25 Y182.90 E180.29704
G1 X147.41 Y183.49 E180.31236
G1 X147.58 Y183.96 E180.32484
G1 X147.79 Y184.41 E180.33726
G1 X147.98 Y184.75 E180.34697
G1 X148.34 Y185.25 E180.36238
G1 X148.95 Y185.89 E180.38432
G1 X149.44 Y186.27 E180.39976
G1 X149.86 Y186.54 E180.41222
G1 X150.20 Y186.72 E180.42188
G1 X150.77 Y186.95 E180.43718
G1 X151.14 Y187.06 E180.44687
G1 X151.74 Y187.18 E180.46215
G1 X152.12 Y187.23 E180.47182
G1 X152.63 Y187.24 E180.48432
G1 X153.24 Y187.19 E180.49966
G1 X153.73 Y187.09 E180.51223
G1 X154.57 Y186.82 E180.53418
G1 X155.13 Y186.54 E180.54969
G1 X155.86 Y186.05 E180.57163
G1 X156.31 Y185.64 E180.58699
G1 X156.57 Y185.35 E180.59666
G1 X156.88 Y184.95 E180.60920
G1 X157.20 Y184.43 E180.62462
G1 X157.56 Y183.62 E180.64654
G1 X157.72 Y183.02 E180.66207
G1 X157.84 Y182.15 E180.68399
G1 X157.83 Y181.53 E180.69944
G1 X157.77 Y181.03 E180.71202
G1 X157.56 Y180.18 E180.73393
G1 X157.32 Y179.60 E180.74945
G1 X156.88 Y178.84 E180.77141
G1 X156.49 Y178.35 E180.78692
G1 X155.86 Y177.74 E180.80887
G1 X155.35 Y177.38 E180.82437
G1 X154.58 Y176.97 E180.84630
G1 X153.99 Y176.77 E180.86174
G1 X153.12 Y176.59 E180.88381
G0 F12000 X153.15 Y176.29
G0 X153.73 Y169.76
G0 X153.75 Y169.46
G1 F3900 X154.50 Y169.56 E180.90257
G1 X155.23 Y169.70 E180.92107
G1 X155.96 Y169.89 E180.94000
G1 X156.67 Y170.11 E180.95854
G1 X157.36 Y170.38 E180.97704
G1 X158.04 Y170.69 E180.99569
G1 X158.71 Y171.05 E181.01463
G1 X159.35 Y171.44 E181.03328
G1 X159.96 Y171.87 E181.05177
G1 X160.55 Y172.33 E181.07057
G1 X161.10 Y172.82 E181.08896
G1 X161.63 Y173.36 E181.10791
G1 X162.12 Y173.91 E181.12625
G1 X162.59 Y174.51 E181.14523
G1 X163.01 Y175.13 E181.16387
G1 X163.39 Y175.76 E181.18224
G1 X163.74 Y176.43 E181.20119
G1 X164.04 Y177.10 E181.21954
G1 X164.31 Y177.81 E181.23822
G1 X164.54 Y178.53 E181.25716
G1 X164.71 Y179.24 E181.27551
G1 X164.85 Y179.99 E181.29447
G1 X164.94 Y180.72 E181.31282
G1 X164.99 Y181.48 E181.33179
G1 X165.00 Y182.22 E181.35015
G1 X164.95 Y182.96 E181.36879
G1 X164.87 Y183.71 E181.38767
G1 X164.74 Y184.45 E181.40639
G1 X164.56 Y185.17 E181.42473
G1 X164.35 Y185.88 E181.44340
G1 X164.08 Y186.59 E181.46227
G1 X163.79 Y187.27 E181.48069
G1 X163.44 Y187.94 E181.49965
G1 X163.06 Y188.58 E181.51803
G1 X162.64 Y189.20 E181.53669
G1 X162.18 Y189.80 E181.55564
G1 X161.70 Y190.36 E181.57398
G1 X161.18 Y190.89 E181.59264
G1 X160.61 Y191.40 E181.61163
G1 X160.04 Y191.86 E181.62995
G1 X159.43 Y192.30 E181.64859
G1 X158.80 Y192.69 E181.66728
G1 X158.13 Y193.06 E181.68623
G1 X157.46 Y193.37 E181.70457
G1 X156.76 Y193.65 E181.72336
G1 X156.04 Y193.88 E181.74221
G1 X155.32 Y194.07 E181.76079
G1 X154.60 Y194.22 E181.77926
G1 X153.85 Y194.32 E181.79813
G1 X153.12 Y194.38 E181.81652
G1 X152.37 Y194.40 E181.83523
G1 X151.61 Y194.37 E181.85400
G1 X150.87 Y194.29 E181.87273
G1 X150.14 Y194.17 E181.89111
G1 X149.40 Y194.01 E181.90997
G1 X148.69 Y193.80 E181.92841
G1 X147.97 Y193.55 E181.94735
G1 X147.29 Y193.26 E181.96584
G1 X146.63 Y192.93 E181.98439
G1 X145.97 Y192.55 E182.00335
G1 X145.35 Y192.15 E182.02182
G1 X144.75 Y191.70 E182.04033
G1 X144.18 Y191.22 E182.05911
G1 X143.63 Y190.70 E182.07778
G1 X143.12 Y190.15 E182.09661
G1 X142.64 Y189.58 E182.11523
G1 X142.20 Y188.98 E182.13372
G1 X141.79 Y188.34 E182.15256
G1 X141.43 Y187.70 E182.17099
G1 X141.10 Y187.03 E182.18958
G1 X140.81 Y186.33 E182.20854
G1 X140.57 Y185.63 E182.22688
G1 X140.37 Y184.90 E182.24582
G1 X140.21 Y184.18 E182.26422
G1 X140.10 Y183.43 E182.28315
G1 X140.03 Y182.70 E182.30157
G1 X140.00 Y181.94 E182.32046
G1 X140.00 Y181.85 E182.32261
G1 X140.02 Y181.19 E182.33910
G1 X140.08 Y180.46 E182.35748
G1 X140.19 Y179.72 E182.37611
G1 X140.35 Y178.98 E182.39507
G1 X140.54 Y178.25 E182.41376
G1 X140.78 Y177.56 E182.43211
G1 X141.06 Y176.86 E182.45076
G1 X141.39 Y176.18 E182.46972
G1 X141.74 Y175.53 E182.48805
G1 X142.15 Y174.89 E182.50702
G1 X142.58 Y174.29 E182.52539
G1 X143.06 Y173.71 E182.54431
G1 X143.56 Y173.16 E182.56269
G1 X144.10 Y172.64 E182.58165
G1 X144.67 Y172.16 E182.60016
G1 X145.27 Y171.70 E182.61891
G1 X145.88 Y171.29 E182.63729
G1 X146.53 Y170.91 E182.65609
G1 X147.20 Y170.58 E182.67483
G1 X147.89 Y170.28 E182.69355
G1 X148.59 Y170.03 E182.71192
G1 X149.31 Y169.81 E182.73078
G1 X150.04 Y169.64 E182.74952
G1 X150.77 Y169.52 E182.76789
G1 X151.52 Y169.44 E182.78666
G1 X152.27 Y169.40 E182.80552
G1 X152.36 Y169.40 E182.80777
G1 X153.02 Y169.41 E182.82411
G1 X153.75 Y169.46 E182.84254
G0 F12000 X153.90 Y170.02
;TYPE:FILL
G1 F3900 X164.37 Y180.49 E183.21189
G0 F12000 X164.43 Y181.11
G1 F3900 X153.28 Y169.97 E183.60519
G0 F12000 X152.69 Y169.94
G1 F3900 X164.45 Y181.71 E184.02019
G0 F12000 X164.45 Y182.27
G1 F3900 X152.13 Y169.95 E184.45496
G0 F12000 X151.59 Y169.97
G1 F3900 X164.42 Y182.81 E184.90769
G0 F12000 X164.37 Y183.32
G1 F3900 X151.08 Y170.03 E185.37655
G0 F12000 X150.58 Y170.10
G1 F3900 X164.30 Y183.81 E185.86046
G0 F12000 X164.21 Y184.30
G1 F3900 X150.10 Y170.18 E186.35836
G0 F12000 X149.64 Y170.29
G1 F3900 X164.11 Y184.75 E186.86869
G0 F12000 X163.99 Y185.20
G1 F3900 X157.34 Y178.56 E187.10320
G0 F12000 X157.97 Y179.74
G1 F3900 X163.86 Y185.64 E187.31106
G0 F12000 X163.71 Y186.05
G1 F3900 X158.21 Y180.55 E187.50514
G0 F12000 X158.34 Y181.25
G1 F3900 X163.55 Y186.46 E187.68909
G0 F12000 X163.38 Y186.85
G1 F3900 X158.37 Y181.85 E187.86573
G0 F12000 X158.35 Y182.39
G1 F3900 X163.20 Y187.24 E188.03670
G0 F12000 X163.00 Y187.61
G1 F3900 X158.28 Y182.89 E188.20332
G0 F12000 X158.19 Y183.36
G1 F3900 X162.80 Y187.97 E188.36595
G0 F12000 X162.58 Y188.32
G1 F3900 X158.06 Y183.80 E188.52537
G0 F12000 X157.89 Y184.20
G1 F3900 X162.35 Y188.66 E188.68281
G0 F12000 X162.12 Y188.99
G1 F3900 X157.72 Y184.59 E188.83810
G0 F12000 X157.51 Y184.95
G1 F3900 X161.88 Y189.31 E188.99200
G0 F12000 X161.62 Y189.62
G1 F3900 X157.29 Y185.30 E189.14462
G0 F12000 X157.05 Y185.62
G1 F3900 X161.36 Y189.93 E189.29663
G0 F12000 X161.08 Y190.22
G1 F3900 X156.78 Y185.92 E189.44829
G0 F12000 X156.50 Y186.20
G1 F3900 X160.80 Y190.50 E189.60012
G0 F12000 X160.51 Y190.77
G1 F3900 X156.20 Y186.47 E189.75192
G0 F12000 X155.87 Y186.70
G1 F3900 X160.21 Y191.04 E189.90506
G0 F12000 X159.89 Y191.29
G1 F3900 X155.53 Y186.92 E190.05905
G0 F12000 X155.17 Y187.13
G1 F3900 X159.57 Y191.53 E190.21446
G0 F12000 X159.24 Y191.77
G1 F3900 X154.79 Y187.32 E190.37152
G0 F12000 X154.36 Y187.46
G1 F3900 X158.90 Y191.99 E190.53149
G0 F12000 X158.55 Y192.21
G1 F3900 X153.94 Y187.59 E190.69428
G0 F12000 X153.47 Y187.69
G1 F3900 X158.19 Y192.41 E190.86075
G0 F12000 X157.82 Y192.60
G1 F3900 X152.96 Y187.75 E191.03203
G0 F12000 X152.42 Y187.77
G1 F3900 X157.43 Y192.79 E191.20885
G0 F12000 X157.03 Y192.96
G1 F3900 X151.81 Y187.73 E191.39311
G0 F12000 X151.12 Y187.61
G1 F3900 X156.63 Y193.12 E191.58733
G0 F12000 X156.21 Y193.26
G1 F3900 X150.28 Y187.33 E191.79642
G0 F12000 X148.98 Y186.60
G1 F3900 X155.78 Y193.39 E192.03620
G0 F12000 X155.33 Y193.51
G1 F3900 X140.88 Y179.06 E192.54584
G0 F12000 X141.00 Y178.62
G1 F3900 X147.80 Y185.42 E192.78580
G0 F12000 X147.06 Y184.11
G1 F3900 X141.13 Y178.19 E192.99463
G0 F12000 X141.28 Y177.76
G1 F3900 X146.79 Y183.28 E193.18920
G0 F12000 X146.66 Y182.58
G1 F3900 X141.44 Y177.36 E193.37342
G0 F12000 X141.61 Y176.96
G1 F3900 X146.62 Y181.97 E193.55024
G0 F12000 X146.64 Y181.43
G1 F3900 X141.79 Y176.58 E193.72128
G0 F12000 X141.98 Y176.21
G1 F3900 X146.70 Y180.93 E193.88770
G0 F12000 X146.80 Y180.46
G1 F3900 X142.19 Y175.84 E194.05053
G0 F12000 X142.40 Y175.50
G1 F3900 X146.94 Y180.03 E194.21051
G0 F12000 X147.09 Y179.62
G1 F3900 X142.62 Y175.15 E194.36820
G0 F12000 X142.86 Y174.82
G1 F3900 X147.27 Y179.23 E194.52360
G0 F12000 X147.46 Y178.86
G1 F3900 X143.10 Y174.50 E194.67738
G0 F12000 X143.36 Y174.19
G1 F3900 X147.69 Y178.52 E194.83023
G0 F12000 X147.93 Y178.20
G1 F3900 X143.62 Y173.89 E194.98223
G0 F12000 X143.89 Y173.59
G1 F3900 X148.19 Y177.89 E195.13380
G0 F12000 X148.49 Y177.62
G1 F3900 X144.18 Y173.31 E195.28570
G0 F12000 X144.47 Y173.04
G1 F3900 X148.78 Y177.35 E195.43793
G0 F12000 X149.10 Y177.10
G1 F3900 X144.77 Y172.78 E195.59063
G0 F12000 X145.08 Y172.52
G1 F3900 X149.44 Y176.88 E195.74440
G0 F12000 X149.80 Y176.67
G1 F3900 X145.41 Y172.28 E195.89959
G0 F12000 X145.74 Y172.04
G1 F3900 X150.19 Y176.49 E196.05665
G0 F12000 X150.60 Y176.34
G1 F3900 X146.07 Y171.81 E196.21631
G0 F12000 X146.43 Y171.60
G1 F3900 X151.03 Y176.21 E196.37887
G0 F12000 X151.50 Y176.10
G1 F3900 X146.78 Y171.39 E196.54512
G0 F12000 X147.16 Y171.20
G1 F3900 X152.00 Y176.04 E196.71576
G0 F12000 X152.54 Y176.02
G1 F3900 X147.54 Y171.02 E196.89207
G0 F12000 X147.94 Y170.85
G1 F3900 X153.14 Y176.05 E197.07561
G0 F12000 X153.83 Y176.18
G1 F3900 X148.34 Y170.69 E197.26919
G0 F12000 X148.76 Y170.54
G1 F3900 X154.65 Y176.43 E197.47687
G0 F12000 X155.88 Y177.10
G1 F3900 X149.19 Y170.41 E197.71281
G0 F12000 X154.56 Y170.12
G1 F3900 X164.27 Y179.83 E198.05537
G0 F12000 X164.12 Y179.12
G1 F3900 X155.28 Y170.27 E198.36755
G0 F12000 X156.06 Y170.48
G1 F3900 X163.91 Y178.34 E198.64458
G0 F12000 X163.60 Y177.46
G1 F3900 X156.94 Y170.80 E198.87971
G0 F12000 X157.98 Y171.27
G1 F3900 X163.12 Y176.42 E199.06130
G0 F12000 X162.24 Y174.97
G1 F3900 X159.42 Y172.15 E199.16082
G0 F12000 X140.78 Y179.53
G1 F3900 X154.86 Y193.61 E199.65755
G0 F12000 X154.39 Y193.70
G1 F3900 X140.69 Y180.01 E200.14053
G0 F12000 X140.62 Y180.50
G1 F3900 X153.89 Y193.77 E200.60863
G0 F12000 X153.37 Y193.82
G1 F3900 X140.58 Y181.02 E201.05999
