;-- START GCODE --
;Sliced for Type A Machines Series 1
;Sliced at: Sat 14-03-2015 17:55:24
;Basic settings: Layer height: 0.15 Walls: 0.8 Fill: 12
;Print Speed: 100 Support: 0 
;Retraction Speed: 40 Retraction Distance: 1.2
;Print time: #P_TIME#
;Filament used: #F_AMNT#m #F_WGHT#g
;Filament cost: #F_COST#
M106 S255	 ;start with the fan on
G21        ;metric values
G90        ;absolute positioning
M106 S255    ;start with the fan on
G28     ;move to endstops
G29		;allows for auto-levelling
G1 X150 Y5  Z15.0 F12000 ;center and move the platform down 15mm
M109 S220 ;Heat To temp
G92 E0                  ;zero the extruded length
G1 F200 E30              ;extrude 30mm of feed stock
G92 E0                  ;zero the extruded length again
G1 X175 Y25  Z0 F12000 ;remove bugger
G1 X220 F12000 ;remove bugger
G1 X150 Y150  Z15 F12000 ;recenter and begin
G1 F12000

;Layer count: 33
;LAYER:0
M106 S255
G0 F12000 X141.23 Y140.72 Z0.25
;TYPE:SKIRT
G1 F1800 X141.96 Y140.06 E0.04054
G1 X142.72 Y139.46 E0.08095
G1 X143.52 Y138.90 E0.12161
G1 X144.35 Y138.38 E0.16225
G1 X145.20 Y137.92 E0.20261
G1 X146.09 Y137.51 E0.24327
G1 X147.00 Y137.15 E0.28386
G1 X147.93 Y136.85 E0.32434
G1 X148.87 Y136.61 E0.36493
G1 X149.83 Y136.42 E0.40540
G1 X150.79 Y136.29 E0.44597
G1 X151.77 Y136.22 E0.48658
G1 X152.74 Y136.20 E0.52712
G1 X153.71 Y136.24 E0.56757
G1 X154.69 Y136.35 E0.60816
G1 X155.65 Y136.51 E0.64875
G1 X156.60 Y136.72 E0.68926
G1 X157.53 Y137.00 E0.72981
G1 X158.45 Y137.32 E0.77034
G1 X159.35 Y137.71 E0.81091
G1 X160.22 Y138.15 E0.85148
G1 X161.07 Y138.63 E0.89201
G1 X161.88 Y139.17 E0.93255
G1 X162.66 Y139.76 E0.97315
G1 X163.41 Y140.39 E1.01374
G1 X164.11 Y141.06 E1.05423
G1 X164.77 Y141.78 E1.09483
G1 X165.39 Y142.53 E1.13529
G1 X165.97 Y143.32 E1.17580
G1 X166.49 Y144.14 E1.21644
G1 X166.97 Y144.99 E1.25691
G1 X167.39 Y145.87 E1.29752
G1 X167.76 Y146.77 E1.33814
G1 X168.07 Y147.69 E1.37859
G1 X168.33 Y148.63 E1.41910
G1 X168.54 Y149.59 E1.45974
G1 X168.68 Y150.56 E1.50031
G1 X168.77 Y151.53 E1.54080
G1 X168.80 Y152.50 E1.58135
G1 X168.77 Y153.47 E1.62191
G1 X168.68 Y154.44 E1.66240
G1 X168.54 Y155.41 E1.70297
G1 X168.33 Y156.37 E1.74360
G1 X168.07 Y157.31 E1.78412
G1 X167.76 Y158.23 E1.82456
G1 X167.39 Y159.13 E1.86519
G1 X166.97 Y160.01 E1.90580
G1 X166.49 Y160.86 E1.94626
G1 X165.97 Y161.68 E1.98690
G1 X165.39 Y162.47 E2.02741
G1 X164.77 Y163.22 E2.06788
G1 X164.11 Y163.94 E2.10847
G1 X163.41 Y164.61 E2.14897
G1 X162.66 Y165.24 E2.18956
G1 X161.88 Y165.83 E2.23015
G1 X161.07 Y166.37 E2.27069
G1 X160.22 Y166.85 E2.31123
G1 X159.35 Y167.29 E2.35180
G1 X158.45 Y167.68 E2.39236
G1 X157.53 Y168.00 E2.43289
G1 X156.60 Y168.28 E2.47344
G1 X155.65 Y168.49 E2.51395
G1 X154.69 Y168.65 E2.55454
G1 X153.71 Y168.76 E2.59513
G1 X152.74 Y168.80 E2.63558
G1 X151.77 Y168.78 E2.67612
G1 X150.79 Y168.71 E2.71673
G1 X149.83 Y168.58 E2.75730
G1 X148.87 Y168.39 E2.79777
G1 X147.93 Y168.15 E2.83836
G1 X147.00 Y167.85 E2.87884
G1 X146.09 Y167.49 E2.91943
G1 X145.20 Y167.08 E2.96009
G1 X144.35 Y166.62 E3.00045
G1 X143.52 Y166.10 E3.04109
G1 X142.72 Y165.54 E3.08175
G1 X141.96 Y164.94 E3.12216
G1 X141.23 Y164.28 E3.16270
G1 X140.55 Y163.59 E3.20333
G1 X139.91 Y162.85 E3.24388
G1 X139.31 Y162.08 E3.28436
G1 X138.76 Y161.28 E3.32489
G1 X138.26 Y160.44 E3.36552
G1 X137.81 Y159.57 E3.40604
G1 X137.41 Y158.68 E3.44663
G1 X137.07 Y157.77 E3.48717
G1 X136.78 Y156.84 E3.52772
G1 X136.55 Y155.89 E3.56833
G1 X136.38 Y154.93 E3.60884
G1 X136.26 Y153.96 E3.64926
G1 X136.20 Y152.99 E3.68987
G1 X136.20 Y152.01 E3.73044
G1 X136.26 Y151.04 E3.77105
G1 X136.38 Y150.07 E3.81147
G1 X136.55 Y149.11 E3.85198
G1 X136.78 Y148.16 E3.89259
G1 X137.07 Y147.23 E3.93314
G1 X137.41 Y146.32 E3.97368
G1 X137.81 Y145.43 E4.01427
G1 X138.26 Y144.56 E4.05479
G1 X138.76 Y143.72 E4.09542
G1 X139.31 Y142.92 E4.13595
G1 X139.91 Y142.15 E4.17643
G1 X140.55 Y141.41 E4.21698
G1 X141.23 Y140.72 E4.25761
G0 F12000 X141.51 Y141.01
G1 F1800 X142.22 Y140.37 E4.29714
G1 X142.96 Y139.78 E4.33658
G1 X143.74 Y139.23 E4.37623
G1 X144.55 Y138.73 E4.41587
G1 X145.38 Y138.28 E4.45531
G1 X146.25 Y137.88 E4.49491
G1 X147.13 Y137.53 E4.53451
G1 X148.04 Y137.24 E4.57399
G1 X148.96 Y137.00 E4.61359
G1 X149.89 Y136.81 E4.65309
G1 X150.84 Y136.69 E4.69265
G1 X151.78 Y136.62 E4.73226
G1 X152.74 Y136.60 E4.77176
G1 X153.68 Y136.64 E4.81125
G1 X154.63 Y136.74 E4.85084
G1 X155.57 Y136.90 E4.89042
G1 X156.50 Y137.11 E4.92994
G1 X157.41 Y137.38 E4.96949
G1 X158.31 Y137.70 E5.00906
G1 X159.18 Y138.07 E5.04862
G1 X160.03 Y138.50 E5.08819
G1 X160.85 Y138.97 E5.12770
G1 X161.65 Y139.50 E5.16725
G1 X162.41 Y140.07 E5.20689
G1 X163.14 Y140.68 E5.24645
G1 X163.82 Y141.34 E5.28597
G1 X164.47 Y142.04 E5.32554
G1 X165.07 Y142.77 E5.36503
G1 X165.63 Y143.54 E5.40458
G1 X166.15 Y144.34 E5.44418
G1 X166.61 Y145.18 E5.48369
G1 X167.02 Y146.03 E5.52330
G1 X167.38 Y146.91 E5.56288
G1 X167.69 Y147.81 E5.60236
G1 X167.94 Y148.73 E5.64188
G1 X168.14 Y149.66 E5.68154
G1 X168.28 Y150.60 E5.72106
G1 X168.37 Y151.55 E5.76059
G1 X168.40 Y152.50 E5.80015
G1 X168.37 Y153.45 E5.83970
G1 X168.28 Y154.40 E5.87923
G1 X168.14 Y155.34 E5.91876
G1 X167.94 Y156.27 E5.95841
G1 X167.69 Y157.19 E5.99793
G1 X167.38 Y158.09 E6.03741
G1 X167.02 Y158.97 E6.07699
G1 X166.61 Y159.82 E6.11660
G1 X166.15 Y160.66 E6.15611
G1 X165.63 Y161.46 E6.19571
G1 X165.07 Y162.23 E6.23526
G1 X164.47 Y162.96 E6.27475
G1 X163.82 Y163.66 E6.31432
G1 X163.14 Y164.32 E6.35384
G1 X162.41 Y164.93 E6.39340
G1 X161.65 Y165.50 E6.43305
G1 X160.85 Y166.03 E6.47260
G1 X160.03 Y166.50 E6.51210
G1 X159.18 Y166.93 E6.55167
G1 X158.31 Y167.30 E6.59123
G1 X157.41 Y167.62 E6.63080
G1 X156.50 Y167.89 E6.67035
G1 X155.57 Y168.10 E6.70987
G1 X154.63 Y168.26 E6.74945
G1 X153.68 Y168.36 E6.78904
G1 X152.74 Y168.40 E6.82853
G1 X151.78 Y168.38 E6.86803
G1 X150.84 Y168.31 E6.90764
G1 X149.89 Y168.19 E6.94720
G1 X148.96 Y168.00 E6.98670
G1 X148.04 Y167.76 E7.02630
G1 X147.13 Y167.47 E7.06578
G1 X146.25 Y167.12 E7.10538
G1 X145.38 Y166.72 E7.14498
G1 X144.55 Y166.27 E7.18442
G1 X143.74 Y165.77 E7.22406
G1 X142.96 Y165.22 E7.26371
G1 X142.22 Y164.63 E7.30315
G1 X141.51 Y163.99 E7.34268
G1 X140.84 Y163.31 E7.38228
G1 X140.22 Y162.60 E7.42186
G1 X139.63 Y161.85 E7.46133
G1 X139.10 Y161.06 E7.50091
G1 X138.61 Y160.24 E7.54051
G1 X138.17 Y159.40 E7.58004
G1 X137.78 Y158.53 E7.61959
G1 X137.45 Y157.64 E7.65921
G1 X137.17 Y156.73 E7.69871
G1 X136.94 Y155.80 E7.73834
G1 X136.77 Y154.87 E7.77788
G1 X136.66 Y153.93 E7.81729
G1 X136.60 Y152.98 E7.85690
G1 X136.60 Y152.02 E7.89648
G1 X136.66 Y151.07 E7.93609
G1 X136.77 Y150.13 E7.97549
G1 X136.94 Y149.20 E8.01504
G1 X137.17 Y148.27 E8.05466
G1 X137.45 Y147.36 E8.09417
G1 X137.78 Y146.47 E8.13378
G1 X138.17 Y145.60 E8.17333
G1 X138.61 Y144.76 E8.21287
G1 X139.10 Y143.94 E8.25247
G1 X139.63 Y143.15 E8.29204
G1 X140.22 Y142.40 E8.33152
G1 X140.84 Y141.69 E8.37109
G1 X141.51 Y141.01 E8.41069
G1 F2400 E7.21069
G0 F12000 X144.13 Y143.76
;TYPE:WALL-INNER
G1 F2400 E8.41069
G1 F1800 X144.67 Y143.27 E8.44081
G1 X145.24 Y142.82 E8.47098
G1 X145.83 Y142.41 E8.50079
G1 X146.46 Y142.01 E8.53172
G1 X147.08 Y141.68 E8.56098
G1 X147.74 Y141.38 E8.59109
G1 X148.41 Y141.11 E8.62137
G1 X149.11 Y140.89 E8.65171
G1 X149.81 Y140.71 E8.68165
G1 X150.51 Y140.56 E8.71165
G1 X151.25 Y140.47 E8.74240
G1 X151.95 Y140.41 E8.77171
G1 X152.69 Y140.40 E8.80236
G1 X153.39 Y140.43 E8.83170
G1 X154.12 Y140.51 E8.86217
G1 X154.84 Y140.63 E8.89252
G1 X155.54 Y140.79 E8.92237
G1 X156.24 Y140.99 E8.95247
G1 X156.91 Y141.24 E8.98236
G1 X157.59 Y141.52 E9.01280
G1 X158.23 Y141.84 E9.04268
G1 X158.86 Y142.21 E9.07317
G1 X159.46 Y142.60 E9.10291
G1 X160.04 Y143.04 E9.13290
G1 X160.59 Y143.51 E9.16304
G1 X161.12 Y144.01 E9.19360
G1 X161.60 Y144.54 E9.22316
G1 X162.07 Y145.11 E9.25385
G1 X162.49 Y145.68 E9.28326
G1 X162.89 Y146.30 E9.31397
G1 X163.23 Y146.92 E9.34349
G1 X163.56 Y147.59 E9.37460
G1 X163.82 Y148.24 E9.40357
G1 X164.06 Y148.94 E9.43440
G1 X164.25 Y149.63 E9.46391
G1 X164.40 Y150.35 E9.49464
G1 X164.51 Y151.04 E9.52361
G1 X164.57 Y151.78 E9.55458
G1 X164.60 Y152.50 E9.58453
G1 X164.57 Y153.22 E9.61448
G1 X164.51 Y153.96 E9.64524
G1 X164.40 Y154.65 E9.67442
G1 X164.25 Y155.37 E9.70515
G1 X164.06 Y156.06 E9.73466
G1 X163.82 Y156.76 E9.76549
G1 X163.56 Y157.41 E9.79446
G1 X163.23 Y158.08 E9.82557
G1 X162.89 Y158.70 E9.85509
G1 X162.49 Y159.32 E9.88580
G1 X162.07 Y159.89 E9.91521
G1 X161.60 Y160.46 E9.94590
G1 X161.12 Y160.99 E9.97546
G1 X160.59 Y161.49 E10.00601
G1 X160.04 Y161.96 E10.03616
G1 X159.46 Y162.40 E10.06615
G1 X158.86 Y162.79 E10.09589
G1 X158.23 Y163.16 E10.12638
G1 X157.59 Y163.48 E10.15626
G1 X156.91 Y163.76 E10.18670
G1 X156.24 Y164.01 E10.21659
G1 X155.54 Y164.21 E10.24669
G1 X154.84 Y164.37 E10.27654
G1 X154.12 Y164.49 E10.30689
G1 X153.39 Y164.57 E10.33736
G1 X152.69 Y164.60 E10.36670
G1 X151.95 Y164.59 E10.39735
G1 X151.25 Y164.53 E10.42666
G1 X150.51 Y164.44 E10.45741
G1 X149.81 Y164.29 E10.48741
G1 X149.11 Y164.11 E10.51735
G1 X148.41 Y163.89 E10.54768
G1 X147.74 Y163.62 E10.57796
G1 X147.08 Y163.32 E10.60808
G1 X146.46 Y162.99 E10.63734
G1 X145.83 Y162.59 E10.66827
G1 X145.24 Y162.18 E10.69808
G1 X144.67 Y161.73 E10.72825
G1 X144.13 Y161.24 E10.75837
G1 X143.63 Y160.73 E10.78835
G1 X143.16 Y160.19 E10.81803
G1 X142.71 Y159.61 E10.84864
G1 X142.30 Y159.01 E10.87874
G1 X141.93 Y158.39 E10.90896
G1 X141.60 Y157.75 E10.93881
G1 X141.30 Y157.09 E10.96866
G1 X141.04 Y156.40 E10.99947
G1 X140.84 Y155.72 E11.02893
G1 X140.66 Y155.01 E11.05952
G1 X140.53 Y154.31 E11.08885
G1 X140.45 Y153.58 E11.11962
G1 X140.40 Y152.86 E11.14974
G1 X140.40 Y152.14 E11.17951
G1 X140.45 Y151.42 E11.20954
G1 X140.54 Y150.68 E11.24052
G1 X140.66 Y149.99 E11.26964
G1 X140.84 Y149.28 E11.30023
G1 X141.04 Y148.60 E11.32969
G1 X141.30 Y147.91 E11.36050
G1 X141.60 Y147.25 E11.39035
G1 X141.93 Y146.61 E11.42020
G1 X142.30 Y145.99 E11.45042
G1 X142.71 Y145.39 E11.48052
G1 X143.16 Y144.81 E11.51113
G1 X143.63 Y144.27 E11.54080
G1 X144.13 Y143.76 E11.57079
G0 F12000 X151.10 Y151.07
G1 F1800 X150.88 Y151.32 E11.58490
G1 X150.69 Y151.64 E11.59995
G1 X150.57 Y151.99 E11.61551
G1 X150.50 Y152.32 E11.62971
G1 X150.51 Y152.70 E11.64530
G1 X150.57 Y153.03 E11.65933
G1 X150.70 Y153.37 E11.67425
G1 X150.88 Y153.68 E11.68931
G1 X151.13 Y153.96 E11.70489
G1 X151.40 Y154.17 E11.71897
G1 X151.73 Y154.34 E11.73470
G1 X152.05 Y154.45 E11.74873
G1 X152.41 Y154.50 E11.76371
G1 X152.78 Y154.48 E11.77929
G1 X153.12 Y154.40 E11.79354
G1 X153.46 Y154.25 E11.80923
G1 X153.76 Y154.05 E11.82414
G1 X154.02 Y153.80 E11.83911
G1 X154.22 Y153.50 E11.85400
G1 X154.37 Y153.18 E11.86873
G1 X154.46 Y152.86 E11.88275
G1 X154.50 Y152.50 E11.89778
G1 X154.46 Y152.12 E11.91349
G1 X154.36 Y151.78 E11.92842
G1 X154.20 Y151.46 E11.94314
G1 X154.00 Y151.18 E11.95735
G1 X153.73 Y150.93 E11.97294
G1 X153.44 Y150.74 E11.98704
G1 X153.11 Y150.60 E12.00194
G1 X152.76 Y150.52 E12.01683
G1 X152.40 Y150.50 E12.03185
G1 X152.03 Y150.56 E12.04740
G1 X151.71 Y150.66 E12.06143
G1 X151.38 Y150.85 E12.07732
G1 X151.10 Y151.07 E12.09207
G0 F12000 X151.38 Y151.36
;TYPE:WALL-OUTER
G1 F1800 X151.20 Y151.56 E12.10326
G1 X151.06 Y151.81 E12.11521
G1 X150.95 Y152.09 E12.12781
G1 X150.91 Y152.36 E12.13901
G1 X150.91 Y152.66 E12.15156
G1 X150.96 Y152.92 E12.16272
G1 X151.06 Y153.19 E12.17467
G1 X151.21 Y153.44 E12.18662
G1 X151.41 Y153.66 E12.19919
G1 X151.62 Y153.83 E12.21040
G1 X151.89 Y153.97 E12.22303
G1 X152.14 Y154.06 E12.23418
G1 X152.43 Y154.10 E12.24614
G1 X152.73 Y154.08 E12.25867
G1 X152.99 Y154.02 E12.26989
G1 X153.27 Y153.90 E12.28255
G1 X153.51 Y153.74 E12.29444
G1 X153.71 Y153.54 E12.30638
G1 X153.88 Y153.30 E12.31828
G1 X154.00 Y153.04 E12.33015
G1 X154.07 Y152.78 E12.34128
G1 X154.09 Y152.50 E12.35322
G1 X154.06 Y152.20 E12.36585
G1 X153.99 Y151.92 E12.37774
G1 X153.86 Y151.67 E12.38959
G1 X153.70 Y151.45 E12.40081
G1 X153.48 Y151.24 E12.41343
G1 X153.25 Y151.09 E12.42459
G1 X152.99 Y150.98 E12.43652
G1 X152.71 Y150.92 E12.44842
G1 X152.43 Y150.90 E12.46032
G1 X152.12 Y150.95 E12.47293
G1 X151.87 Y151.03 E12.48407
G1 X151.60 Y151.18 E12.49676
G1 X151.38 Y151.36 E12.50861
G0 F12000 X151.19 Y151.13
G0 X144.07 Y143.68
G0 X143.85 Y143.47
G1 F1800 X144.42 Y142.96 E12.54020
G1 X145.00 Y142.50 E12.57132
G1 X145.61 Y142.07 E12.60190
G1 X146.24 Y141.68 E12.63302
G1 X146.91 Y141.32 E12.66460
G1 X147.58 Y141.01 E12.69518
G1 X148.28 Y140.73 E12.72653
G1 X148.99 Y140.50 E12.75734
G1 X149.72 Y140.31 E12.78896
G1 X150.45 Y140.17 E12.81981
G1 X151.19 Y140.07 E12.85107
G1 X151.93 Y140.01 E12.88175
G1 X152.68 Y140.00 E12.91294
G1 X153.43 Y140.04 E12.94423
G1 X154.18 Y140.11 E12.97546
G1 X154.91 Y140.24 E13.00623
G1 X155.64 Y140.40 E13.03735
G1 X156.37 Y140.61 E13.06876
G1 X157.06 Y140.86 E13.09932
G1 X157.76 Y141.16 E13.13093
G1 X158.42 Y141.49 E13.16185
G1 X159.06 Y141.86 E13.19266
G1 X159.69 Y142.28 E13.22393
G1 X160.29 Y142.72 E13.25484
G1 X160.86 Y143.21 E13.28596
G1 X161.40 Y143.72 E13.31702
G1 X161.91 Y144.27 E13.34811
G1 X162.38 Y144.85 E13.37921
G1 X162.82 Y145.45 E13.41028
G1 X163.23 Y146.09 E13.44189
G1 X163.59 Y146.75 E13.47294
G1 X163.91 Y147.41 E13.50358
G1 X164.20 Y148.11 E13.53517
G1 X164.44 Y148.81 E13.56574
G1 X164.64 Y149.53 E13.59689
G1 X164.80 Y150.28 E13.62847
G1 X164.91 Y151.01 E13.65953
G1 X164.97 Y151.75 E13.69013
G1 X165.00 Y152.49 E13.72120
G1 X164.97 Y153.25 E13.75273
G1 X164.91 Y153.99 E13.78337
G1 X164.80 Y154.72 E13.81444
G1 X164.64 Y155.47 E13.84598
G1 X164.44 Y156.19 E13.87713
G1 X164.20 Y156.89 E13.90774
G1 X163.92 Y157.58 E13.93882
G1 X163.59 Y158.25 E13.96997
G1 X163.23 Y158.91 E14.00101
G1 X162.82 Y159.54 E14.03247
G1 X162.39 Y160.14 E14.06322
G1 X161.91 Y160.72 E14.09462
G1 X161.40 Y161.27 E14.12568
G1 X160.86 Y161.79 E14.15677
G1 X160.29 Y162.27 E14.18791
G1 X159.69 Y162.72 E14.21898
G1 X159.07 Y163.13 E14.25010
G1 X158.42 Y163.51 E14.28106
G1 X157.76 Y163.84 E14.31198
G1 X157.06 Y164.14 E14.34358
G1 X156.37 Y164.39 E14.37415
G1 X155.64 Y164.60 E14.40555
G1 X154.91 Y164.76 E14.43667
G1 X154.18 Y164.89 E14.46745
G1 X153.43 Y164.96 E14.49867
G1 X152.68 Y165.00 E14.52997
G1 X151.93 Y164.99 E14.56115
G1 X151.19 Y164.93 E14.59184
G1 X150.45 Y164.83 E14.62309
G1 X149.72 Y164.69 E14.65395
G1 X148.99 Y164.50 E14.68556
G1 X148.28 Y164.27 E14.71638
G1 X147.58 Y163.99 E14.74772
G1 X146.91 Y163.68 E14.77830
G1 X146.24 Y163.32 E14.80989
G1 X145.61 Y162.93 E14.84101
G1 X145.01 Y162.50 E14.87155
G1 X144.42 Y162.04 E14.90270
G1 X143.85 Y161.53 E14.93429
G1 X143.34 Y161.01 E14.96484
G1 X142.84 Y160.43 E14.99645
G1 X142.39 Y159.85 E15.02710
G1 X141.97 Y159.23 E15.05815
G1 X141.58 Y158.58 E15.08978
G1 X141.24 Y157.93 E15.12033
G1 X140.93 Y157.24 E15.15191
G1 X140.67 Y156.54 E15.18265
G1 X140.45 Y155.82 E15.21414
G1 X140.27 Y155.10 E15.24474
G1 X140.14 Y154.37 E15.27595
G1 X140.05 Y153.61 E15.30740
G1 X140.00 Y152.87 E15.33852
G1 X140.00 Y152.13 E15.36903
G1 X140.05 Y151.39 E15.40015
G1 X140.14 Y150.63 E15.43172
G1 X140.27 Y149.90 E15.46282
G1 X140.45 Y149.18 E15.49341
G1 X140.67 Y148.46 E15.52500
G1 X140.93 Y147.76 E15.55564
G1 X141.24 Y147.07 E15.58722
G1 X141.58 Y146.42 E15.61776
G1 X141.97 Y145.77 E15.64940
G1 X142.39 Y145.15 E15.68045
G1 X142.84 Y144.57 E15.71110
G1 X143.34 Y143.99 E15.74271
G1 X143.85 Y143.47 E15.77326
G0 F12000 X144.19 Y143.90
;TYPE:FILL
G1 F1800 X151.14 Y150.86 E16.18219
G0 F12000 X150.86 Y151.14
G1 F1800 X143.90 Y144.19 E16.59094
G0 F12000 X143.63 Y144.48
G1 F1800 X150.63 Y151.47 E17.00231
G0 F12000 X150.46 Y151.87
G1 F1800 X143.37 Y144.78 E17.41932
G0 F12000 X143.11 Y145.09
G1 F1800 X150.37 Y152.34 E17.84565
G0 F12000 X150.41 Y152.96
G1 F1800 X142.87 Y145.41 E18.28947
G0 F12000 X142.63 Y145.75
G1 F1800 X159.25 Y162.36 E19.26652
G0 F12000 X159.58 Y162.13
G1 F1800 X152.04 Y154.59 E19.70978
G0 F12000 X152.64 Y154.62
G1 F1800 X159.91 Y161.88 E20.13670
G0 F12000 X160.21 Y161.63
G1 F1800 X153.13 Y154.54 E20.55333
G0 F12000 X153.53 Y154.37
G1 F1800 X160.52 Y161.37 E20.96443
G0 F12000 X160.81 Y161.09
G1 F1800 X153.86 Y154.15 E21.37271
G0 F12000 X154.14 Y153.86
G1 F1800 X161.09 Y160.81 E21.78132
G0 F12000 X161.37 Y160.52
G1 F1800 X154.37 Y153.52 E22.19263
G0 F12000 X154.53 Y153.12
G1 F1800 X161.63 Y160.21 E22.60976
G0 F12000 X161.88 Y159.90
G1 F1800 X154.62 Y152.64 E23.03667
G0 F12000 X154.58 Y152.03
G1 F1800 X162.13 Y159.58 E23.48064
G0 F12000 X162.37 Y159.25
G1 F1800 X145.75 Y142.63 E24.45784
G0 F12000 X145.41 Y142.87
G1 F1800 X152.97 Y150.42 E24.90195
G0 F12000 X152.35 Y150.37
G1 F1800 X145.09 Y143.11 E25.32846
G0 F12000 X144.78 Y143.37
G1 F1800 X151.88 Y150.46 E25.74568
G0 F12000 X151.48 Y150.63
G1 F1800 X144.48 Y143.63 E26.15713
G0 F12000 X146.09 Y142.41
G1 F1800 X162.59 Y158.91 E27.12733
G0 F12000 X162.80 Y158.56
G1 F1800 X146.44 Y142.19 E28.08970
G0 F12000 X146.80 Y141.99
G1 F1800 X163.00 Y158.20 E29.04256
G0 F12000 X163.20 Y157.82
G1 F1800 X147.17 Y141.79 E29.98512
G0 F12000 X147.55 Y141.62
G1 F1800 X163.38 Y157.44 E30.91577
G0 F12000 X163.55 Y157.05
G1 F1800 X147.95 Y141.44 E31.83323
G0 F12000 X148.35 Y141.28
G1 F1800 X163.71 Y156.64 E32.73628
G0 F12000 X163.86 Y156.22
G1 F1800 X148.78 Y141.14 E33.62301
G0 F12000 X149.21 Y141.00
G1 F1800 X163.99 Y155.79 E34.49214
G0 F12000 X164.11 Y155.34
G1 F1800 X149.66 Y140.89 E35.34207
G0 F12000 X150.12 Y140.78
G1 F1800 X164.21 Y154.88 E36.17068
G0 F12000 X164.30 Y154.40
G1 F1800 X150.59 Y140.69 E36.97645
G0 F12000 X151.09 Y140.63
G1 F1800 X164.37 Y153.91 E37.75718
G0 F12000 X164.42 Y153.39
G1 F1800 X151.61 Y140.58 E38.51036
G0 F12000 X152.15 Y140.55
G1 F1800 X164.44 Y152.85 E39.23346
G0 F12000 X164.45 Y152.29
G1 F1800 X152.71 Y140.54 E39.92396
G0 F12000 X153.30 Y140.57
G1 F1800 X164.43 Y151.70 E40.57830
G0 F12000 X164.37 Y151.08
G1 F1800 X153.93 Y140.63 E41.19249
G0 F12000 X154.59 Y140.73
G1 F1800 X164.27 Y150.41 E41.76175
G0 F12000 X164.12 Y149.69
G1 F1800 X155.30 Y140.88 E42.28010
G0 F12000 X156.09 Y141.09
G1 F1800 X163.90 Y148.91 E42.73965
G0 F12000 X163.58 Y148.03
G1 F1800 X156.97 Y141.41 E43.12853
G0 F12000 X158.02 Y141.90
G1 F1800 X163.11 Y146.99 E43.42777
G0 F12000 X162.18 Y145.50
G1 F1800 X159.49 Y142.80 E43.58599
G0 F12000 X142.41 Y146.08
G1 F1800 X158.91 Y162.59 E44.55637
G0 F12000 X158.56 Y162.80
G1 F1800 X142.19 Y146.44 E45.51854
G0 F12000 X141.99 Y146.80
G1 F1800 X158.20 Y163.01 E46.47177
G0 F12000 X157.82 Y163.20
G1 F1800 X141.79 Y147.17 E47.41433
G0 F12000 X141.61 Y147.55
G1 F1800 X157.44 Y163.38 E48.34513
G0 F12000 X157.05 Y163.55
G1 F1800 X141.44 Y147.94 E49.26285
G0 F12000 X141.28 Y148.35
G1 F1800 X156.64 Y163.71 E50.16584
G0 F12000 X156.22 Y163.86
G1 F1800 X141.13 Y148.77 E51.05302
G0 F12000 X141.00 Y149.20
G1 F1800 X155.79 Y163.99 E51.92235
G0 F12000 X155.34 Y164.11
G1 F1800 X140.89 Y149.65 E52.77231
G0 F12000 X140.78 Y150.11
G1 F1800 X154.88 Y164.22 E53.60139
G0 F12000 X154.40 Y164.30
G1 F1800 X140.69 Y150.59 E54.40734
G0 F12000 X140.63 Y151.09
G1 F1800 X153.91 Y164.37 E55.18804
G0 F12000 X153.39 Y164.42
G1 F1800 X140.57 Y151.60 E55.94174
G0 F12000 X140.54 Y152.14
G1 F1800 X152.85 Y164.45 E56.66552
G0 F12000 X152.29 Y164.45
G1 F1800 X140.54 Y152.70 E57.35617
G0 F12000 X140.57 Y153.30
G1 F1800 X151.70 Y164.43 E58.01057
G0 F12000 X151.08 Y164.37
G1 F1800 X140.63 Y153.92 E58.62479
G0 F12000 X140.73 Y154.59
G1 F1800 X150.41 Y164.27 E59.19429
G0 F12000 X149.69 Y164.12
G1 F1800 X140.88 Y155.30 E59.71287
G0 F12000 X141.09 Y156.08
G1 F1800 X148.91 Y163.90 E60.17272
G0 F12000 X148.03 Y163.59
G1 F1800 X141.40 Y156.96 E60.56262
G0 F12000 X141.89 Y158.01
G1 F1800 X146.99 Y163.11 E60.86242
G0 F12000 X145.52 Y162.20
G1 F1800 X142.78 Y159.47 E61.02335
;LAYER:1
G0 F12000 X142.71 Y159.61 Z0.40
;TYPE:WALL-INNER
G1 F2820 X142.30 Y159.01 E61.04141
G1 X141.93 Y158.39 E61.05954
G1 X141.60 Y157.75 E61.07745
G1 X141.30 Y157.09 E61.09536
G1 X141.04 Y156.40 E61.11385
G1 X140.84 Y155.72 E61.13152
G1 X140.66 Y155.01 E61.14988
G1 X140.53 Y154.31 E61.16747
G1 X140.45 Y153.58 E61.18594
G1 X140.40 Y152.86 E61.20401
G1 X140.40 Y152.14 E61.22194
G1 X140.45 Y151.42 E61.23989
G1 X140.54 Y150.68 E61.25848
G1 X140.66 Y149.99 E61.27595
G1 X140.84 Y149.28 E61.29430
G1 X141.04 Y148.60 E61.31198
G1 X141.30 Y147.91 E61.33047
G1 X141.60 Y147.25 E61.34838
G1 X141.93 Y146.61 E61.36628
G1 X142.30 Y145.99 E61.38442
G1 X142.71 Y145.39 E61.40248
G1 X143.16 Y144.81 E61.42084
G1 X143.63 Y144.27 E61.43865
G1 X144.13 Y143.76 E61.45664
G1 X144.67 Y143.27 E61.47471
G1 X145.24 Y142.82 E61.49281
G1 X145.83 Y142.41 E61.51070
G1 X146.46 Y142.01 E61.52926
G1 X147.08 Y141.68 E61.54681
G1 X147.74 Y141.38 E61.56488
G1 X148.41 Y141.11 E61.58305
G1 X149.11 Y140.89 E61.60125
G1 X149.81 Y140.71 E61.61921
G1 X150.51 Y140.56 E61.63722
G1 X151.25 Y140.47 E61.65567
G1 X151.95 Y140.41 E61.67325
G1 X152.69 Y140.40 E61.69164
G1 X153.39 Y140.43 E61.70924
G1 X154.12 Y140.51 E61.72753
G1 X154.84 Y140.63 E61.74574
G1 X155.54 Y140.79 E61.76365
G1 X156.24 Y140.99 E61.78171
G1 X156.91 Y141.24 E61.79964
G1 X157.59 Y141.52 E61.81790
G1 X158.23 Y141.84 E61.83583
G1 X158.86 Y142.21 E61.85413
G1 X159.46 Y142.60 E61.87197
G1 X160.04 Y143.04 E61.88997
G1 X160.59 Y143.51 E61.90805
G1 X161.12 Y144.01 E61.92638
G1 X161.60 Y144.54 E61.94412
G1 X162.07 Y145.11 E61.96254
G1 X162.49 Y145.68 E61.98018
G1 X162.89 Y146.30 E61.99861
G1 X163.23 Y146.92 E62.01632
G1 X163.56 Y147.59 E62.03498
G1 X163.82 Y148.24 E62.05237
G1 X164.06 Y148.94 E62.07087
G1 X164.25 Y149.63 E62.08857
G1 X164.40 Y150.35 E62.10701
G1 X164.51 Y151.04 E62.12439
G1 X164.57 Y151.78 E62.14298
G1 X164.60 Y152.50 E62.16094
G1 X164.57 Y153.22 E62.17891
G1 X164.51 Y153.96 E62.19740
G1 X164.40 Y154.65 E62.21488
G1 X164.25 Y155.37 E62.23332
G1 X164.06 Y156.06 E62.25102
G1 X163.82 Y156.76 E62.26952
G1 X163.56 Y157.41 E62.28690
G1 X163.23 Y158.08 E62.30557
G1 X162.89 Y158.70 E62.32328
G1 X162.49 Y159.32 E62.34171
G1 X162.07 Y159.89 E62.35935
G1 X161.60 Y160.46 E62.37776
G1 X161.12 Y160.99 E62.39550
G1 X160.59 Y161.49 E62.41383
G1 X160.04 Y161.96 E62.43192
G1 X159.46 Y162.40 E62.44992
G1 X158.86 Y162.79 E62.46776
G1 X158.23 Y163.16 E62.48606
G1 X157.59 Y163.48 E62.50398
G1 X156.91 Y163.76 E62.52224
G1 X156.24 Y164.01 E62.54018
G1 X155.54 Y164.21 E62.55824
G1 X154.84 Y164.37 E62.57615
G1 X154.12 Y164.49 E62.59436
G1 X153.39 Y164.57 E62.61264
G1 X152.69 Y164.60 E62.63025
G1 X151.95 Y164.59 E62.64863
G1 X151.25 Y164.53 E62.66622
G1 X150.51 Y164.44 E62.68467
G1 X149.81 Y164.29 E62.70267
G1 X149.11 Y164.11 E62.72064
G1 X148.41 Y163.89 E62.73884
G1 X147.74 Y163.62 E62.75700
G1 X147.08 Y163.32 E62.77507
G1 X146.46 Y162.99 E62.79263
G1 X145.83 Y162.59 E62.81119
G1 X145.24 Y162.18 E62.82907
G1 X144.67 Y161.73 E62.84718
G1 X144.13 Y161.24 E62.86525
G1 X143.63 Y160.73 E62.88324
G1 X143.16 Y160.19 E62.90104
G1 X142.71 Y159.61 E62.91941
G0 F12000 X150.91 Y153.71
G1 F2820 X151.12 Y153.95 E62.92756
G1 X151.43 Y154.19 E62.93726
G1 X151.71 Y154.34 E62.94525
G1 X152.05 Y154.45 E62.95419
G1 X152.41 Y154.50 E62.96325
G1 X152.81 Y154.47 E62.97313
G1 X153.15 Y154.39 E62.98190
G1 X153.45 Y154.26 E62.99006
G1 X153.78 Y154.03 E62.99996
G1 X154.03 Y153.78 E63.00889
G1 X154.23 Y153.49 E63.01764
G1 X154.37 Y153.20 E63.02565
G1 X154.46 Y152.86 E63.03457
G1 X154.50 Y152.50 E63.04352
G1 X154.46 Y152.14 E63.05259
G1 X154.35 Y151.76 E63.06244
G1 X154.19 Y151.44 E63.07143
G1 X153.97 Y151.16 E63.08021
G1 X153.74 Y150.94 E63.08818
G1 X153.44 Y150.74 E63.09729
G1 X153.08 Y150.59 E63.10702
G1 X152.76 Y150.52 E63.11501
G1 X152.41 Y150.50 E63.12395
G1 X152.05 Y150.55 E63.13301
G1 X151.67 Y150.68 E63.14286
G1 X151.36 Y150.86 E63.15185
G1 X151.09 Y151.09 E63.16063
G1 X150.88 Y151.33 E63.16873
G1 X150.68 Y151.67 E63.17848
G1 X150.57 Y151.97 E63.18646
G1 X150.50 Y152.33 E63.19553
G1 X150.51 Y152.72 E63.20544
G1 X150.59 Y153.07 E63.21440
G1 X150.72 Y153.41 E63.22330
G1 X150.91 Y153.71 E63.23210
G0 F12000 X151.23 Y153.47
;TYPE:WALL-OUTER
G1 F2820 X151.40 Y153.66 E63.23845
G1 X151.65 Y153.85 E63.24636
G1 X151.87 Y153.97 E63.25268
G1 X152.14 Y154.06 E63.25981
G1 X152.43 Y154.10 E63.26701
G1 X152.75 Y154.07 E63.27496
G1 X153.02 Y154.01 E63.28203
G1 X153.26 Y153.91 E63.28841
G1 X153.52 Y153.72 E63.29640
G1 X153.72 Y153.52 E63.30350
G1 X153.88 Y153.29 E63.31058
G1 X153.99 Y153.06 E63.31691
G1 X154.07 Y152.78 E63.32405
G1 X154.09 Y152.50 E63.33119
G1 X154.07 Y152.21 E63.33838
G1 X153.98 Y151.91 E63.34630
G1 X153.85 Y151.65 E63.35348
G1 X153.68 Y151.43 E63.36058
G1 X153.49 Y151.25 E63.36688
G1 X153.25 Y151.09 E63.37408
G1 X152.96 Y150.97 E63.38201
G1 X152.71 Y150.92 E63.38831
G1 X152.43 Y150.90 E63.39542
G1 X152.14 Y150.94 E63.40263
G1 X151.84 Y151.05 E63.41057
G1 X151.59 Y151.19 E63.41773
G1 X151.37 Y151.37 E63.42483
G1 X151.20 Y151.56 E63.43116
G1 X151.05 Y151.84 E63.43910
G1 X150.96 Y152.07 E63.44539
G1 X150.91 Y152.36 E63.45259
G1 X150.91 Y152.68 E63.46055
G1 X150.97 Y152.96 E63.46771
G1 X151.08 Y153.22 E63.47483
G1 X151.23 Y153.47 E63.48192
G0 F12000 X150.97 Y153.62
G0 X142.63 Y159.68
G0 X142.39 Y159.85
G1 F2820 X141.97 Y159.23 E63.50056
G1 X141.58 Y158.58 E63.51953
G1 X141.24 Y157.93 E63.53786
G1 X140.93 Y157.24 E63.55681
G1 X140.67 Y156.54 E63.57525
G1 X140.45 Y155.82 E63.59415
G1 X140.27 Y155.10 E63.61251
G1 X140.14 Y154.37 E63.63124
G1 X140.05 Y153.61 E63.65011
G1 X140.00 Y152.87 E63.66878
G1 X140.00 Y152.13 E63.68708
G1 X140.05 Y151.39 E63.70575
G1 X140.14 Y150.63 E63.72470
G1 X140.27 Y149.90 E63.74335
G1 X140.45 Y149.18 E63.76171
G1 X140.67 Y148.46 E63.78066
G1 X140.93 Y147.76 E63.79905
G1 X141.24 Y147.07 E63.81800
G1 X141.58 Y146.42 E63.83632
G1 X141.97 Y145.77 E63.85530
G1 X142.39 Y145.15 E63.87394
G1 X142.84 Y144.57 E63.89232
G1 X143.34 Y143.99 E63.91129
G1 X143.85 Y143.47 E63.92962
G1 X144.42 Y142.96 E63.94857
G1 X145.00 Y142.50 E63.96725
G1 X145.61 Y142.07 E63.98559
G1 X146.24 Y141.68 E64.00426
G1 X146.91 Y141.32 E64.02322
G1 X147.58 Y141.01 E64.04156
G1 X148.28 Y140.73 E64.06037
G1 X148.99 Y140.50 E64.07886
G1 X149.72 Y140.31 E64.09783
G1 X150.45 Y140.17 E64.11634
G1 X151.19 Y140.07 E64.13510
G1 X151.93 Y140.01 E64.15351
G1 X152.68 Y140.00 E64.17222
G1 X153.43 Y140.04 E64.19099
G1 X154.18 Y140.11 E64.20973
G1 X154.91 Y140.24 E64.22819
G1 X155.64 Y140.40 E64.24687
G1 X156.37 Y140.61 E64.26571
G1 X157.06 Y140.86 E64.28405
G1 X157.76 Y141.16 E64.30301
G1 X158.42 Y141.49 E64.32156
G1 X159.06 Y141.86 E64.34005
G1 X159.69 Y142.28 E64.35881
G1 X160.29 Y142.72 E64.37736
G1 X160.86 Y143.21 E64.39603
G1 X161.40 Y143.72 E64.41466
G1 X161.91 Y144.27 E64.43332
G1 X162.38 Y144.85 E64.45198
G1 X162.82 Y145.45 E64.47062
G1 X163.23 Y146.09 E64.48959
G1 X163.59 Y146.75 E64.50822
G1 X163.91 Y147.41 E64.52661
G1 X164.20 Y148.11 E64.54556
G1 X164.44 Y148.81 E64.56390
G1 X164.64 Y149.53 E64.58259
G1 X164.80 Y150.28 E64.60153
G1 X164.91 Y151.01 E64.62018
G1 X164.97 Y151.75 E64.63853
G1 X165.00 Y152.49 E64.65718
G1 X164.97 Y153.25 E64.67609
G1 X164.91 Y153.99 E64.69448
G1 X164.80 Y154.72 E64.71312
G1 X164.64 Y155.47 E64.73204
G1 X164.44 Y156.19 E64.75073
G1 X164.20 Y156.89 E64.76910
G1 X163.92 Y157.58 E64.78775
G1 X163.59 Y158.25 E64.80643
G1 X163.23 Y158.91 E64.82506
G1 X162.82 Y159.54 E64.84394
G1 X162.39 Y160.14 E64.86239
G1 X161.91 Y160.72 E64.88123
G1 X161.40 Y161.27 E64.89987
G1 X160.86 Y161.79 E64.91851
G1 X160.29 Y162.27 E64.93720
G1 X159.69 Y162.72 E64.95584
G1 X159.07 Y163.13 E64.97451
G1 X158.42 Y163.51 E64.99309
G1 X157.76 Y163.84 E65.01164
G1 X157.06 Y164.14 E65.03061
G1 X156.37 Y164.39 E65.04894
G1 X155.64 Y164.60 E65.06778
G1 X154.91 Y164.76 E65.08646
G1 X154.18 Y164.89 E65.10492
G1 X153.43 Y164.96 E65.12366
G1 X152.68 Y165.00 E65.14244
G1 X151.93 Y164.99 E65.16115
G1 X151.19 Y164.93 E65.17956
G1 X150.45 Y164.83 E65.19831
G1 X149.72 Y164.69 E65.21682
G1 X148.99 Y164.50 E65.23579
G1 X148.28 Y164.27 E65.25428
G1 X147.58 Y163.99 E65.27309
G1 X146.91 Y163.68 E65.29144
G1 X146.24 Y163.32 E65.31039
G1 X145.61 Y162.93 E65.32906
G1 X145.01 Y162.50 E65.34739
G1 X144.42 Y162.04 E65.36608
G1 X143.85 Y161.53 E65.38503
G1 X143.34 Y161.01 E65.40336
G1 X142.84 Y160.43 E65.42233
G1 X142.39 Y159.85 E65.44071
G0 F12000 X142.83 Y159.53
;TYPE:FILL
G1 F2820 X150.43 Y151.92 E65.70911
G0 F12000 X150.37 Y152.56
G1 F2820 X143.07 Y159.85 E65.96648
G0 F12000 X143.32 Y160.17
G1 F2820 X150.44 Y153.05 E66.21742
G0 F12000 X150.59 Y153.46
G1 F2820 X143.59 Y160.47 E66.46451
G0 F12000 X143.86 Y160.76
G1 F2820 X150.81 Y153.81 E66.70978
G0 F12000 X151.09 Y154.10
G1 F2820 X144.14 Y161.05 E66.95489
G0 F12000 X144.43 Y161.32
G1 F2820 X151.42 Y154.34 E67.20130
G0 F12000 X151.80 Y154.51
G1 F2820 X144.73 Y161.59 E67.45089
G0 F12000 X145.04 Y161.84
G1 F2820 X152.26 Y154.62 E67.70575
G0 F12000 X152.84 Y154.60
G1 F2820 X145.36 Y162.09 E67.96988
G0 F12000 X145.69 Y162.33
G1 F2820 X162.32 Y145.69 E68.55676
G0 F12000 X162.09 Y145.36
G1 F2820 X154.60 Y152.84 E68.82067
G0 F12000 X154.62 Y152.27
G1 F2820 X161.84 Y145.04 E69.07557
G0 F12000 X161.59 Y144.73
G1 F2820 X154.51 Y151.81 E69.32509
G0 F12000 X154.34 Y151.42
G1 F2820 X161.32 Y144.44 E69.57140
G0 F12000 X161.04 Y144.14
G1 F2820 X154.10 Y151.09 E69.81645
G0 F12000 X153.81 Y150.81
G1 F2820 X160.76 Y143.86 E70.06167
G0 F12000 X160.47 Y143.59
G1 F2820 X153.46 Y150.59 E70.30890
G0 F12000 X153.05 Y150.44
G1 F2820 X160.16 Y143.33 E70.55984
G0 F12000 X159.85 Y143.07
G1 F2820 X152.55 Y150.37 E70.81725
G0 F12000 X151.90 Y150.46
G1 F2820 X159.53 Y142.83 E71.08628
G0 F12000 X159.19 Y142.60
G1 F2820 X142.60 Y159.20 E71.67185
G0 F12000 X142.37 Y158.86
G1 F2820 X158.85 Y142.37 E72.25333
G0 F12000 X158.50 Y142.16
G1 F2820 X142.16 Y158.50 E72.82977
G0 F12000 X141.96 Y158.14
G1 F2820 X158.14 Y141.96 E73.40067
G0 F12000 X157.76 Y141.77
G1 F2820 X141.76 Y157.77 E73.96508
G0 F12000 X141.58 Y157.38
G1 F2820 X157.38 Y141.59 E74.52224
G0 F12000 X156.98 Y141.42
G1 F2820 X141.41 Y156.99 E75.07147
G0 F12000 X141.26 Y156.57
G1 F2820 X156.57 Y141.26 E75.61170
G0 F12000 X156.15 Y141.11
G1 F2820 X141.11 Y156.15 E76.14224
G0 F12000 X140.98 Y155.72
G1 F2820 X155.72 Y140.99 E76.66206
G0 F12000 X155.26 Y140.87
G1 F2820 X140.87 Y155.27 E77.16995
G0 F12000 X140.77 Y154.80
G1 F2820 X154.81 Y140.76 E77.66521
G0 F12000 X154.32 Y140.69
G1 F2820 X140.68 Y154.32 E78.14637
G0 F12000 X140.62 Y153.82
G1 F2820 X153.82 Y140.62 E78.61208
G0 F12000 X153.30 Y140.57
G1 F2820 X140.57 Y153.30 E79.06128
G0 F12000 X140.54 Y152.76
G1 F2820 X152.76 Y140.54 E79.49233
G0 F12000 X152.19 Y140.55
G1 F2820 X140.54 Y152.20 E79.90334
G0 F12000 X140.58 Y151.60
G1 F2820 X151.60 Y140.58 E80.29217
G0 F12000 X150.97 Y140.64
G1 F2820 X140.64 Y150.97 E80.65637
G0 F12000 X140.75 Y150.30
G1 F2820 X150.29 Y140.75 E80.99312
G0 F12000 X149.57 Y140.91
G1 F2820 X140.91 Y149.57 E81.29873
G0 F12000 X141.13 Y148.78
G1 F2820 X148.77 Y141.14 E81.56820
G0 F12000 X147.88 Y141.47
G1 F2820 X141.47 Y147.88 E81.79424
G0 F12000 X141.99 Y146.79
G1 F2820 X146.78 Y142.00 E81.96331
G0 F12000 X145.14 Y143.08
G1 F2820 X143.09 Y145.13 E82.03575
G0 F12000 X146.03 Y162.55
G1 F2820 X162.55 Y146.03 E82.61857
G0 F12000 X162.77 Y146.38
G1 F2820 X146.38 Y162.77 E83.19685
G0 F12000 X146.74 Y162.98
G1 F2820 X162.97 Y146.74 E83.76958
G0 F12000 X163.17 Y147.11
G1 F2820 X147.10 Y163.17 E84.33623
G0 F12000 X147.49 Y163.35
G1 F2820 X163.35 Y147.49 E84.89585
G0 F12000 X163.52 Y147.88
G1 F2820 X147.88 Y163.53 E85.44774
G0 F12000 X148.29 Y163.69
G1 F2820 X163.69 Y148.29 E85.99109
G0 F12000 X163.83 Y148.71
G1 F2820 X148.70 Y163.84 E86.52477
G0 F12000 X149.13 Y163.97
G1 F2820 X163.97 Y149.14 E87.04818
G0 F12000 X164.09 Y149.58
G1 F2820 X149.58 Y164.09 E87.56008
G0 F12000 X150.04 Y164.20
G1 F2820 X164.19 Y150.04 E88.05944
G0 F12000 X164.29 Y150.52
G1 F2820 X150.51 Y164.29 E88.54542
G0 F12000 X151.01 Y164.36
G1 F2820 X164.36 Y151.01 E89.01645
G0 F12000 X164.41 Y151.52
G1 F2820 X151.52 Y164.41 E89.47120
G0 F12000 X152.05 Y164.45
G1 F2820 X164.44 Y152.06 E89.90829
G0 F12000 X164.45 Y152.62
G1 F2820 X152.61 Y164.46 E90.32603
G0 F12000 X153.20 Y164.43
G1 F2820 X164.43 Y153.20 E90.72241
G0 F12000 X164.38 Y153.82
G1 F2820 X153.82 Y164.38 E91.09498
G0 F12000 X154.47 Y164.29
G1 F2820 X164.29 Y154.47 E91.44114
G0 F12000 X164.15 Y155.18
G1 F2820 X155.18 Y164.15 E91.75737
G0 F12000 X155.95 Y163.94
G1 F2820 X163.94 Y155.95 E92.03934
G0 F12000 X163.65 Y156.81
G1 F2820 X156.81 Y163.65 E92.28069
G0 F12000 X157.83 Y163.20
G1 F2820 X163.20 Y157.83 E92.47008
G0 F12000 X162.42 Y159.18
G1 F2820 X159.18 Y162.41 E92.58417
;LAYER:2
G0 F12000 X159.46 Y162.40 Z0.55
;TYPE:WALL-INNER
G1 F3900 X158.86 Y162.79 E92.60201
G1 X158.23 Y163.16 E92.62031
G1 X157.59 Y163.48 E92.63824
G1 X156.91 Y163.76 E92.65650
G1 X156.24 Y164.01 E92.67443
G1 X155.54 Y164.21 E92.69249
G1 X154.84 Y164.37 E92.71040
G1 X154.12 Y164.49 E92.72861
G1 X153.39 Y164.57 E92.74690
G1 X152.69 Y164.60 E92.76450
G1 X151.95 Y164.59 E92.78289
G1 X151.25 Y164.53 E92.80047
G1 X150.51 Y164.44 E92.81892
G1 X149.81 Y164.29 E92.83693
G1 X149.11 Y164.11 E92.85489
G1 X148.41 Y163.89 E92.87309
G1 X147.74 Y163.62 E92.89126
G1 X147.08 Y163.32 E92.90933
G1 X146.46 Y162.99 E92.92688
G1 X145.83 Y162.59 E92.94544
G1 X145.24 Y162.18 E92.96333
G1 X144.67 Y161.73 E92.98143
G1 X144.13 Y161.24 E92.99950
G1 X143.63 Y160.73 E93.01749
G1 X143.16 Y160.19 E93.03530
G1 X142.71 Y159.61 E93.05366
G1 X142.30 Y159.01 E93.07172
G1 X141.93 Y158.39 E93.08986
G1 X141.60 Y157.75 E93.10776
G1 X141.30 Y157.09 E93.12567
G1 X141.04 Y156.40 E93.14416
G1 X140.84 Y155.72 E93.16184
G1 X140.66 Y155.01 E93.18019
G1 X140.53 Y154.31 E93.19779
G1 X140.45 Y153.58 E93.21625
G1 X140.40 Y152.86 E93.23432
G1 X140.40 Y152.14 E93.25218
G1 X140.45 Y151.42 E93.27020
G1 X140.54 Y150.68 E93.28879
G1 X140.66 Y149.99 E93.30626
G1 X140.84 Y149.28 E93.32462
G1 X141.04 Y148.60 E93.34229
G1 X141.30 Y147.91 E93.36078
G1 X141.60 Y147.25 E93.37869
G1 X141.93 Y146.61 E93.39660
G1 X142.30 Y145.99 E93.41473
G1 X142.71 Y145.39 E93.43279
G1 X143.16 Y144.81 E93.45116
G1 X143.63 Y144.27 E93.46896
G1 X144.13 Y143.76 E93.48695
G1 X144.67 Y143.27 E93.50502
G1 X145.24 Y142.82 E93.52313
G1 X145.83 Y142.41 E93.54101
G1 X146.46 Y142.01 E93.55957
G1 X147.08 Y141.68 E93.57713
G1 X147.74 Y141.38 E93.59520
G1 X148.41 Y141.11 E93.61336
G1 X149.11 Y140.89 E93.63156
G1 X149.81 Y140.71 E93.64953
G1 X150.51 Y140.56 E93.66753
G1 X151.25 Y140.47 E93.68598
G1 X151.95 Y140.41 E93.70357
G1 X152.69 Y140.40 E93.72195
G1 X153.39 Y140.43 E93.73956
G1 X154.12 Y140.51 E93.75784
G1 X154.84 Y140.63 E93.77605
G1 X155.54 Y140.79 E93.79396
G1 X156.24 Y140.99 E93.81202
G1 X156.91 Y141.24 E93.82996
G1 X157.59 Y141.52 E93.84822
G1 X158.23 Y141.84 E93.86614
G1 X158.86 Y142.21 E93.88444
G1 X159.46 Y142.60 E93.90228
G1 X160.04 Y143.04 E93.92028
G1 X160.59 Y143.51 E93.93837
G1 X161.12 Y144.01 E93.95670
G1 X161.60 Y144.54 E93.97444
G1 X162.07 Y145.11 E93.99285
G1 X162.49 Y145.68 E94.01049
G1 X162.89 Y146.30 E94.02892
G1 X163.23 Y146.92 E94.04663
G1 X163.56 Y147.59 E94.06530
G1 X163.82 Y148.24 E94.08268
G1 X164.06 Y148.94 E94.10118
G1 X164.25 Y149.63 E94.11888
G1 X164.40 Y150.35 E94.13732
G1 X164.51 Y151.04 E94.15470
G1 X164.57 Y151.78 E94.17329
G1 X164.60 Y152.50 E94.19126
G1 X164.57 Y153.22 E94.20923
G1 X164.51 Y153.94 E94.22738
G1 X164.40 Y154.65 E94.24519
G1 X164.25 Y155.37 E94.26363
G1 X164.06 Y156.06 E94.28133
G1 X163.82 Y156.76 E94.29983
G1 X163.56 Y157.41 E94.31722
G1 X163.23 Y158.08 E94.33588
G1 X162.89 Y158.70 E94.35359
G1 X162.49 Y159.32 E94.37202
G1 X162.07 Y159.89 E94.38967
G1 X161.60 Y160.46 E94.40808
G1 X161.12 Y160.99 E94.42582
G1 X160.59 Y161.49 E94.44415
G1 X160.04 Y161.96 E94.46224
G1 X159.46 Y162.40 E94.48023
G0 F12000 X153.79 Y154.02
G1 F3900 X154.04 Y153.77 E94.48896
G1 X154.21 Y153.52 E94.49652
G1 X154.37 Y153.20 E94.50547
G1 X154.46 Y152.86 E94.51437
G1 X154.50 Y152.50 E94.52332
G1 X154.46 Y152.14 E94.53226
G1 X154.37 Y151.79 E94.54137
G1 X154.18 Y151.42 E94.55170
G1 X153.96 Y151.15 E94.56043
G1 X153.74 Y150.94 E94.56800
G1 X153.44 Y150.74 E94.57695
G1 X153.11 Y150.60 E94.58589
G1 X152.76 Y150.52 E94.59482
G1 X152.41 Y150.50 E94.60376
G1 X152.05 Y150.55 E94.61267
G1 X151.71 Y150.66 E94.62161
G1 X151.40 Y150.83 E94.63056
G1 X151.12 Y151.06 E94.63949
G1 X150.87 Y151.33 E94.64865
G1 X150.68 Y151.68 E94.65873
G1 X150.57 Y151.97 E94.66630
G1 X150.50 Y152.33 E94.67545
G1 X150.52 Y152.74 E94.68581
G1 X150.59 Y153.08 E94.69449
G1 X150.70 Y153.37 E94.70203
G1 X150.88 Y153.68 E94.71098
G1 X151.12 Y153.94 E94.71992
G1 X151.40 Y154.17 E94.72885
G1 X151.71 Y154.34 E94.73780
G1 X152.05 Y154.45 E94.74674
G1 X152.41 Y154.50 E94.75565
G1 X152.76 Y154.48 E94.76459
G1 X153.11 Y154.40 E94.77353
G1 X153.45 Y154.26 E94.78268
G1 X153.79 Y154.02 E94.79301
G0 F12000 X153.53 Y153.71
;TYPE:WALL-OUTER
G1 F3900 X153.73 Y153.51 E94.80007
G1 X153.87 Y153.32 E94.80598
G1 X153.99 Y153.06 E94.81316
G1 X154.07 Y152.78 E94.82027
G1 X154.09 Y152.50 E94.82741
G1 X154.07 Y152.22 E94.83455
G1 X153.99 Y151.94 E94.84175
G1 X153.84 Y151.64 E94.85011
G1 X153.66 Y151.41 E94.85717
G1 X153.49 Y151.25 E94.86310
G1 X153.25 Y151.09 E94.87025
G1 X152.99 Y150.98 E94.87740
G1 X152.71 Y150.92 E94.88454
G1 X152.43 Y150.90 E94.89166
G1 X152.14 Y150.94 E94.89881
G1 X151.87 Y151.03 E94.90594
G1 X151.62 Y151.17 E94.91311
G1 X151.39 Y151.35 E94.92026
G1 X151.20 Y151.56 E94.92745
G1 X151.04 Y151.85 E94.93574
G1 X150.96 Y152.07 E94.94166
G1 X150.91 Y152.36 E94.94888
G1 X150.91 Y152.69 E94.95724
G1 X150.97 Y152.97 E94.96429
G1 X151.06 Y153.19 E94.97020
G1 X151.21 Y153.44 E94.97735
G1 X151.39 Y153.65 E94.98448
G1 X151.62 Y153.83 E94.99163
G1 X151.87 Y153.97 E94.99879
G1 X152.14 Y154.06 E95.00592
G1 X152.43 Y154.10 E95.01308
G1 X152.71 Y154.08 E95.02019
G1 X152.99 Y154.02 E95.02733
G1 X153.26 Y153.91 E95.03456
G1 X153.53 Y153.71 E95.04292
G0 F12000 X153.74 Y153.92
G0 X160.66 Y161.56
G0 X160.86 Y161.79
G1 F3900 X160.29 Y162.27 E95.06161
G1 X159.69 Y162.72 E95.08025
G1 X159.07 Y163.13 E95.09893
G1 X158.42 Y163.51 E95.11750
G1 X157.76 Y163.84 E95.13605
G1 X157.06 Y164.14 E95.15502
G1 X156.37 Y164.39 E95.17335
G1 X155.64 Y164.60 E95.19220
G1 X154.91 Y164.76 E95.21087
G1 X154.18 Y164.89 E95.22933
G1 X153.43 Y164.96 E95.24807
G1 X152.68 Y165.00 E95.26685
G1 X151.93 Y164.99 E95.28556
G1 X151.19 Y164.93 E95.30397
G1 X150.45 Y164.83 E95.32272
G1 X149.72 Y164.69 E95.34123
G1 X148.99 Y164.50 E95.36020
G1 X148.28 Y164.27 E95.37869
G1 X147.58 Y163.99 E95.39750
G1 X146.91 Y163.68 E95.41585
G1 X146.24 Y163.32 E95.43480
G1 X145.61 Y162.93 E95.45347
G1 X145.01 Y162.50 E95.47180
G1 X144.42 Y162.04 E95.49049
G1 X143.85 Y161.53 E95.50944
G1 X143.34 Y161.01 E95.52777
G1 X142.84 Y160.43 E95.54674
G1 X142.39 Y159.85 E95.56513
G1 X141.97 Y159.23 E95.58376
G1 X141.58 Y158.58 E95.60273
G1 X141.24 Y157.93 E95.62106
G1 X140.93 Y157.24 E95.64001
G1 X140.67 Y156.54 E95.65845
G1 X140.45 Y155.82 E95.67735
G1 X140.27 Y155.10 E95.69571
G1 X140.14 Y154.37 E95.71444
G1 X140.05 Y153.61 E95.73331
G1 X140.00 Y152.87 E95.75198
G1 X140.00 Y152.13 E95.77029
G1 X140.05 Y151.39 E95.78895
G1 X140.14 Y150.63 E95.80790
G1 X140.27 Y149.90 E95.82656
G1 X140.45 Y149.18 E95.84491
G1 X140.67 Y148.46 E95.86386
G1 X140.93 Y147.76 E95.88225
G1 X141.24 Y147.07 E95.90120
G1 X141.58 Y146.42 E95.91952
G1 X141.97 Y145.77 E95.93851
G1 X142.39 Y145.15 E95.95714
G1 X142.84 Y144.57 E95.97552
G1 X143.34 Y143.99 E95.99449
G1 X143.85 Y143.47 E96.01282
G1 X144.42 Y142.96 E96.03178
G1 X145.00 Y142.50 E96.05045
G1 X145.61 Y142.07 E96.06879
G1 X146.24 Y141.68 E96.08747
G1 X146.91 Y141.32 E96.10642
G1 X147.58 Y141.01 E96.12476
G1 X148.28 Y140.73 E96.14357
G1 X148.99 Y140.50 E96.16206
G1 X149.72 Y140.31 E96.18103
G1 X150.45 Y140.17 E96.19954
G1 X151.19 Y140.07 E96.21830
G1 X151.93 Y140.01 E96.23671
G1 X152.68 Y140.00 E96.25542
G1 X153.43 Y140.04 E96.27420
G1 X154.18 Y140.11 E96.29293
G1 X154.91 Y140.24 E96.31139
G1 X155.64 Y140.40 E96.33007
G1 X156.37 Y140.61 E96.34891
G1 X157.06 Y140.86 E96.36725
G1 X157.76 Y141.16 E96.38621
G1 X158.42 Y141.49 E96.40476
G1 X159.06 Y141.86 E96.42325
G1 X159.69 Y142.28 E96.44201
G1 X160.29 Y142.72 E96.46056
G1 X160.86 Y143.21 E96.47923
G1 X161.40 Y143.72 E96.49786
G1 X161.91 Y144.27 E96.51652
G1 X162.38 Y144.85 E96.53518
G1 X162.82 Y145.45 E96.55382
G1 X163.23 Y146.09 E96.57279
G1 X163.59 Y146.75 E96.59142
G1 X163.91 Y147.41 E96.60981
G1 X164.20 Y148.11 E96.62876
G1 X164.44 Y148.81 E96.64710
G1 X164.64 Y149.53 E96.66579
G1 X164.80 Y150.28 E96.68474
G1 X164.91 Y151.01 E96.70338
G1 X164.97 Y151.75 E96.72174
G1 X165.00 Y152.49 E96.74038
G1 X164.97 Y153.25 E96.75930
G1 X164.91 Y153.99 E96.77768
G1 X164.80 Y154.72 E96.79632
G1 X164.64 Y155.47 E96.81524
G1 X164.44 Y156.19 E96.83393
G1 X164.20 Y156.89 E96.85230
G1 X163.92 Y157.58 E96.87095
G1 X163.59 Y158.25 E96.88963
G1 X163.23 Y158.91 E96.90826
G1 X162.82 Y159.54 E96.92714
G1 X162.39 Y160.14 E96.94559
G1 X161.91 Y160.72 E96.96443
G1 X161.40 Y161.27 E96.98307
G1 X160.86 Y161.79 E97.00171
G0 F12000 X160.52 Y161.37
;TYPE:FILL
G1 F3900 X153.53 Y154.38 E97.24834
G0 F12000 X153.86 Y154.14
G1 F3900 X160.81 Y161.09 E97.49340
G0 F12000 X161.09 Y160.81
G1 F3900 X154.14 Y153.86 E97.73858
G0 F12000 X154.37 Y153.52
G1 F3900 X161.37 Y160.52 E97.98538
G0 F12000 X161.63 Y160.21
G1 F3900 X154.53 Y153.12 E98.23562
G0 F12000 X154.62 Y152.64
G1 F3900 X161.88 Y159.90 E98.49177
G0 F12000 X162.13 Y159.58
G1 F3900 X154.58 Y152.03 E98.75809
G0 F12000 X152.97 Y150.42
G1 F3900 X145.41 Y142.87 E99.02456
G0 F12000 X145.09 Y143.11
G1 F3900 X152.35 Y150.37 E99.28046
G0 F12000 X151.88 Y150.46
G1 F3900 X144.78 Y143.37 E99.53079
G0 F12000 X144.48 Y143.63
G1 F3900 X151.48 Y150.63 E99.77756
G0 F12000 X151.14 Y150.86
G1 F3900 X144.19 Y143.90 E100.02288
G0 F12000 X143.90 Y144.19
G1 F3900 X150.86 Y151.14 E100.26813
G0 F12000 X150.63 Y151.48
G1 F3900 X143.63 Y144.48 E100.51507
G0 F12000 X143.37 Y144.78
G1 F3900 X150.46 Y151.87 E100.76519
G0 F12000 X150.37 Y152.35
G1 F3900 X143.11 Y145.09 E101.02103
G0 F12000 X142.87 Y145.41
G1 F3900 X150.42 Y152.97 E101.28758
G0 F12000 X152.04 Y154.59
G1 F3900 X159.58 Y162.13 E101.55354
G0 F12000 X159.91 Y161.88
G1 F3900 X152.65 Y154.63 E101.80962
G0 F12000 X153.13 Y154.54
G1 F3900 X160.21 Y161.63 E102.05960
G0 F12000 X159.25 Y162.36
G1 F3900 X142.63 Y145.75 E102.64583
G0 F12000 X142.41 Y146.08
G1 F3900 X158.91 Y162.59 E103.22805
G0 F12000 X158.56 Y162.80
G1 F3900 X142.19 Y146.44 E103.80535
G0 F12000 X141.99 Y146.80
G1 F3900 X158.20 Y163.01 E104.37729
G0 F12000 X157.82 Y163.20
G1 F3900 X141.79 Y147.17 E104.94283
G0 F12000 X141.61 Y147.55
G1 F3900 X157.44 Y163.38 E105.50131
G0 F12000 X157.05 Y163.55
G1 F3900 X141.44 Y147.94 E106.05194
G0 F12000 X141.28 Y148.35
G1 F3900 X156.64 Y163.71 E106.59374
G0 F12000 X156.22 Y163.86
G1 F3900 X141.13 Y148.77 E107.12604
G0 F12000 X141.00 Y149.20
G1 F3900 X155.79 Y163.99 E107.64764
G0 F12000 X155.34 Y164.11
G1 F3900 X140.89 Y149.65 E108.15762
G0 F12000 X140.78 Y150.11
G1 F3900 X154.88 Y164.22 E108.65507
G0 F12000 X154.40 Y164.30
G1 F3900 X140.69 Y150.59 E109.13864
G0 F12000 X140.63 Y151.09
G1 F3900 X153.91 Y164.37 E109.60705
G0 F12000 X153.39 Y164.42
G1 F3900 X140.57 Y151.60 E110.05928
G0 F12000 X140.54 Y152.14
G1 F3900 X152.85 Y164.45 E110.49355
G0 F12000 X152.29 Y164.45
G1 F3900 X140.54 Y152.70 E110.90794
G0 F12000 X140.57 Y153.30
G1 F3900 X151.70 Y164.43 E111.30058
G0 F12000 X151.08 Y164.37
G1 F3900 X140.63 Y153.92 E111.66911
G0 F12000 X140.73 Y154.59
G1 F3900 X150.41 Y164.27 E112.01081
G0 F12000 X149.69 Y164.12
G1 F3900 X140.88 Y155.30 E112.32196
G0 F12000 X141.09 Y156.08
G1 F3900 X148.91 Y163.90 E112.59786
G0 F12000 X148.03 Y163.59
G1 F3900 X141.40 Y156.96 E112.83181
G0 F12000 X141.89 Y158.01
G1 F3900 X146.99 Y163.11 E113.01169
G0 F12000 X145.52 Y162.20
G1 F3900 X142.78 Y159.47 E113.10824
G0 F12000 X145.75 Y142.63
G1 F3900 X162.37 Y159.25 E113.69456
G0 F12000 X162.59 Y158.91
G1 F3900 X146.09 Y142.41 E114.27668
G0 F12000 X146.44 Y142.19
G1 F3900 X162.80 Y158.56 E114.85410
G0 F12000 X163.00 Y158.20
G1 F3900 X146.80 Y141.99 E115.42581
G0 F12000 X147.17 Y141.79
G1 F3900 X163.20 Y157.82 E115.99135
G0 F12000 X163.38 Y157.44
G1 F3900 X147.55 Y141.62 E116.54974
G0 F12000 X147.95 Y141.44
G1 F3900 X163.55 Y157.05 E117.10021
G0 F12000 X163.71 Y156.64
G1 F3900 X148.35 Y141.28 E117.64204
G0 F12000 X148.78 Y141.14
G1 F3900 X163.86 Y156.22 E118.17409
G0 F12000 X163.99 Y155.79
G1 F3900 X149.21 Y141.00 E118.69556
G0 F12000 X149.66 Y140.89
G1 F3900 X164.11 Y155.34 E119.20552
G0 F12000 X164.21 Y154.88
G1 F3900 X150.12 Y140.78 E119.70269
G0 F12000 X150.59 Y140.69
G1 F3900 X164.30 Y154.40 E120.18615
G0 F12000 X164.37 Y153.91
G1 F3900 X151.09 Y140.63 E120.65462
G0 F12000 X151.61 Y140.58
G1 F3900 X164.42 Y153.39 E121.10653
G0 F12000 X164.44 Y152.85
G1 F3900 X152.15 Y140.55 E121.54039
G0 F12000 X152.71 Y140.54
G1 F3900 X164.45 Y152.29 E121.95469
G0 F12000 X164.43 Y151.70
G1 F3900 X153.30 Y140.57 E122.34730
G0 F12000 X153.93 Y140.63
G1 F3900 X164.37 Y151.08 E122.71581
G0 F12000 X164.27 Y150.41
G1 F3900 X154.59 Y140.73 E123.05737
G0 F12000 X155.30 Y140.88
G1 F3900 X164.12 Y149.69 E123.36837
G0 F12000 X163.90 Y148.91
G1 F3900 X156.09 Y141.09 E123.64410
G0 F12000 X156.97 Y141.41
G1 F3900 X163.58 Y148.03 E123.87743
G0 F12000 X163.11 Y146.99
G1 F3900 X158.02 Y141.90 E124.05698
G0 F12000 X159.49 Y142.80
G1 F3900 X162.18 Y145.50 E124.15191
;LAYER:3
G0 F12000 X162.49 Y145.68 Z0.70
;TYPE:WALL-INNER
G1 F4920 X162.89 Y146.30 E124.17034
G1 X163.23 Y146.92 E124.18805
G1 X163.56 Y147.59 E124.20671
G1 X163.82 Y148.24 E124.22410
G1 X164.06 Y148.94 E124.24260
G1 X164.25 Y149.63 E124.26030
G1 X164.40 Y150.35 E124.27874
G1 X164.51 Y151.04 E124.29612
G1 X164.57 Y151.78 E124.31471
G1 X164.60 Y152.50 E124.33267
G1 X164.57 Y153.22 E124.35064
G1 X164.51 Y153.94 E124.36880
G1 X164.40 Y154.65 E124.38661
G1 X164.25 Y155.37 E124.40505
G1 X164.06 Y156.06 E124.42275
G1 X163.82 Y156.76 E124.44125
G1 X163.56 Y157.41 E124.45863
G1 X163.23 Y158.08 E124.47730
G1 X162.89 Y158.70 E124.49501
G1 X162.49 Y159.32 E124.51344
G1 X162.07 Y159.89 E124.53108
G1 X161.60 Y160.46 E124.54949
G1 X161.12 Y160.99 E124.56723
G1 X160.59 Y161.49 E124.58557
G1 X160.04 Y161.96 E124.60365
G1 X159.46 Y162.40 E124.62165
G1 X158.86 Y162.79 E124.63949
G1 X158.23 Y163.16 E124.65779
G1 X157.59 Y163.48 E124.67571
G1 X156.91 Y163.76 E124.69397
G1 X156.24 Y164.01 E124.71191
G1 X155.54 Y164.21 E124.72997
G1 X154.84 Y164.37 E124.74788
G1 X154.12 Y164.49 E124.76609
G1 X153.39 Y164.57 E124.78437
G1 X152.69 Y164.60 E124.80198
G1 X151.95 Y164.59 E124.82037
G1 X151.25 Y164.53 E124.83795
G1 X150.51 Y164.44 E124.85640
G1 X149.81 Y164.29 E124.87441
G1 X149.11 Y164.11 E124.89237
G1 X148.41 Y163.89 E124.91057
G1 X147.74 Y163.62 E124.92874
G1 X147.08 Y163.32 E124.94680
G1 X146.46 Y162.99 E124.96436
G1 X145.83 Y162.59 E124.98292
G1 X145.24 Y162.18 E125.00080
G1 X144.67 Y161.73 E125.01891
G1 X144.13 Y161.24 E125.03698
G1 X143.63 Y160.73 E125.05497
G1 X143.16 Y160.19 E125.07277
G1 X142.71 Y159.61 E125.09114
G1 X142.30 Y159.01 E125.10920
G1 X141.93 Y158.39 E125.12733
G1 X141.60 Y157.75 E125.14524
G1 X141.30 Y157.09 E125.16315
G1 X141.04 Y156.40 E125.18164
G1 X140.84 Y155.72 E125.19931
G1 X140.66 Y155.01 E125.21767
G1 X140.53 Y154.31 E125.23526
G1 X140.45 Y153.58 E125.25373
G1 X140.40 Y152.86 E125.27180
G1 X140.40 Y152.13 E125.28986
G1 X140.45 Y151.42 E125.30768
G1 X140.54 Y150.68 E125.32627
G1 X140.66 Y149.99 E125.34374
G1 X140.84 Y149.28 E125.36210
G1 X141.04 Y148.60 E125.37977
G1 X141.30 Y147.91 E125.39826
G1 X141.60 Y147.25 E125.41617
G1 X141.93 Y146.61 E125.43408
G1 X142.30 Y145.99 E125.45221
G1 X142.71 Y145.39 E125.47027
G1 X143.16 Y144.81 E125.48864
G1 X143.63 Y144.27 E125.50644
G1 X144.13 Y143.76 E125.52443
G1 X144.67 Y143.27 E125.54250
G1 X145.24 Y142.82 E125.56061
G1 X145.83 Y142.41 E125.57849
G1 X146.46 Y142.01 E125.59705
G1 X147.08 Y141.68 E125.61460
G1 X147.74 Y141.38 E125.63267
G1 X148.41 Y141.11 E125.65084
G1 X149.11 Y140.89 E125.66904
G1 X149.81 Y140.71 E125.68700
G1 X150.51 Y140.56 E125.70501
G1 X151.25 Y140.47 E125.72346
G1 X151.95 Y140.41 E125.74104
G1 X152.69 Y140.40 E125.75943
G1 X153.39 Y140.43 E125.77704
G1 X154.12 Y140.51 E125.79532
G1 X154.84 Y140.63 E125.81353
G1 X155.54 Y140.79 E125.83144
G1 X156.24 Y140.99 E125.84950
G1 X156.91 Y141.24 E125.86743
G1 X157.59 Y141.52 E125.88569
G1 X158.23 Y141.84 E125.90362
G1 X158.86 Y142.21 E125.92192
G1 X159.46 Y142.60 E125.93976
G1 X160.04 Y143.04 E125.95776
G1 X160.59 Y143.51 E125.97584
G1 X161.12 Y144.01 E125.99418
G1 X161.60 Y144.54 E126.01191
G1 X162.07 Y145.11 E126.03033
G1 X162.49 Y145.68 E126.04797
G0 F12000 X154.21 Y151.47
G1 F4920 X154.00 Y151.19 E126.05690
G1 X153.74 Y150.93 E126.06611
G1 X153.38 Y150.71 E126.07658
G1 X153.11 Y150.60 E126.08376
G1 X152.76 Y150.52 E126.09266
G1 X152.41 Y150.50 E126.10160
G1 X152.05 Y150.55 E126.11052
G1 X151.71 Y150.66 E126.11946
G1 X151.39 Y150.84 E126.12866
G1 X151.07 Y151.11 E126.13908
G1 X150.88 Y151.32 E126.14624
G1 X150.70 Y151.63 E126.15521
G1 X150.57 Y151.97 E126.16416
G1 X150.51 Y152.32 E126.17309
G1 X150.51 Y152.68 E126.18202
G1 X150.57 Y153.03 E126.19094
G1 X150.70 Y153.38 E126.20016
G1 X150.93 Y153.73 E126.21063
G1 X151.12 Y153.94 E126.21779
G1 X151.40 Y154.17 E126.22670
G1 X151.71 Y154.34 E126.23565
G1 X152.05 Y154.45 E126.24459
G1 X152.41 Y154.50 E126.25350
G1 X152.78 Y154.48 E126.26272
G1 X153.18 Y154.37 E126.27312
G1 X153.44 Y154.26 E126.28030
G1 X153.74 Y154.06 E126.28927
G1 X154.00 Y153.81 E126.29821
G1 X154.21 Y153.53 E126.30714
G1 X154.37 Y153.20 E126.31611
G1 X154.46 Y152.86 E126.32502
G1 X154.50 Y152.50 E126.33396
G1 X154.46 Y152.13 E126.34315
G1 X154.34 Y151.73 E126.35358
G1 X154.21 Y151.47 E126.36076
G0 F12000 X153.87 Y151.68
;TYPE:WALL-OUTER
G1 F4920 X153.70 Y151.45 E126.36791
G1 X153.49 Y151.25 E126.37512
G1 X153.19 Y151.07 E126.38378
G1 X152.99 Y150.98 E126.38933
G1 X152.71 Y150.92 E126.39647
G1 X152.43 Y150.90 E126.40359
G1 X152.14 Y150.94 E126.41074
G1 X151.87 Y151.03 E126.41787
G1 X151.61 Y151.17 E126.42513
G1 X151.35 Y151.39 E126.43376
G1 X151.21 Y151.56 E126.43929
G1 X151.06 Y151.81 E126.44644
G1 X150.96 Y152.08 E126.45361
G1 X150.91 Y152.36 E126.46073
G1 X150.91 Y152.64 E126.46787
G1 X150.96 Y152.92 E126.47499
G1 X151.06 Y153.20 E126.48224
G1 X151.25 Y153.49 E126.49090
G1 X151.39 Y153.65 E126.49643
G1 X151.62 Y153.83 E126.50357
G1 X151.87 Y153.97 E126.51073
G1 X152.14 Y154.06 E126.51786
G1 X152.43 Y154.10 E126.52501
G1 X152.72 Y154.08 E126.53223
G1 X153.05 Y153.99 E126.54085
G1 X153.25 Y153.91 E126.54641
G1 X153.49 Y153.75 E126.55355
G1 X153.70 Y153.55 E126.56070
G1 X153.87 Y153.32 E126.56785
G1 X153.99 Y153.06 E126.57502
G1 X154.07 Y152.78 E126.58214
G1 X154.09 Y152.50 E126.58928
G1 X154.07 Y152.21 E126.59649
G1 X153.97 Y151.88 E126.60513
G1 X153.87 Y151.68 E126.61069
G0 F12000 X154.11 Y151.51
G0 X162.97 Y146.25
G0 X163.23 Y146.09
G1 F4920 X163.59 Y146.75 E126.62931
G1 X163.91 Y147.41 E126.64770
G1 X164.20 Y148.11 E126.66665
G1 X164.44 Y148.81 E126.68499
G1 X164.64 Y149.53 E126.70368
G1 X164.80 Y150.28 E126.72263
G1 X164.91 Y151.01 E126.74127
G1 X164.97 Y151.75 E126.75963
G1 X165.00 Y152.49 E126.77827
G1 X164.97 Y153.25 E126.79719
G1 X164.91 Y153.99 E126.81557
G1 X164.80 Y154.72 E126.83421
G1 X164.64 Y155.47 E126.85314
G1 X164.44 Y156.19 E126.87183
G1 X164.20 Y156.89 E126.89019
G1 X163.92 Y157.58 E126.90884
G1 X163.59 Y158.25 E126.92753
G1 X163.23 Y158.91 E126.94616
G1 X162.82 Y159.54 E126.96503
G1 X162.39 Y160.14 E126.98348
G1 X161.91 Y160.72 E127.00232
G1 X161.40 Y161.27 E127.02096
G1 X160.86 Y161.79 E127.03961
G1 X160.29 Y162.27 E127.05830
G1 X159.69 Y162.72 E127.07694
G1 X159.07 Y163.13 E127.09561
G1 X158.42 Y163.51 E127.11418
G1 X157.76 Y163.84 E127.13274
G1 X157.06 Y164.14 E127.15170
G1 X156.37 Y164.39 E127.17004
G1 X155.64 Y164.60 E127.18888
G1 X154.91 Y164.76 E127.20755
G1 X154.18 Y164.89 E127.22602
G1 X153.43 Y164.96 E127.24475
G1 X152.68 Y165.00 E127.26353
G1 X151.93 Y164.99 E127.28224
G1 X151.19 Y164.93 E127.30065
G1 X150.45 Y164.83 E127.31941
G1 X149.72 Y164.69 E127.33792
G1 X148.99 Y164.50 E127.35689
G1 X148.28 Y164.27 E127.37538
G1 X147.58 Y163.99 E127.39418
G1 X146.91 Y163.68 E127.41253
G1 X146.24 Y163.32 E127.43148
G1 X145.61 Y162.93 E127.45015
G1 X145.01 Y162.50 E127.46848
G1 X144.42 Y162.04 E127.48717
G1 X143.85 Y161.53 E127.50613
G1 X143.34 Y161.01 E127.52445
G1 X142.84 Y160.43 E127.54342
G1 X142.39 Y159.85 E127.56181
G1 X141.97 Y159.23 E127.58044
G1 X141.58 Y158.58 E127.59942
G1 X141.24 Y157.93 E127.61775
G1 X140.93 Y157.24 E127.63670
G1 X140.67 Y156.54 E127.65514
G1 X140.45 Y155.82 E127.67403
G1 X140.27 Y155.10 E127.69239
G1 X140.14 Y154.37 E127.71112
G1 X140.05 Y153.61 E127.72999
G1 X140.00 Y152.87 E127.74866
G1 X140.00 Y152.13 E127.76697
G1 X140.05 Y151.39 E127.78564
G1 X140.14 Y150.63 E127.80458
G1 X140.27 Y149.90 E127.82324
G1 X140.45 Y149.18 E127.84160
G1 X140.67 Y148.46 E127.86055
G1 X140.93 Y147.76 E127.87893
G1 X141.24 Y147.07 E127.89788
G1 X141.58 Y146.42 E127.91620
G1 X141.97 Y145.77 E127.93519
G1 X142.39 Y145.15 E127.95382
G1 X142.84 Y144.57 E127.97221
G1 X143.34 Y143.99 E127.99118
G1 X143.85 Y143.47 E128.00951
G1 X144.42 Y142.96 E128.02846
G1 X145.00 Y142.50 E128.04713
G1 X145.61 Y142.07 E128.06548
G1 X146.24 Y141.68 E128.08415
G1 X146.91 Y141.32 E128.10310
G1 X147.58 Y141.01 E128.12145
G1 X148.28 Y140.73 E128.14026
G1 X148.99 Y140.50 E128.15875
G1 X149.72 Y140.31 E128.17771
G1 X150.45 Y140.17 E128.19623
G1 X151.19 Y140.07 E128.21498
G1 X151.93 Y140.01 E128.23339
G1 X152.68 Y140.00 E128.25210
G1 X153.43 Y140.04 E128.27088
G1 X154.18 Y140.11 E128.28962
G1 X154.91 Y140.24 E128.30808
G1 X155.64 Y140.40 E128.32675
G1 X156.37 Y140.61 E128.34559
G1 X157.06 Y140.86 E128.36393
G1 X157.76 Y141.16 E128.38290
G1 X158.42 Y141.49 E128.40145
G1 X159.06 Y141.86 E128.41993
G1 X159.69 Y142.28 E128.43870
G1 X160.29 Y142.72 E128.45725
G1 X160.86 Y143.21 E128.47592
G1 X161.40 Y143.72 E128.49455
G1 X161.91 Y144.27 E128.51321
G1 X162.38 Y144.85 E128.53187
G1 X162.82 Y145.45 E128.55051
G1 X163.23 Y146.09 E128.56948
G0 F12000 X162.77 Y146.38
;TYPE:FILL
G1 F4920 X146.38 Y162.77 E129.14775
G0 F12000 X146.03 Y162.55
G1 F4920 X162.55 Y146.03 E129.73057
G0 F12000 X162.32 Y145.69
G1 F4920 X154.11 Y153.91 E130.02047
G1 X145.69 Y162.33 E130.31745
G0 F12000 X145.36 Y162.09
G1 F4920 X152.84 Y154.61 E130.58154
G0 F12000 X152.26 Y154.62
G1 F4920 X145.04 Y161.84 E130.83640
G0 F12000 X144.73 Y161.59
G1 F4920 X151.80 Y154.51 E131.08599
G0 F12000 X151.41 Y154.34
G1 F4920 X144.43 Y161.32 E131.33237
G0 F12000 X144.14 Y161.05
G1 F4920 X151.09 Y154.10 E131.57752
G0 F12000 X150.81 Y153.81
G1 F4920 X143.86 Y160.76 E131.82280
G0 F12000 X143.59 Y160.47
G1 F4920 X150.59 Y153.47 E132.06982
G0 F12000 X150.43 Y153.06
G1 F4920 X143.32 Y160.17 E132.32057
G0 F12000 X143.07 Y159.85
G1 F4920 X150.37 Y152.56 E132.57782
G0 F12000 X150.44 Y151.92
G1 F4920 X142.83 Y159.53 E132.84630
G0 F12000 X142.60 Y159.20
G1 F4920 X159.19 Y142.60 E133.43187
G0 F12000 X159.53 Y142.83
G1 F4920 X151.91 Y150.45 E133.70072
G0 F12000 X152.55 Y150.37
G1 F4920 X159.85 Y143.07 E133.95813
G0 F12000 X160.16 Y143.33
G1 F4920 X153.05 Y150.44 E134.20908
G0 F12000 X153.46 Y150.60
G1 F4920 X160.47 Y143.59 E134.45637
G0 F12000 X160.76 Y143.86
G1 F4920 X153.81 Y150.81 E134.70153
G0 F12000 X154.10 Y151.09
G1 F4920 X161.04 Y144.14 E134.94652
G0 F12000 X161.32 Y144.44
G1 F4920 X154.34 Y151.41 E135.19272
G0 F12000 X154.51 Y151.81
G1 F4920 X161.59 Y144.73 E135.44238
G0 F12000 X161.84 Y145.04
G1 F4920 X154.62 Y152.27 E135.69728
G0 F12000 X154.60 Y152.84
G1 F4920 X162.09 Y145.36 E135.96120
G0 F12000 X162.97 Y146.74
G1 F4920 X146.74 Y162.98 E136.53393
G0 F12000 X147.10 Y163.17
G1 F4920 X163.17 Y147.11 E137.10058
G0 F12000 X163.35 Y147.49
G1 F4920 X147.49 Y163.35 E137.66020
G0 F12000 X147.88 Y163.53
G1 F4920 X163.52 Y147.88 E138.21209
G0 F12000 X163.69 Y148.29
G1 F4920 X148.29 Y163.69 E138.75544
G0 F12000 X148.70 Y163.84
G1 F4920 X163.83 Y148.71 E139.28912
G0 F12000 X163.97 Y149.14
G1 F4920 X149.13 Y163.97 E139.81253
G0 F12000 X149.58 Y164.09
G1 F4920 X164.09 Y149.58 E140.32443
G0 F12000 X164.19 Y150.04
G1 F4920 X150.04 Y164.20 E140.82379
G0 F12000 X150.51 Y164.29
G1 F4920 X164.29 Y150.52 E141.30977
G0 F12000 X164.36 Y151.01
G1 F4920 X151.01 Y164.36 E141.78080
G0 F12000 X151.52 Y164.41
G1 F4920 X164.41 Y151.52 E142.23555
G0 F12000 X164.44 Y152.06
G1 F4920 X152.05 Y164.45 E142.67264
G0 F12000 X152.61 Y164.46
G1 F4920 X164.45 Y152.62 E143.09038
G0 F12000 X164.43 Y153.20
G1 F4920 X153.20 Y164.43 E143.48676
G0 F12000 X153.82 Y164.38
G1 F4920 X164.38 Y153.82 E143.85940
G0 F12000 X164.29 Y154.47
G1 F4920 X154.47 Y164.29 E144.20556
G0 F12000 X155.18 Y164.15
G1 F4920 X164.15 Y155.18 E144.52179
G0 F12000 X163.94 Y155.95
G1 F4920 X155.95 Y163.94 E144.80376
G0 F12000 X156.81 Y163.65
G1 F4920 X163.65 Y156.81 E145.04512
G0 F12000 X163.20 Y157.83
G1 F4920 X157.83 Y163.20 E145.23450
G0 F12000 X159.18 Y162.41
G1 F4920 X162.42 Y159.18 E145.34859
G0 F12000 X158.85 Y142.37
G1 F4920 X142.37 Y158.86 E145.93007
G0 F12000 X142.16 Y158.50
G1 F4920 X158.50 Y142.16 E146.50651
G0 F12000 X158.14 Y141.96
G1 F4920 X141.96 Y158.14 E147.07741
G0 F12000 X141.76 Y157.77
G1 F4920 X157.76 Y141.77 E147.64182
G0 F12000 X157.38 Y141.59
G1 F4920 X141.58 Y157.38 E148.19898
G0 F12000 X141.41 Y156.99
G1 F4920 X156.98 Y141.42 E148.74822
G0 F12000 X156.57 Y141.26
G1 F4920 X141.26 Y156.57 E149.28844
G0 F12000 X141.11 Y156.15
G1 F4920 X156.15 Y141.11 E149.81898
G0 F12000 X155.72 Y140.99
G1 F4920 X140.98 Y155.72 E150.33880
G0 F12000 X140.87 Y155.27
G1 F4920 X155.26 Y140.87 E150.84669
G0 F12000 X154.81 Y140.76
G1 F4920 X140.77 Y154.80 E151.34196
G0 F12000 X140.68 Y154.32
G1 F4920 X154.32 Y140.69 E151.82311
G0 F12000 X153.82 Y140.62
G1 F4920 X140.62 Y153.82 E152.28883
G0 F12000 X140.57 Y153.30
G1 F4920 X153.30 Y140.57 E152.73802
G0 F12000 X152.76 Y140.54
G1 F4920 X140.54 Y152.76 E153.16908
G0 F12000 X140.54 Y152.20
G1 F4920 X152.19 Y140.55 E153.58008
G0 F12000 X151.60 Y140.58
G1 F4920 X140.58 Y151.60 E153.96891
G0 F12000 X140.64 Y150.97
G1 F4920 X150.97 Y140.64 E154.33312
G0 F12000 X150.29 Y140.75
G1 F4920 X140.75 Y150.30 E154.66986
G0 F12000 X140.91 Y149.57
G1 F4920 X149.57 Y140.91 E154.97547
G0 F12000 X148.77 Y141.14
G1 F4920 X141.13 Y148.78 E155.24494
G0 F12000 X141.47 Y147.88
G1 F4920 X147.88 Y141.47 E155.47098
G0 F12000 X146.78 Y142.00
G1 F4920 X141.99 Y146.79 E155.64005
G0 F12000 X143.09 Y145.13
G1 F4920 X145.14 Y143.08 E155.71249
;LAYER:4
G0 F12000 X145.24 Y142.82 Z0.85
;TYPE:WALL-INNER
G1 F6000 X145.83 Y142.41 E155.73038
G1 X146.46 Y142.01 E155.74894
G1 X147.08 Y141.68 E155.76649
G1 X147.74 Y141.38 E155.78456
G1 X148.41 Y141.11 E155.80273
G1 X149.11 Y140.89 E155.82093
G1 X149.81 Y140.71 E155.83889
G1 X150.51 Y140.56 E155.85689
G1 X151.25 Y140.47 E155.87534
G1 X151.95 Y140.41 E155.89293
G1 X152.69 Y140.40 E155.91132
G1 X153.39 Y140.43 E155.92892
G1 X154.12 Y140.51 E155.94720
G1 X154.84 Y140.63 E155.96541
G1 X155.54 Y140.79 E155.98332
G1 X156.24 Y140.99 E156.00139
G1 X156.91 Y141.24 E156.01932
G1 X157.59 Y141.52 E156.03758
G1 X158.23 Y141.84 E156.05551
G1 X158.86 Y142.21 E156.07380
G1 X159.46 Y142.60 E156.09165
G1 X160.04 Y143.04 E156.10964
G1 X160.59 Y143.51 E156.12773
G1 X161.12 Y144.01 E156.14606
G1 X161.60 Y144.54 E156.16380
G1 X162.07 Y145.11 E156.18221
G1 X162.49 Y145.68 E156.19986
G1 X162.89 Y146.30 E156.21828
G1 X163.23 Y146.92 E156.23600
G1 X163.56 Y147.59 E156.25466
G1 X163.82 Y148.24 E156.27205
G1 X164.06 Y148.94 E156.29055
G1 X164.25 Y149.63 E156.30825
G1 X164.40 Y150.35 E156.32669
G1 X164.51 Y151.04 E156.34407
G1 X164.57 Y151.78 E156.36265
G1 X164.60 Y152.50 E156.38062
G1 X164.57 Y153.22 E156.39859
G1 X164.51 Y153.94 E156.41675
G1 X164.40 Y154.65 E156.43456
G1 X164.25 Y155.37 E156.45300
G1 X164.06 Y156.06 E156.47070
G1 X163.82 Y156.76 E156.48920
G1 X163.56 Y157.41 E156.50658
G1 X163.23 Y158.08 E156.52525
G1 X162.89 Y158.70 E156.54296
G1 X162.49 Y159.32 E156.56139
G1 X162.07 Y159.89 E156.57903
G1 X161.60 Y160.46 E156.59744
G1 X161.12 Y160.99 E156.61518
G1 X160.59 Y161.49 E156.63351
G1 X160.04 Y161.96 E156.65160
G1 X159.46 Y162.40 E156.66960
G1 X158.86 Y162.79 E156.68744
G1 X158.23 Y163.16 E156.70573
G1 X157.59 Y163.48 E156.72366
G1 X156.91 Y163.76 E156.74192
G1 X156.24 Y164.01 E156.75986
G1 X155.54 Y164.21 E156.77792
G1 X154.84 Y164.37 E156.79583
G1 X154.12 Y164.49 E156.81404
G1 X153.39 Y164.57 E156.83232
G1 X152.69 Y164.60 E156.84993
G1 X151.95 Y164.59 E156.86831
G1 X151.25 Y164.53 E156.88590
G1 X150.51 Y164.44 E156.90435
G1 X149.81 Y164.29 E156.92235
G1 X149.11 Y164.11 E156.94032
G1 X148.41 Y163.89 E156.95851
G1 X147.74 Y163.62 E156.97668
G1 X147.08 Y163.32 E156.99475
G1 X146.46 Y162.99 E157.01231
G1 X145.83 Y162.59 E157.03087
G1 X145.24 Y162.18 E157.04875
G1 X144.67 Y161.73 E157.06685
G1 X144.13 Y161.24 E157.08492
G1 X143.63 Y160.73 E157.10292
G1 X143.16 Y160.19 E157.12072
G1 X142.71 Y159.61 E157.13909
G1 X142.30 Y159.01 E157.15715
G1 X141.93 Y158.39 E157.17528
G1 X141.60 Y157.75 E157.19319
G1 X141.30 Y157.09 E157.21110
G1 X141.04 Y156.40 E157.22959
G1 X140.84 Y155.72 E157.24726
G1 X140.66 Y155.01 E157.26562
G1 X140.53 Y154.31 E157.28321
G1 X140.45 Y153.58 E157.30168
G1 X140.40 Y152.86 E157.31975
G1 X140.40 Y152.14 E157.33761
G1 X140.45 Y151.42 E157.35563
G1 X140.54 Y150.68 E157.37422
G1 X140.66 Y149.99 E157.39169
G1 X140.84 Y149.28 E157.41004
G1 X141.04 Y148.60 E157.42772
G1 X141.30 Y147.91 E157.44620
G1 X141.60 Y147.25 E157.46412
G1 X141.93 Y146.61 E157.48202
G1 X142.30 Y145.99 E157.50016
G1 X142.71 Y145.39 E157.51822
G1 X143.16 Y144.81 E157.53658
G1 X143.63 Y144.27 E157.55439
G1 X144.13 Y143.76 E157.57238
G1 X144.67 Y143.27 E157.59045
G1 X145.24 Y142.82 E157.60855
G0 F12000 X151.40 Y150.83
G1 F6000 X151.12 Y151.06 E157.61748
G1 X150.88 Y151.32 E157.62643
G1 X150.70 Y151.63 E157.63538
G1 X150.57 Y151.97 E157.64433
G1 X150.51 Y152.32 E157.65325
G1 X150.51 Y152.68 E157.66218
G1 X150.57 Y153.03 E157.67111
G1 X150.70 Y153.37 E157.68006
G1 X150.88 Y153.68 E157.68901
G1 X151.12 Y153.94 E157.69795
G1 X151.40 Y154.17 E157.70688
G1 X151.71 Y154.34 E157.71584
G1 X152.05 Y154.45 E157.72477
G1 X152.41 Y154.50 E157.73369
G1 X152.76 Y154.48 E157.74263
G1 X153.11 Y154.40 E157.75156
G1 X153.44 Y154.26 E157.76050
G1 X153.74 Y154.06 E157.76947
G1 X154.00 Y153.81 E157.77841
G1 X154.21 Y153.53 E157.78734
G1 X154.37 Y153.20 E157.79631
G1 X154.46 Y152.86 E157.80522
G1 X154.50 Y152.50 E157.81416
G1 X154.46 Y152.14 E157.82310
G1 X154.37 Y151.80 E157.83201
G1 X154.21 Y151.47 E157.84098
G1 X154.00 Y151.19 E157.84991
G1 X153.74 Y150.94 E157.85885
G1 X153.43 Y150.73 E157.86812
G1 X153.03 Y150.58 E157.87895
G1 X152.76 Y150.52 E157.88568
G1 X152.41 Y150.50 E157.89461
G1 X152.05 Y150.55 E157.90353
G1 X151.71 Y150.66 E157.91247
G1 X151.40 Y150.83 E157.92142
G0 F12000 X151.62 Y151.17
;TYPE:WALL-OUTER
G1 F6000 X151.39 Y151.35 E157.92857
G1 X151.21 Y151.56 E157.93570
G1 X151.06 Y151.81 E157.94284
G1 X150.96 Y152.08 E157.95001
G1 X150.91 Y152.36 E157.95714
G1 X150.91 Y152.64 E157.96427
G1 X150.96 Y152.92 E157.97139
G1 X151.06 Y153.19 E157.97856
G1 X151.21 Y153.44 E157.98571
G1 X151.39 Y153.65 E157.99283
G1 X151.62 Y153.83 E157.99999
G1 X151.87 Y153.97 E158.00715
G1 X152.14 Y154.06 E158.01428
G1 X152.43 Y154.10 E158.02143
G1 X152.71 Y154.08 E158.02855
G1 X152.99 Y154.02 E158.03569
G1 X153.25 Y153.91 E158.04285
G1 X153.49 Y153.75 E158.04999
G1 X153.70 Y153.55 E158.05714
G1 X153.87 Y153.32 E158.06428
G1 X153.99 Y153.06 E158.07146
G1 X154.07 Y152.78 E158.07857
G1 X154.09 Y152.50 E158.08571
G1 X154.07 Y152.22 E158.09285
G1 X153.99 Y151.94 E158.09997
G1 X153.87 Y151.68 E158.10714
G1 X153.70 Y151.45 E158.11429
G1 X153.49 Y151.25 E158.12143
G1 X153.25 Y151.09 E158.12867
G1 X152.91 Y150.96 E158.13771
G1 X152.71 Y150.92 E158.14285
G1 X152.43 Y150.90 E158.14997
G1 X152.14 Y150.94 E158.15712
G1 X151.87 Y151.03 E158.16425
G1 X151.62 Y151.17 E158.17142
G0 F12000 X151.43 Y150.93
G0 X145.78 Y142.32
G0 X145.61 Y142.07
G1 F6000 X146.24 Y141.68 E158.19009
G1 X146.91 Y141.32 E158.20904
G1 X147.58 Y141.01 E158.22739
G1 X148.28 Y140.73 E158.24619
G1 X148.99 Y140.50 E158.26468
G1 X149.72 Y140.31 E158.28365
G1 X150.45 Y140.17 E158.30216
G1 X151.19 Y140.07 E158.32092
G1 X151.93 Y140.01 E158.33933
G1 X152.68 Y140.00 E158.35804
G1 X153.43 Y140.04 E158.37682
G1 X154.18 Y140.11 E158.39555
G1 X154.91 Y140.24 E158.41402
G1 X155.64 Y140.40 E158.43269
G1 X156.37 Y140.61 E158.45153
G1 X157.06 Y140.86 E158.46987
G1 X157.76 Y141.16 E158.48883
G1 X158.42 Y141.49 E158.50739
G1 X159.06 Y141.86 E158.52587
G1 X159.69 Y142.28 E158.54463
G1 X160.29 Y142.72 E158.56318
G1 X160.86 Y143.21 E158.58186
G1 X161.40 Y143.72 E158.60049
G1 X161.91 Y144.27 E158.61914
G1 X162.38 Y144.85 E158.63781
G1 X162.82 Y145.45 E158.65645
G1 X163.23 Y146.09 E158.67541
G1 X163.59 Y146.75 E158.69404
G1 X163.91 Y147.41 E158.71243
G1 X164.20 Y148.11 E158.73138
G1 X164.44 Y148.81 E158.74972
G1 X164.64 Y149.53 E158.76841
G1 X164.80 Y150.28 E158.78736
G1 X164.91 Y151.01 E158.80600
G1 X164.97 Y151.75 E158.82436
G1 X165.00 Y152.49 E158.84300
G1 X164.97 Y153.25 E158.86192
G1 X164.91 Y153.99 E158.88030
G1 X164.80 Y154.72 E158.89894
G1 X164.64 Y155.47 E158.91787
G1 X164.44 Y156.19 E158.93655
G1 X164.20 Y156.89 E158.95492
G1 X163.92 Y157.58 E158.97357
G1 X163.59 Y158.25 E158.99226
G1 X163.23 Y158.91 E159.01088
G1 X162.82 Y159.54 E159.02976
G1 X162.39 Y160.14 E159.04821
G1 X161.91 Y160.72 E159.06705
G1 X161.40 Y161.27 E159.08569
G1 X160.86 Y161.79 E159.10434
G1 X160.29 Y162.27 E159.12303
G1 X159.69 Y162.72 E159.14166
G1 X159.07 Y163.13 E159.16034
G1 X158.42 Y163.51 E159.17891
G1 X157.76 Y163.84 E159.19746
G1 X157.06 Y164.14 E159.21643
G1 X156.37 Y164.39 E159.23477
G1 X155.64 Y164.60 E159.25361
G1 X154.91 Y164.76 E159.27228
G1 X154.18 Y164.89 E159.29075
G1 X153.43 Y164.96 E159.30948
G1 X152.68 Y165.00 E159.32826
G1 X151.93 Y164.99 E159.34697
G1 X151.19 Y164.93 E159.36538
G1 X150.45 Y164.83 E159.38413
G1 X149.72 Y164.69 E159.40265
G1 X148.99 Y164.50 E159.42161
G1 X148.28 Y164.27 E159.44010
G1 X147.58 Y163.99 E159.45891
G1 X146.91 Y163.68 E159.47726
G1 X146.24 Y163.32 E159.49621
G1 X145.61 Y162.93 E159.51488
G1 X145.01 Y162.50 E159.53321
G1 X144.42 Y162.04 E159.55190
G1 X143.85 Y161.53 E159.57085
G1 X143.34 Y161.01 E159.58918
G1 X142.84 Y160.43 E159.60815
G1 X142.39 Y159.85 E159.62654
G1 X141.97 Y159.23 E159.64517
G1 X141.58 Y158.58 E159.66414
G1 X141.24 Y157.93 E159.68247
G1 X140.93 Y157.24 E159.70142
G1 X140.67 Y156.54 E159.71986
G1 X140.45 Y155.82 E159.73876
G1 X140.27 Y155.10 E159.75712
G1 X140.14 Y154.37 E159.77585
G1 X140.05 Y153.61 E159.79472
G1 X140.00 Y152.87 E159.81339
G1 X140.00 Y152.13 E159.83170
G1 X140.05 Y151.39 E159.85037
G1 X140.14 Y150.63 E159.86931
G1 X140.27 Y149.90 E159.88797
G1 X140.45 Y149.18 E159.90632
G1 X140.67 Y148.46 E159.92528
G1 X140.93 Y147.76 E159.94366
G1 X141.24 Y147.07 E159.96261
G1 X141.58 Y146.42 E159.98093
G1 X141.97 Y145.77 E159.99992
G1 X142.39 Y145.15 E160.01855
G1 X142.84 Y144.57 E160.03694
G1 X143.34 Y143.99 E160.05591
G1 X143.85 Y143.47 E160.07423
G1 X144.42 Y142.96 E160.09319
G1 X145.00 Y142.50 E160.11186
G1 X145.61 Y142.07 E160.13021
G0 F12000 X145.75 Y142.63
;TYPE:FILL
G1 F6000 X162.37 Y159.25 E160.71652
G0 F12000 X162.13 Y159.58
G1 F6000 X154.58 Y152.03 E160.98283
G0 F12000 X154.62 Y152.64
G1 F6000 X161.88 Y159.90 E161.23899
G0 F12000 X161.63 Y160.21
G1 F6000 X154.53 Y153.12 E161.48923
G0 F12000 X154.37 Y153.52
G1 F6000 X161.37 Y160.52 E161.73603
G0 F12000 X161.09 Y160.81
G1 F6000 X154.14 Y153.86 E161.98121
G0 F12000 X153.86 Y154.14
G1 F6000 X160.81 Y161.09 E162.22621
G0 F12000 X160.52 Y161.37
G1 F6000 X153.53 Y154.37 E162.47288
G0 F12000 X153.13 Y154.54
G1 F6000 X160.21 Y161.63 E162.72285
G0 F12000 X159.91 Y161.88
G1 F6000 X152.65 Y154.63 E162.97893
G0 F12000 X152.04 Y154.59
G1 F6000 X159.58 Y162.13 E163.24489
G0 F12000 X159.25 Y162.36
G1 F6000 X142.63 Y145.75 E163.83112
G0 F12000 X142.87 Y145.41
G1 F6000 X150.41 Y152.96 E164.09741
G0 F12000 X150.37 Y152.35
G1 F6000 X143.11 Y145.09 E164.35325
G0 F12000 X143.37 Y144.78
G1 F6000 X150.46 Y151.87 E164.60337
G0 F12000 X150.63 Y151.47
G1 F6000 X143.63 Y144.48 E164.85020
G0 F12000 X143.90 Y144.19
G1 F6000 X150.86 Y151.14 E165.09546
G0 F12000 X151.14 Y150.85
G1 F6000 X144.19 Y143.90 E165.34074
G0 F12000 X144.48 Y143.63
G1 F6000 X151.48 Y150.63 E165.58751
G0 F12000 X151.88 Y150.46
G1 F6000 X144.78 Y143.37 E165.83784
G0 F12000 X145.09 Y143.11
G1 F6000 X152.35 Y150.37 E166.09374
G0 F12000 X152.97 Y150.42
G1 F6000 X145.41 Y142.87 E166.36027
G0 F12000 X146.09 Y142.41
G1 F6000 X162.59 Y158.91 E166.94238
G0 F12000 X162.80 Y158.56
G1 F6000 X146.44 Y142.19 E167.51981
G0 F12000 X146.80 Y141.99
G1 F6000 X163.00 Y158.20 E168.09152
G0 F12000 X163.20 Y157.82
G1 F6000 X147.17 Y141.79 E168.65706
G0 F12000 X147.55 Y141.62
G1 F6000 X163.38 Y157.44 E169.21545
G0 F12000 X163.55 Y157.05
G1 F6000 X147.95 Y141.44 E169.76592
G0 F12000 X148.35 Y141.28
G1 F6000 X163.71 Y156.64 E170.30775
G0 F12000 X163.86 Y156.22
G1 F6000 X148.78 Y141.14 E170.83979
G0 F12000 X149.21 Y141.00
G1 F6000 X163.99 Y155.79 E171.36127
G0 F12000 X164.11 Y155.34
G1 F6000 X149.66 Y140.89 E171.87123
G0 F12000 X150.12 Y140.78
G1 F6000 X164.21 Y154.88 E172.36839
G0 F12000 X164.30 Y154.40
G1 F6000 X150.59 Y140.69 E172.85186
G0 F12000 X151.09 Y140.63
G1 F6000 X164.37 Y153.91 E173.32033
G0 F12000 X164.42 Y153.39
G1 F6000 X151.61 Y140.58 E173.77223
G0 F12000 X152.15 Y140.55
G1 F6000 X164.44 Y152.85 E174.20610
G0 F12000 X164.45 Y152.29
G1 F6000 X152.71 Y140.54 E174.62040
G0 F12000 X153.30 Y140.57
G1 F6000 X164.43 Y151.70 E175.01300
G0 F12000 X164.37 Y151.08
G1 F6000 X153.93 Y140.63 E175.38152
G0 F12000 X154.59 Y140.73
G1 F6000 X164.27 Y150.41 E175.72307
G0 F12000 X164.12 Y149.69
G1 F6000 X155.30 Y140.88 E176.03408
G0 F12000 X156.09 Y141.09
G1 F6000 X163.90 Y148.91 E176.30981
G0 F12000 X163.58 Y148.03
G1 F6000 X156.97 Y141.41 E176.54314
G0 F12000 X158.02 Y141.90
G1 F6000 X163.11 Y146.99 E176.72269
G0 F12000 X162.18 Y145.50
G1 F6000 X159.49 Y142.80 E176.81762
G0 F12000 X142.41 Y146.08
G1 F6000 X158.91 Y162.59 E177.39984
G0 F12000 X158.56 Y162.80
G1 F6000 X142.19 Y146.44 E177.97714
G0 F12000 X141.99 Y146.80
G1 F6000 X158.20 Y163.01 E178.54908
G0 F12000 X157.82 Y163.20
G1 F6000 X141.79 Y147.17 E179.11462
G0 F12000 X141.61 Y147.55
G1 F6000 X157.44 Y163.38 E179.67310
G0 F12000 X157.05 Y163.55
G1 F6000 X141.44 Y147.94 E180.22373
G0 F12000 X141.28 Y148.35
G1 F6000 X156.64 Y163.71 E180.76553
G0 F12000 X156.22 Y163.86
G1 F6000 X141.13 Y148.77 E181.29783
G0 F12000 X141.00 Y149.20
G1 F6000 X155.79 Y163.99 E181.81943
G0 F12000 X155.34 Y164.11
G1 F6000 X140.89 Y149.65 E182.32941
G0 F12000 X140.78 Y150.11
G1 F6000 X154.88 Y164.22 E182.82686
G0 F12000 X154.40 Y164.30
G1 F6000 X140.69 Y150.59 E183.31043
G0 F12000 X140.63 Y151.09
G1 F6000 X153.91 Y164.37 E183.77884
G0 F12000 X153.39 Y164.42
G1 F6000 X140.57 Y151.60 E184.23107
G0 F12000 X140.54 Y152.14
G1 F6000 X152.85 Y164.45 E184.66534
G0 F12000 X152.29 Y164.45
G1 F6000 X140.54 Y152.70 E185.07973
G0 F12000 X140.57 Y153.30
G1 F6000 X151.70 Y164.43 E185.47237
G0 F12000 X151.08 Y164.37
G1 F6000 X140.63 Y153.92 E185.84089
G0 F12000 X140.73 Y154.59
G1 F6000 X150.41 Y164.27 E186.18259
G0 F12000 X149.69 Y164.12
G1 F6000 X140.88 Y155.30 E186.49374
G0 F12000 X141.09 Y156.08
G1 F6000 X148.91 Y163.90 E186.76965
G0 F12000 X148.03 Y163.59
G1 F6000 X141.40 Y156.96 E187.00360
G0 F12000 X141.89 Y158.01
G1 F6000 X146.99 Y163.11 E187.18348
G0 F12000 X145.52 Y162.20
G1 F6000 X142.78 Y159.47 E187.28003
;LAYER:5
G0 F12000 X142.71 Y159.61 Z1.00
;TYPE:WALL-INNER
G1 F6000 X142.30 Y159.01 E187.29809
G1 X141.93 Y158.39 E187.31622
G1 X141.60 Y157.75 E187.33413
G1 X141.30 Y157.09 E187.35204
G1 X141.04 Y156.40 E187.37053
G1 X140.84 Y155.72 E187.38820
G1 X140.66 Y155.01 E187.40656
G1 X140.53 Y154.31 E187.42416
G1 X140.45 Y153.58 E187.44262
G1 X140.40 Y152.86 E187.46069
G1 X140.40 Y152.14 E187.47855
G1 X140.45 Y151.42 E187.49657
G1 X140.54 Y150.68 E187.51516
G1 X140.66 Y149.99 E187.53263
G1 X140.84 Y149.28 E187.55099
G1 X141.04 Y148.60 E187.56866
G1 X141.30 Y147.91 E187.58715
G1 X141.60 Y147.25 E187.60506
G1 X141.93 Y146.61 E187.62297
G1 X142.30 Y145.99 E187.64110
G1 X142.71 Y145.39 E187.65916
G1 X143.16 Y144.81 E187.67753
G1 X143.63 Y144.27 E187.69533
G1 X144.13 Y143.76 E187.71332
G1 X144.67 Y143.27 E187.73139
G1 X145.24 Y142.82 E187.74950
G1 X145.83 Y142.41 E187.76738
G1 X146.46 Y142.01 E187.78594
G1 X147.08 Y141.68 E187.80350
G1 X147.74 Y141.38 E187.82156
G1 X148.41 Y141.11 E187.83973
G1 X149.11 Y140.89 E187.85793
G1 X149.81 Y140.71 E187.87589
G1 X150.51 Y140.56 E187.89390
G1 X151.25 Y140.47 E187.91235
G1 X151.95 Y140.41 E187.92993
G1 X152.69 Y140.40 E187.94832
G1 X153.39 Y140.43 E187.96593
G1 X154.12 Y140.51 E187.98421
G1 X154.84 Y140.63 E188.00242
G1 X155.54 Y140.79 E188.02033
G1 X156.24 Y140.99 E188.03839
G1 X156.91 Y141.24 E188.05632
G1 X157.59 Y141.52 E188.07459
G1 X158.23 Y141.84 E188.09251
G1 X158.86 Y142.21 E188.11081
G1 X159.46 Y142.60 E188.12865
G1 X160.04 Y143.04 E188.14665
G1 X160.59 Y143.51 E188.16473
G1 X161.12 Y144.01 E188.18307
G1 X161.60 Y144.54 E188.20080
G1 X162.07 Y145.11 E188.21922
G1 X162.49 Y145.68 E188.23686
G1 X162.89 Y146.30 E188.25529
G1 X163.23 Y146.92 E188.27300
G1 X163.56 Y147.59 E188.29167
G1 X163.82 Y148.24 E188.30905
G1 X164.06 Y148.94 E188.32755
G1 X164.25 Y149.63 E188.34525
G1 X164.40 Y150.35 E188.36369
G1 X164.51 Y151.04 E188.38107
G1 X164.57 Y151.78 E188.39966
G1 X164.60 Y152.50 E188.41763
G1 X164.57 Y153.22 E188.43559
G1 X164.51 Y153.94 E188.45375
G1 X164.40 Y154.65 E188.47156
G1 X164.25 Y155.37 E188.49000
G1 X164.06 Y156.06 E188.50770
G1 X163.82 Y156.76 E188.52620
G1 X163.56 Y157.41 E188.54359
G1 X163.23 Y158.08 E188.56225
G1 X162.89 Y158.70 E188.57996
G1 X162.49 Y159.32 E188.59839
G1 X162.07 Y159.89 E188.61603
G1 X161.60 Y160.46 E188.63445
G1 X161.12 Y160.99 E188.65219
G1 X160.59 Y161.49 E188.67052
G1 X160.04 Y161.96 E188.68860
G1 X159.46 Y162.40 E188.70660
G1 X158.86 Y162.79 E188.72444
G1 X158.23 Y163.16 E188.74274
G1 X157.59 Y163.48 E188.76067
G1 X156.91 Y163.76 E188.77893
G1 X156.24 Y164.01 E188.79686
G1 X155.54 Y164.21 E188.81492
G1 X154.84 Y164.37 E188.83283
G1 X154.12 Y164.49 E188.85104
G1 X153.39 Y164.57 E188.86933
G1 X152.69 Y164.60 E188.88693
G1 X151.95 Y164.59 E188.90532
G1 X151.25 Y164.53 E188.92290
G1 X150.51 Y164.44 E188.94135
G1 X149.81 Y164.29 E188.95936
G1 X149.11 Y164.11 E188.97732
G1 X148.41 Y163.89 E188.99552
G1 X147.74 Y163.62 E189.01369
G1 X147.08 Y163.32 E189.03176
G1 X146.46 Y162.99 E189.04931
G1 X145.83 Y162.59 E189.06787
G1 X145.24 Y162.18 E189.08575
G1 X144.67 Y161.73 E189.10386
G1 X144.13 Y161.24 E189.12193
G1 X143.63 Y160.73 E189.13992
G1 X143.16 Y160.19 E189.15773
G1 X142.71 Y159.61 E189.17609
G0 F12000 X150.88 Y153.68
G1 F6000 X151.12 Y153.94 E189.18504
G1 X151.40 Y154.17 E189.19397
G1 X151.71 Y154.34 E189.20292
G1 X152.05 Y154.45 E189.21186
G1 X152.41 Y154.50 E189.22077
G1 X152.76 Y154.48 E189.22971
G1 X153.11 Y154.40 E189.23864
G1 X153.44 Y154.26 E189.24758
G1 X153.74 Y154.06 E189.25655
G1 X154.00 Y153.81 E189.26549
G1 X154.21 Y153.53 E189.27443
G1 X154.37 Y153.20 E189.28340
G1 X154.46 Y152.86 E189.29230
G1 X154.50 Y152.50 E189.30124
G1 X154.46 Y152.14 E189.31019
G1 X154.37 Y151.80 E189.31909
G1 X154.21 Y151.47 E189.32806
G1 X154.00 Y151.19 E189.33699
G1 X153.74 Y150.94 E189.34593
G1 X153.44 Y150.74 E189.35490
G1 X153.11 Y150.60 E189.36384
G1 X152.76 Y150.52 E189.37277
G1 X152.41 Y150.50 E189.38171
G1 X152.05 Y150.55 E189.39063
G1 X151.71 Y150.66 E189.39957
G1 X151.40 Y150.83 E189.40852
G1 X151.12 Y151.06 E189.41745
G1 X150.88 Y151.32 E189.42639
G1 X150.70 Y151.63 E189.43534
G1 X150.57 Y151.97 E189.44429
G1 X150.51 Y152.32 E189.45322
G1 X150.51 Y152.68 E189.46215
G1 X150.57 Y153.03 E189.47107
G1 X150.70 Y153.37 E189.48002
G1 X150.88 Y153.68 E189.48897
G0 F12000 X151.21 Y153.44
;TYPE:WALL-OUTER
G1 F6000 X151.39 Y153.65 E189.49610
G1 X151.62 Y153.83 E189.50325
G1 X151.87 Y153.97 E189.51042
G1 X152.14 Y154.06 E189.51755
G1 X152.43 Y154.10 E189.52470
G1 X152.71 Y154.08 E189.53182
G1 X152.99 Y154.02 E189.53896
G1 X153.25 Y153.91 E189.54611
G1 X153.49 Y153.75 E189.55326
G1 X153.70 Y153.55 E189.56040
G1 X153.87 Y153.32 E189.56755
G1 X153.99 Y153.06 E189.57472
G1 X154.07 Y152.78 E189.58184
G1 X154.09 Y152.50 E189.58898
G1 X154.07 Y152.22 E189.59612
G1 X153.99 Y151.94 E189.60323
G1 X153.87 Y151.68 E189.61041
G1 X153.70 Y151.45 E189.61755
G1 X153.49 Y151.25 E189.62470
G1 X153.25 Y151.09 E189.63184
G1 X152.99 Y150.98 E189.63900
G1 X152.71 Y150.92 E189.64614
G1 X152.43 Y150.90 E189.65326
G1 X152.14 Y150.94 E189.66041
G1 X151.87 Y151.03 E189.66754
G1 X151.62 Y151.17 E189.67470
G1 X151.39 Y151.35 E189.68186
G1 X151.21 Y151.56 E189.68898
G1 X151.06 Y151.81 E189.69613
G1 X150.96 Y152.08 E189.70330
G1 X150.91 Y152.36 E189.71042
G1 X150.91 Y152.64 E189.71755
G1 X150.96 Y152.92 E189.72468
G1 X151.06 Y153.19 E189.73185
G1 X151.21 Y153.44 E189.73899
G0 F12000 X150.98 Y153.63
G0 X142.63 Y159.68
G0 X142.39 Y159.85
G1 F6000 X141.97 Y159.23 E189.75763
G1 X141.58 Y158.58 E189.77660
G1 X141.24 Y157.93 E189.79493
G1 X140.93 Y157.24 E189.81388
G1 X140.67 Y156.54 E189.83232
G1 X140.45 Y155.82 E189.85122
G1 X140.27 Y155.10 E189.86958
G1 X140.14 Y154.37 E189.88831
G1 X140.05 Y153.61 E189.90718
G1 X140.00 Y152.87 E189.92585
G1 X140.00 Y152.13 E189.94415
G1 X140.05 Y151.39 E189.96282
G1 X140.14 Y150.63 E189.98177
G1 X140.27 Y149.90 E190.00042
G1 X140.45 Y149.18 E190.01878
G1 X140.67 Y148.46 E190.03773
G1 X140.93 Y147.76 E190.05612
G1 X141.24 Y147.07 E190.07507
G1 X141.58 Y146.42 E190.09339
G1 X141.97 Y145.77 E190.11237
G1 X142.39 Y145.15 E190.13101
G1 X142.84 Y144.57 E190.14939
G1 X143.34 Y143.99 E190.16836
G1 X143.85 Y143.47 E190.18669
G1 X144.42 Y142.96 E190.20564
G1 X145.00 Y142.50 E190.22432
G1 X145.61 Y142.07 E190.24266
G1 X146.24 Y141.68 E190.26133
G1 X146.91 Y141.32 E190.28029
G1 X147.58 Y141.01 E190.29863
G1 X148.28 Y140.73 E190.31744
G1 X148.99 Y140.50 E190.33593
G1 X149.72 Y140.31 E190.35490
G1 X150.45 Y140.17 E190.37341
G1 X151.19 Y140.07 E190.39217
G1 X151.93 Y140.01 E190.41058
G1 X152.68 Y140.00 E190.42929
G1 X153.43 Y140.04 E190.44806
G1 X154.18 Y140.11 E190.46680
G1 X154.91 Y140.24 E190.48526
G1 X155.64 Y140.40 E190.50394
G1 X156.37 Y140.61 E190.52278
G1 X157.06 Y140.86 E190.54112
G1 X157.76 Y141.16 E190.56008
G1 X158.42 Y141.49 E190.57863
G1 X159.06 Y141.86 E190.59712
G1 X159.69 Y142.28 E190.61588
G1 X160.29 Y142.72 E190.63443
G1 X160.86 Y143.21 E190.65310
G1 X161.40 Y143.72 E190.67173
G1 X161.91 Y144.27 E190.69039
G1 X162.38 Y144.85 E190.70905
G1 X162.82 Y145.45 E190.72769
G1 X163.23 Y146.09 E190.74666
G1 X163.59 Y146.75 E190.76529
G1 X163.91 Y147.41 E190.78368
G1 X164.20 Y148.11 E190.80263
G1 X164.44 Y148.81 E190.82097
G1 X164.64 Y149.53 E190.83966
G1 X164.80 Y150.28 E190.85860
G1 X164.91 Y151.01 E190.87725
G1 X164.97 Y151.75 E190.89560
G1 X165.00 Y152.49 E190.91425
G1 X164.97 Y153.25 E190.93316
G1 X164.91 Y153.99 E190.95155
G1 X164.80 Y154.72 E190.97019
G1 X164.64 Y155.47 E190.98911
G1 X164.44 Y156.19 E191.00780
G1 X164.20 Y156.89 E191.02617
G1 X163.92 Y157.58 E191.04482
G1 X163.59 Y158.25 E191.06350
G1 X163.23 Y158.91 E191.08213
G1 X162.82 Y159.54 E191.10101
G1 X162.39 Y160.14 E191.11946
G1 X161.91 Y160.72 E191.13830
G1 X161.40 Y161.27 E191.15694
G1 X160.86 Y161.79 E191.17558
G1 X160.29 Y162.27 E191.19427
G1 X159.69 Y162.72 E191.21291
G1 X159.07 Y163.13 E191.23158
G1 X158.42 Y163.51 E191.25016
G1 X157.76 Y163.84 E191.26871
G1 X157.06 Y164.14 E191.28768
G1 X156.37 Y164.39 E191.30601
G1 X155.64 Y164.60 E191.32485
G1 X154.91 Y164.76 E191.34353
G1 X154.18 Y164.89 E191.36199
G1 X153.43 Y164.96 E191.38073
G1 X152.68 Y165.00 E191.39951
G1 X151.93 Y164.99 E191.41822
G1 X151.19 Y164.93 E191.43663
G1 X150.45 Y164.83 E191.45538
G1 X149.72 Y164.69 E191.47389
G1 X148.99 Y164.50 E191.49286
G1 X148.28 Y164.27 E191.51135
G1 X147.58 Y163.99 E191.53016
G1 X146.91 Y163.68 E191.54851
G1 X146.24 Y163.32 E191.56746
G1 X145.61 Y162.93 E191.58613
G1 X145.01 Y162.50 E191.60446
G1 X144.42 Y162.04 E191.62315
G1 X143.85 Y161.53 E191.64210
G1 X143.34 Y161.01 E191.66043
G1 X142.84 Y160.43 E191.67940
G1 X142.39 Y159.85 E191.69778
G0 F12000 X142.83 Y159.53
;TYPE:FILL
G1 F6000 X150.44 Y151.92 E191.96627
G0 F12000 X150.37 Y152.56
G1 F6000 X143.07 Y159.85 E192.22351
G0 F12000 X143.32 Y160.17
G1 F6000 X150.43 Y153.06 E192.47426
G0 F12000 X150.59 Y153.47
G1 F6000 X143.59 Y160.47 E192.72131
G0 F12000 X143.86 Y160.76
G1 F6000 X150.81 Y153.81 E192.96662
G0 F12000 X151.09 Y154.10
G1 F6000 X144.14 Y161.05 E193.21173
G0 F12000 X144.43 Y161.32
G1 F6000 X151.42 Y154.34 E193.45814
G0 F12000 X151.80 Y154.51
G1 F6000 X144.73 Y161.59 E193.70773
G0 F12000 X145.04 Y161.84
G1 F6000 X152.26 Y154.62 E193.96260
G0 F12000 X152.84 Y154.61
G1 F6000 X145.36 Y162.09 E194.22668
G0 F12000 X145.69 Y162.33
G1 F6000 X154.11 Y153.91 E194.52367
G1 X162.32 Y145.69 E194.81356
G0 F12000 X162.09 Y145.36
G1 F6000 X154.60 Y152.84 E195.07748
G0 F12000 X154.62 Y152.27
G1 F6000 X161.84 Y145.04 E195.33232
G0 F12000 X161.59 Y144.73
G1 F6000 X154.51 Y151.80 E195.58175
G0 F12000 X154.34 Y151.41
G1 F6000 X161.32 Y144.44 E195.82796
G0 F12000 X161.04 Y144.14
G1 F6000 X154.10 Y151.09 E196.07296
G0 F12000 X153.81 Y150.81
G1 F6000 X160.76 Y143.86 E196.31818
G0 F12000 X160.47 Y143.59
G1 F6000 X153.46 Y150.59 E196.56537
G0 F12000 X153.05 Y150.44
G1 F6000 X160.16 Y143.33 E196.81631
G0 F12000 X159.85 Y143.07
G1 F6000 X152.55 Y150.37 E197.07372
G0 F12000 X151.91 Y150.45
G1 F6000 X159.53 Y142.83 E197.34257
G0 F12000 X159.19 Y142.60
G1 F6000 X142.60 Y159.20 E197.92814
G0 F12000 X142.37 Y158.86
G1 F6000 X158.85 Y142.37 E198.50963
G0 F12000 X158.50 Y142.16
G1 F6000 X142.16 Y158.50 E199.08606
G0 F12000 X141.96 Y158.14
G1 F6000 X158.14 Y141.96 E199.65696
G0 F12000 X157.76 Y141.77
G1 F6000 X141.76 Y157.77 E200.22137
G0 F12000 X141.58 Y157.38
G1 F6000 X157.38 Y141.59 E200.77853
G0 F12000 X156.98 Y141.42
G1 F6000 X141.41 Y156.99 E201.32777
G0 F12000 X141.26 Y156.57
G1 F6000 X156.57 Y141.26 E201.86799
G0 F12000 X156.15 Y141.11
G1 F6000 X141.11 Y156.15 E202.39853
G0 F12000 X140.98 Y155.72
G1 F6000 X155.72 Y140.99 E202.91835
G0 F12000 X155.26 Y140.87
G1 F6000 X140.87 Y155.27 E203.42624
G0 F12000 X140.77 Y154.80
G1 F6000 X154.81 Y140.76 E203.92151
G0 F12000 X154.32 Y140.69
G1 F6000 X140.68 Y154.32 E204.40266
G0 F12000 X140.62 Y153.82
G1 F6000 X153.82 Y140.62 E204.86838
G0 F12000 X153.30 Y140.57
G1 F6000 X140.57 Y153.30 E205.31757
G0 F12000 X140.54 Y152.76
G1 F6000 X152.76 Y140.54 E205.74863
G0 F12000 X152.19 Y140.55
G1 F6000 X140.54 Y152.20 E206.15963
G0 F12000 X140.58 Y151.60
G1 F6000 X151.60 Y140.58 E206.54846
G0 F12000 X150.97 Y140.64
G1 F6000 X140.64 Y150.97 E206.91267
G0 F12000 X140.75 Y150.30
G1 F6000 X150.29 Y140.75 E207.24941
G0 F12000 X149.57 Y140.91
G1 F6000 X140.91 Y149.57 E207.55502
G0 F12000 X141.13 Y148.78
G1 F6000 X148.77 Y141.14 E207.82449
G0 F12000 X147.88 Y141.47
G1 F6000 X141.47 Y147.88 E208.05053
G0 F12000 X141.99 Y146.79
G1 F6000 X146.78 Y142.00 E208.21960
G0 F12000 X145.14 Y143.08
G1 F6000 X143.09 Y145.13 E208.29204
G0 F12000 X146.03 Y162.55
G1 F6000 X162.55 Y146.03 E208.87487
G0 F12000 X162.77 Y146.38
G1 F6000 X146.38 Y162.77 E209.45314
G0 F12000 X146.74 Y162.98
G1 F6000 X162.97 Y146.74 E210.02587
G0 F12000 X163.17 Y147.11
G1 F6000 X147.10 Y163.17 E210.59252
G0 F12000 X147.49 Y163.35
G1 F6000 X163.35 Y147.49 E211.15215
G0 F12000 X163.52 Y147.88
G1 F6000 X147.88 Y163.53 E211.70403
G0 F12000 X148.29 Y163.69
G1 F6000 X163.69 Y148.29 E212.24738
G0 F12000 X163.83 Y148.71
G1 F6000 X148.70 Y163.84 E212.78106
G0 F12000 X149.13 Y163.97
G1 F6000 X163.97 Y149.14 E213.30448
G0 F12000 X164.09 Y149.58
G1 F6000 X149.58 Y164.09 E213.81637
G0 F12000 X150.04 Y164.20
G1 F6000 X164.19 Y150.04 E214.31573
G0 F12000 X164.29 Y150.52
G1 F6000 X150.51 Y164.29 E214.80171
G0 F12000 X151.01 Y164.36
G1 F6000 X164.36 Y151.01 E215.27274
G0 F12000 X164.41 Y151.52
G1 F6000 X151.52 Y164.41 E215.72749
G0 F12000 X152.05 Y164.45
G1 F6000 X164.44 Y152.06 E216.16458
G0 F12000 X164.45 Y152.62
G1 F6000 X152.61 Y164.46 E216.58232
G0 F12000 X153.20 Y164.43
G1 F6000 X164.43 Y153.20 E216.97870
G0 F12000 X164.38 Y153.82
G1 F6000 X153.82 Y164.38 E217.35134
G0 F12000 X154.47 Y164.29
G1 F6000 X164.29 Y154.47 E217.69750
G0 F12000 X164.15 Y155.18
G1 F6000 X155.18 Y164.15 E218.01373
G0 F12000 X155.95 Y163.94
G1 F6000 X163.94 Y155.95 E218.29571
G0 F12000 X163.65 Y156.81
G1 F6000 X156.81 Y163.65 E218.53706
G0 F12000 X157.83 Y163.20
G1 F6000 X163.20 Y157.83 E218.72645
G0 F12000 X162.42 Y159.18
G1 F6000 X159.18 Y162.41 E218.84054
;LAYER:6
G0 F12000 X159.46 Y162.40 Z1.15
;TYPE:WALL-INNER
G1 F6000 X158.86 Y162.79 E218.85838
G1 X158.23 Y163.16 E218.87667
G1 X157.59 Y163.48 E218.89460
G1 X156.91 Y163.76 E218.91286
G1 X156.24 Y164.01 E218.93080
G1 X155.54 Y164.21 E218.94886
G1 X154.84 Y164.37 E218.96677
G1 X154.12 Y164.49 E218.98498
G1 X153.39 Y164.57 E219.00326
G1 X152.69 Y164.60 E219.02087
G1 X151.95 Y164.59 E219.03925
G1 X151.25 Y164.53 E219.05684
G1 X150.51 Y164.44 E219.07529
G1 X149.81 Y164.29 E219.09329
G1 X149.11 Y164.11 E219.11126
G1 X148.41 Y163.89 E219.12945
G1 X147.74 Y163.62 E219.14762
G1 X147.08 Y163.32 E219.16569
G1 X146.46 Y162.99 E219.18325
G1 X145.83 Y162.59 E219.20181
G1 X145.24 Y162.18 E219.21969
G1 X144.67 Y161.73 E219.23779
G1 X144.13 Y161.24 E219.25586
G1 X143.63 Y160.73 E219.27386
G1 X143.16 Y160.19 E219.29166
G1 X142.71 Y159.61 E219.31003
G1 X142.30 Y159.01 E219.32809
G1 X141.93 Y158.39 E219.34622
G1 X141.60 Y157.75 E219.36413
G1 X141.30 Y157.09 E219.38204
G1 X141.04 Y156.40 E219.40053
G1 X140.84 Y155.72 E219.41820
G1 X140.66 Y155.01 E219.43656
G1 X140.53 Y154.31 E219.45415
G1 X140.45 Y153.58 E219.47262
G1 X140.40 Y152.86 E219.49069
G1 X140.40 Y152.14 E219.50855
G1 X140.45 Y151.42 E219.52657
G1 X140.54 Y150.68 E219.54516
G1 X140.66 Y149.99 E219.56263
G1 X140.84 Y149.28 E219.58098
G1 X141.04 Y148.60 E219.59866
G1 X141.30 Y147.91 E219.61714
G1 X141.60 Y147.25 E219.63506
G1 X141.93 Y146.61 E219.65296
G1 X142.30 Y145.99 E219.67110
G1 X142.71 Y145.39 E219.68916
G1 X143.16 Y144.81 E219.70752
G1 X143.63 Y144.27 E219.72533
G1 X144.13 Y143.76 E219.74332
G1 X144.67 Y143.27 E219.76139
G1 X145.24 Y142.82 E219.77949
G1 X145.83 Y142.41 E219.79738
G1 X146.46 Y142.01 E219.81594
G1 X147.08 Y141.68 E219.83349
G1 X147.74 Y141.38 E219.85156
G1 X148.41 Y141.11 E219.86973
G1 X149.11 Y140.89 E219.88793
G1 X149.81 Y140.71 E219.90589
G1 X150.51 Y140.56 E219.92389
G1 X151.25 Y140.47 E219.94234
G1 X151.95 Y140.41 E219.95993
G1 X152.69 Y140.40 E219.97832
G1 X153.39 Y140.43 E219.99592
G1 X154.12 Y140.51 E220.01421
G1 X154.84 Y140.63 E220.03241
G1 X155.54 Y140.79 E220.05033
G1 X156.24 Y140.99 E220.06839
G1 X156.91 Y141.24 E220.08632
G1 X157.59 Y141.52 E220.10458
G1 X158.23 Y141.84 E220.12251
G1 X158.86 Y142.21 E220.14080
G1 X159.46 Y142.60 E220.15865
G1 X160.04 Y143.04 E220.17664
G1 X160.59 Y143.51 E220.19473
G1 X161.12 Y144.01 E220.21306
G1 X161.60 Y144.54 E220.23080
G1 X162.07 Y145.11 E220.24921
G1 X162.49 Y145.68 E220.26686
G1 X162.89 Y146.30 E220.28528
G1 X163.23 Y146.92 E220.30300
G1 X163.56 Y147.59 E220.32166
G1 X163.82 Y148.24 E220.33905
G1 X164.06 Y148.94 E220.35755
G1 X164.25 Y149.63 E220.37525
G1 X164.40 Y150.35 E220.39369
G1 X164.51 Y151.04 E220.41107
G1 X164.57 Y151.78 E220.42965
G1 X164.60 Y152.50 E220.44762
G1 X164.57 Y153.22 E220.46559
G1 X164.51 Y153.94 E220.48375
G1 X164.40 Y154.65 E220.50156
G1 X164.25 Y155.37 E220.52000
G1 X164.06 Y156.06 E220.53770
G1 X163.82 Y156.76 E220.55620
G1 X163.56 Y157.41 E220.57358
G1 X163.23 Y158.08 E220.59225
G1 X162.89 Y158.70 E220.60996
G1 X162.49 Y159.32 E220.62839
G1 X162.07 Y159.89 E220.64603
G1 X161.60 Y160.46 E220.66444
G1 X161.12 Y160.99 E220.68218
G1 X160.59 Y161.49 E220.70051
G1 X160.04 Y161.96 E220.71860
G1 X159.46 Y162.40 E220.73660
G0 F12000 X153.74 Y154.06
G1 F6000 X154.00 Y153.81 E220.74554
G1 X154.21 Y153.53 E220.75447
G1 X154.37 Y153.20 E220.76344
G1 X154.46 Y152.86 E220.77235
G1 X154.50 Y152.50 E220.78129
G1 X154.46 Y152.14 E220.79023
G1 X154.37 Y151.80 E220.79913
G1 X154.21 Y151.47 E220.80810
G1 X154.00 Y151.19 E220.81704
G1 X153.74 Y150.94 E220.82598
G1 X153.44 Y150.74 E220.83495
G1 X153.11 Y150.60 E220.84389
G1 X152.76 Y150.52 E220.85282
G1 X152.41 Y150.50 E220.86176
G1 X152.05 Y150.55 E220.87068
G1 X151.71 Y150.66 E220.87961
G1 X151.40 Y150.83 E220.88856
G1 X151.12 Y151.06 E220.89749
G1 X150.88 Y151.32 E220.90644
G1 X150.70 Y151.63 E220.91539
G1 X150.57 Y151.97 E220.92434
G1 X150.51 Y152.32 E220.93326
G1 X150.51 Y152.68 E220.94219
G1 X150.57 Y153.03 E220.95112
G1 X150.70 Y153.37 E220.96007
G1 X150.88 Y153.68 E220.96902
G1 X151.12 Y153.94 E220.97797
G1 X151.40 Y154.17 E220.98690
G1 X151.71 Y154.34 E220.99585
G1 X152.05 Y154.45 E221.00478
G1 X152.41 Y154.50 E221.01370
G1 X152.76 Y154.48 E221.02264
G1 X153.11 Y154.40 E221.03157
G1 X153.44 Y154.26 E221.04051
G1 X153.74 Y154.06 E221.04948
G0 F12000 X153.49 Y153.75
;TYPE:WALL-OUTER
G1 F6000 X153.70 Y153.55 E221.05662
G1 X153.87 Y153.32 E221.06377
G1 X153.99 Y153.06 E221.07094
G1 X154.07 Y152.78 E221.07806
G1 X154.09 Y152.50 E221.08520
G1 X154.07 Y152.22 E221.09234
G1 X153.99 Y151.94 E221.09945
G1 X153.87 Y151.68 E221.10663
G1 X153.70 Y151.45 E221.11377
G1 X153.49 Y151.25 E221.12092
G1 X153.25 Y151.09 E221.12807
G1 X152.99 Y150.98 E221.13522
G1 X152.71 Y150.92 E221.14236
G1 X152.43 Y150.90 E221.14948
G1 X152.14 Y150.94 E221.15663
G1 X151.87 Y151.03 E221.16376
G1 X151.62 Y151.17 E221.17092
G1 X151.39 Y151.35 E221.17808
G1 X151.21 Y151.56 E221.18520
G1 X151.06 Y151.81 E221.19235
G1 X150.96 Y152.08 E221.19952
G1 X150.91 Y152.36 E221.20664
G1 X150.91 Y152.64 E221.21378
G1 X150.96 Y152.92 E221.22090
G1 X151.06 Y153.19 E221.22807
G1 X151.21 Y153.44 E221.23522
G1 X151.39 Y153.65 E221.24234
G1 X151.62 Y153.83 E221.24949
G1 X151.87 Y153.97 E221.25666
G1 X152.14 Y154.06 E221.26379
G1 X152.43 Y154.10 E221.27094
G1 X152.71 Y154.08 E221.27806
G1 X152.99 Y154.02 E221.28520
G1 X153.25 Y153.91 E221.29235
G1 X153.49 Y153.75 E221.29950
G0 F12000 X153.66 Y154.00
G0 X160.11 Y162.03
G0 X160.29 Y162.27
G1 F6000 X159.69 Y162.72 E221.31814
G1 X159.07 Y163.13 E221.33681
G1 X158.42 Y163.51 E221.35538
G1 X157.76 Y163.84 E221.37394
G1 X157.06 Y164.14 E221.39290
G1 X156.37 Y164.39 E221.41124
G1 X155.64 Y164.60 E221.43008
G1 X154.91 Y164.76 E221.44876
G1 X154.18 Y164.89 E221.46722
G1 X153.43 Y164.96 E221.48595
G1 X152.68 Y165.00 E221.50473
G1 X151.93 Y164.99 E221.52344
G1 X151.19 Y164.93 E221.54185
G1 X150.45 Y164.83 E221.56061
G1 X149.72 Y164.69 E221.57912
G1 X148.99 Y164.50 E221.59809
G1 X148.28 Y164.27 E221.61658
G1 X147.58 Y163.99 E221.63539
G1 X146.91 Y163.68 E221.65373
G1 X146.24 Y163.32 E221.67268
G1 X145.61 Y162.93 E221.69135
G1 X145.01 Y162.50 E221.70968
G1 X144.42 Y162.04 E221.72837
G1 X143.85 Y161.53 E221.74733
G1 X143.34 Y161.01 E221.76565
G1 X142.84 Y160.43 E221.78462
G1 X142.39 Y159.85 E221.80301
G1 X141.97 Y159.23 E221.82164
G1 X141.58 Y158.58 E221.84062
G1 X141.24 Y157.93 E221.85895
G1 X140.93 Y157.24 E221.87790
G1 X140.67 Y156.54 E221.89634
G1 X140.45 Y155.82 E221.91524
G1 X140.27 Y155.10 E221.93359
G1 X140.14 Y154.37 E221.95232
G1 X140.05 Y153.61 E221.97119
G1 X140.00 Y152.87 E221.98986
G1 X140.00 Y152.13 E222.00817
G1 X140.05 Y151.39 E222.02684
G1 X140.14 Y150.63 E222.04578
G1 X140.27 Y149.90 E222.06444
G1 X140.45 Y149.18 E222.08280
G1 X140.67 Y148.46 E222.10175
G1 X140.93 Y147.76 E222.12013
G1 X141.24 Y147.07 E222.13909
G1 X141.58 Y146.42 E222.15740
G1 X141.97 Y145.77 E222.17639
G1 X142.39 Y145.15 E222.19502
G1 X142.84 Y144.57 E222.21341
G1 X143.34 Y143.99 E222.23238
G1 X143.85 Y143.47 E222.25071
G1 X144.42 Y142.96 E222.26966
G1 X145.00 Y142.50 E222.28833
G1 X145.61 Y142.07 E222.30668
G1 X146.24 Y141.68 E222.32535
G1 X146.91 Y141.32 E222.34430
G1 X147.58 Y141.01 E222.36265
G1 X148.28 Y140.73 E222.38146
G1 X148.99 Y140.50 E222.39995
G1 X149.72 Y140.31 E222.41892
G1 X150.45 Y140.17 E222.43743
G1 X151.19 Y140.07 E222.45618
G1 X151.93 Y140.01 E222.47459
G1 X152.68 Y140.00 E222.49330
G1 X153.43 Y140.04 E222.51208
G1 X154.18 Y140.11 E222.53082
G1 X154.91 Y140.24 E222.54928
G1 X155.64 Y140.40 E222.56795
G1 X156.37 Y140.61 E222.58680
G1 X157.06 Y140.86 E222.60513
G1 X157.76 Y141.16 E222.62410
G1 X158.42 Y141.49 E222.64265
G1 X159.06 Y141.86 E222.66113
G1 X159.69 Y142.28 E222.67990
G1 X160.29 Y142.72 E222.69845
G1 X160.86 Y143.21 E222.71712
G1 X161.40 Y143.72 E222.73575
G1 X161.91 Y144.27 E222.75441
G1 X162.38 Y144.85 E222.77307
G1 X162.82 Y145.45 E222.79171
G1 X163.23 Y146.09 E222.81068
G1 X163.59 Y146.75 E222.82931
G1 X163.91 Y147.41 E222.84769
G1 X164.20 Y148.11 E222.86664
G1 X164.44 Y148.81 E222.88498
G1 X164.64 Y149.53 E222.90367
G1 X164.80 Y150.28 E222.92262
G1 X164.91 Y151.01 E222.94126
G1 X164.97 Y151.75 E222.95962
G1 X165.00 Y152.49 E222.97826
G1 X164.97 Y153.25 E222.99718
G1 X164.91 Y153.99 E223.01556
G1 X164.80 Y154.72 E223.03421
G1 X164.64 Y155.47 E223.05313
G1 X164.44 Y156.19 E223.07182
G1 X164.20 Y156.89 E223.09018
G1 X163.92 Y157.58 E223.10883
G1 X163.59 Y158.25 E223.12752
G1 X163.23 Y158.91 E223.14615
G1 X162.82 Y159.54 E223.16503
G1 X162.39 Y160.14 E223.18347
G1 X161.91 Y160.72 E223.20231
G1 X161.40 Y161.27 E223.22095
G1 X160.86 Y161.79 E223.23960
G1 X160.29 Y162.27 E223.25829
G0 F12000 X160.11 Y162.03
G0 X158.26 Y162.97
;TYPE:FILL
G1 F6000 X142.02 Y146.73 E223.83120
G0 F12000 X146.74 Y142.02
G1 F6000 X162.97 Y158.26 E224.40390
G0 F12000 X164.40 Y151.41
G1 F6000 X151.40 Y164.41 E224.86242
G0 F12000 X150.06 Y164.20
G1 F6000 X140.79 Y154.93 E225.18958
G0 F12000 X141.04 Y155.91
G1 F6000 X155.91 Y141.04 E225.71420
G0 F12000 X154.94 Y140.80
G1 F6000 X164.20 Y150.06 E226.04091
G0 F12000 X161.61 Y144.77
G1 F6000 X154.53 Y151.85 E226.29085
G0 F12000 X154.00 Y153.81
G0 X152.41 Y154.50
G0 X151.85 Y154.53
G1 F6000 X144.76 Y161.62 E226.54097
;LAYER:7
G0 F12000 X144.67 Y161.73 Z1.30
;TYPE:WALL-INNER
G1 F6000 X144.13 Y161.24 E226.55904
G1 X143.63 Y160.73 E226.57703
G1 X143.16 Y160.19 E226.59483
G1 X142.71 Y159.61 E226.61320
G1 X142.30 Y159.01 E226.63126
G1 X141.93 Y158.39 E226.64939
G1 X141.60 Y157.75 E226.66730
G1 X141.30 Y157.09 E226.68521
G1 X141.04 Y156.40 E226.70370
G1 X140.84 Y155.72 E226.72137
G1 X140.66 Y155.01 E226.73973
G1 X140.53 Y154.31 E226.75732
G1 X140.45 Y153.58 E226.77579
G1 X140.40 Y152.86 E226.79386
G1 X140.40 Y152.14 E226.81172
G1 X140.45 Y151.42 E226.82974
G1 X140.54 Y150.68 E226.84833
G1 X140.66 Y149.99 E226.86580
G1 X140.84 Y149.28 E226.88416
G1 X141.04 Y148.60 E226.90183
G1 X141.30 Y147.91 E226.92032
G1 X141.60 Y147.25 E226.93823
G1 X141.93 Y146.61 E226.95614
G1 X142.30 Y145.99 E226.97427
G1 X142.71 Y145.39 E226.99233
G1 X143.16 Y144.81 E227.01070
G1 X143.63 Y144.27 E227.02850
G1 X144.13 Y143.76 E227.04649
G1 X144.67 Y143.27 E227.06456
G1 X145.24 Y142.82 E227.08267
G1 X145.83 Y142.41 E227.10055
G1 X146.46 Y142.01 E227.11911
G1 X147.08 Y141.68 E227.13666
G1 X147.74 Y141.38 E227.15473
G1 X148.41 Y141.11 E227.17290
G1 X149.11 Y140.89 E227.19110
G1 X149.81 Y140.71 E227.20906
G1 X150.51 Y140.56 E227.22707
G1 X151.25 Y140.47 E227.24552
G1 X151.95 Y140.41 E227.26310
G1 X152.69 Y140.40 E227.28149
G1 X153.39 Y140.43 E227.29909
G1 X154.12 Y140.51 E227.31738
G1 X154.84 Y140.63 E227.33559
G1 X155.54 Y140.79 E227.35350
G1 X156.24 Y140.99 E227.37156
G1 X156.91 Y141.24 E227.38949
G1 X157.59 Y141.52 E227.40775
G1 X158.23 Y141.84 E227.42568
G1 X158.86 Y142.21 E227.44398
G1 X159.46 Y142.60 E227.46182
G1 X160.04 Y143.04 E227.47982
G1 X160.59 Y143.51 E227.49790
G1 X161.12 Y144.01 E227.51623
G1 X161.60 Y144.54 E227.53397
G1 X162.07 Y145.11 E227.55239
G1 X162.49 Y145.68 E227.57003
G1 X162.89 Y146.30 E227.58846
G1 X163.23 Y146.92 E227.60617
G1 X163.56 Y147.59 E227.62483
G1 X163.82 Y148.24 E227.64222
G1 X164.06 Y148.94 E227.66072
G1 X164.25 Y149.63 E227.67842
G1 X164.40 Y150.35 E227.69686
G1 X164.51 Y151.04 E227.71424
G1 X164.57 Y151.78 E227.73283
G1 X164.60 Y152.50 E227.75079
G1 X164.57 Y153.22 E227.76876
G1 X164.51 Y153.94 E227.78692
G1 X164.40 Y154.65 E227.80473
G1 X164.25 Y155.37 E227.82317
G1 X164.06 Y156.06 E227.84087
G1 X163.82 Y156.76 E227.85937
G1 X163.56 Y157.41 E227.87675
G1 X163.23 Y158.08 E227.89542
G1 X162.89 Y158.70 E227.91313
G1 X162.49 Y159.32 E227.93156
G1 X162.07 Y159.89 E227.94920
G1 X161.60 Y160.46 E227.96762
G1 X161.12 Y160.99 E227.98535
G1 X160.59 Y161.49 E228.00369
G1 X160.04 Y161.96 E228.02177
G1 X159.46 Y162.40 E228.03977
G1 X158.86 Y162.79 E228.05761
G1 X158.23 Y163.16 E228.07591
G1 X157.59 Y163.48 E228.09384
G1 X156.91 Y163.76 E228.11210
G1 X156.24 Y164.01 E228.13003
G1 X155.54 Y164.21 E228.14809
G1 X154.84 Y164.37 E228.16600
G1 X154.12 Y164.49 E228.18421
G1 X153.39 Y164.57 E228.20250
G1 X152.69 Y164.60 E228.22010
G1 X151.95 Y164.59 E228.23849
G1 X151.25 Y164.53 E228.25607
G1 X150.51 Y164.44 E228.27452
G1 X149.81 Y164.29 E228.29253
G1 X149.11 Y164.11 E228.31049
G1 X148.41 Y163.89 E228.32869
G1 X147.74 Y163.62 E228.34686
G1 X147.08 Y163.32 E228.36493
G1 X146.46 Y162.99 E228.38248
G1 X145.83 Y162.59 E228.40104
G1 X145.24 Y162.18 E228.41892
G1 X144.67 Y161.73 E228.43703
G0 F12000 X151.12 Y153.94
G1 F6000 X151.40 Y154.17 E228.44596
G1 X151.71 Y154.34 E228.45491
G1 X152.05 Y154.45 E228.46385
G1 X152.41 Y154.50 E228.47276
G1 X152.76 Y154.48 E228.48170
G1 X153.11 Y154.40 E228.49063
G1 X153.44 Y154.26 E228.49957
G1 X153.74 Y154.06 E228.50854
G1 X154.00 Y153.81 E228.51748
G1 X154.21 Y153.53 E228.52642
G1 X154.37 Y153.20 E228.53539
G1 X154.46 Y152.86 E228.54429
G1 X154.50 Y152.50 E228.55323
G1 X154.46 Y152.14 E228.56218
G1 X154.37 Y151.80 E228.57108
G1 X154.21 Y151.47 E228.58005
G1 X154.00 Y151.19 E228.58898
G1 X153.74 Y150.94 E228.59792
G1 X153.44 Y150.74 E228.60689
G1 X153.11 Y150.60 E228.61583
G1 X152.76 Y150.52 E228.62477
G1 X152.41 Y150.50 E228.63370
G1 X152.05 Y150.55 E228.64262
G1 X151.71 Y150.66 E228.65156
G1 X151.40 Y150.83 E228.66051
G1 X151.12 Y151.06 E228.66944
G1 X150.88 Y151.32 E228.67838
G1 X150.70 Y151.63 E228.68733
G1 X150.57 Y151.97 E228.69628
G1 X150.51 Y152.32 E228.70521
G1 X150.51 Y152.68 E228.71414
G1 X150.57 Y153.03 E228.72306
G1 X150.70 Y153.37 E228.73201
G1 X150.88 Y153.68 E228.74096
G1 X151.12 Y153.94 E228.74991
G0 F12000 X151.39 Y153.65
;TYPE:WALL-OUTER
G1 F6000 X151.62 Y153.83 E228.75706
G1 X151.87 Y153.97 E228.76423
G1 X152.14 Y154.06 E228.77136
G1 X152.43 Y154.10 E228.77851
G1 X152.71 Y154.08 E228.78563
G1 X152.99 Y154.02 E228.79277
G1 X153.25 Y153.91 E228.79992
G1 X153.49 Y153.75 E228.80707
G1 X153.70 Y153.55 E228.81421
G1 X153.87 Y153.32 E228.82136
G1 X153.99 Y153.06 E228.82853
G1 X154.07 Y152.78 E228.83565
G1 X154.09 Y152.50 E228.84279
G1 X154.07 Y152.22 E228.84993
G1 X153.99 Y151.94 E228.85704
G1 X153.87 Y151.68 E228.86422
G1 X153.70 Y151.45 E228.87136
G1 X153.49 Y151.25 E228.87851
G1 X153.25 Y151.09 E228.88566
G1 X152.99 Y150.98 E228.89281
G1 X152.71 Y150.92 E228.89995
G1 X152.43 Y150.90 E228.90707
G1 X152.14 Y150.94 E228.91422
G1 X151.87 Y151.03 E228.92135
G1 X151.62 Y151.17 E228.92851
G1 X151.39 Y151.35 E228.93567
G1 X151.21 Y151.56 E228.94279
G1 X151.06 Y151.81 E228.94994
G1 X150.96 Y152.08 E228.95711
G1 X150.91 Y152.36 E228.96423
G1 X150.91 Y152.64 E228.97137
G1 X150.96 Y152.92 E228.97849
G1 X151.06 Y153.19 E228.98566
G1 X151.21 Y153.44 E228.99281
G1 X151.39 Y153.65 E228.99993
G0 F12000 X151.21 Y153.89
G0 X144.07 Y161.32
G0 X143.85 Y161.53
G1 F6000 X143.34 Y161.01 E229.01826
G1 X142.84 Y160.43 E229.03723
G1 X142.39 Y159.85 E229.05561
G1 X141.97 Y159.23 E229.07425
G1 X141.58 Y158.58 E229.09322
G1 X141.24 Y157.93 E229.11155
G1 X140.93 Y157.24 E229.13050
G1 X140.67 Y156.54 E229.14894
G1 X140.45 Y155.82 E229.16784
G1 X140.27 Y155.10 E229.18620
G1 X140.14 Y154.37 E229.20493
G1 X140.05 Y153.61 E229.22380
G1 X140.00 Y152.87 E229.24246
G1 X140.00 Y152.13 E229.26077
G1 X140.05 Y151.39 E229.27944
G1 X140.14 Y150.63 E229.29839
G1 X140.27 Y149.90 E229.31704
G1 X140.45 Y149.18 E229.33540
G1 X140.67 Y148.46 E229.35435
G1 X140.93 Y147.76 E229.37274
G1 X141.24 Y147.07 E229.39169
G1 X141.58 Y146.42 E229.41001
G1 X141.97 Y145.77 E229.42899
G1 X142.39 Y145.15 E229.44763
G1 X142.84 Y144.57 E229.46601
G1 X143.34 Y143.99 E229.48498
G1 X143.85 Y143.47 E229.50331
G1 X144.42 Y142.96 E229.52226
G1 X145.00 Y142.50 E229.54094
G1 X145.61 Y142.07 E229.55928
G1 X146.24 Y141.68 E229.57795
G1 X146.91 Y141.32 E229.59691
G1 X147.58 Y141.01 E229.61525
G1 X148.28 Y140.73 E229.63406
G1 X148.99 Y140.50 E229.65255
G1 X149.72 Y140.31 E229.67152
G1 X150.45 Y140.17 E229.69003
G1 X151.19 Y140.07 E229.70879
G1 X151.93 Y140.01 E229.72720
G1 X152.68 Y140.00 E229.74591
G1 X153.43 Y140.04 E229.76468
G1 X154.18 Y140.11 E229.78342
G1 X154.91 Y140.24 E229.80188
G1 X155.64 Y140.40 E229.82056
G1 X156.37 Y140.61 E229.83940
G1 X157.06 Y140.86 E229.85774
G1 X157.76 Y141.16 E229.87670
G1 X158.42 Y141.49 E229.89525
G1 X159.06 Y141.86 E229.91374
G1 X159.69 Y142.28 E229.93250
G1 X160.29 Y142.72 E229.95105
G1 X160.86 Y143.21 E229.96972
G1 X161.40 Y143.72 E229.98835
G1 X161.91 Y144.27 E230.00701
G1 X162.38 Y144.85 E230.02567
