;-- START GCODE --
;Sliced for Type A Machines Series 1
;Sliced at: Sat 14-03-2015 19:12:24
;Basic settings: Layer height: 0.15 Walls: 0.8 Fill: 12
;Print Speed: 100 Support: 0 
;Retraction Speed: 40 Retraction Distance: 1.2
;Print time: #P_TIME#
;Filament used: #F_AMNT#m #F_WGHT#g
;Filament cost: #F_COST#
M106 S255	 ;start with the fan on
G21        ;metric values
G90        ;absolute positioning
M106 S255    ;start with the fan on
G28     ;move to endstops
G29		;allows for auto-levelling
G1 X150 Y5  Z15.0 F12000 ;center and move the platform down 15mm
M109 S220 ;Heat To temp
G92 E0                  ;zero the extruded length
G1 F200 E30              ;extrude 30mm of feed stock
G92 E0                  ;zero the extruded length again
G1 X175 Y25  Z0 F12000 ;remove bugger
G1 X220 F12000 ;remove bugger
G1 X150 Y150  Z15 F12000 ;recenter and begin
G1 F12000

;Layer count: 271
;LAYER:0
M106 S255
G0 F12000 X119.77 Y132.47 Z0.25
;TYPE:SKIRT
G1 F1800 X185.23 Y132.47 E2.72126
G1 X185.23 Y210.18 E5.95203
G1 X119.77 Y210.18 E8.67329
G1 X119.77 Y132.47 E11.90405
G1 F2400 E10.70405
G0 F12000 X123.57 Y136.27
;TYPE:WALL-INNER
G1 F2400 E11.90405
G1 F1800 X181.43 Y136.27 E14.30934
G1 X181.43 Y168.73 E15.65862
G1 X123.57 Y168.73 E18.06391
G1 X123.57 Y136.27 E19.41319
G0 F12000 X126.68 Y145.50
G1 F1800 X126.21 Y145.79 E19.43603
G1 X125.83 Y146.19 E19.45888
G1 X125.57 Y146.68 E19.48181
G1 X125.43 Y147.21 E19.50463
G1 X125.43 Y147.76 E19.52741
G1 X125.57 Y148.29 E19.55023
G1 X125.83 Y148.77 E19.57315
G1 X126.21 Y149.17 E19.59600
G1 X126.68 Y149.47 E19.61884
G1 X127.20 Y149.64 E19.64167
G1 X127.75 Y149.67 E19.66450
G1 X128.29 Y149.57 E19.68735
G1 X128.78 Y149.34 E19.71019
G1 X129.21 Y148.99 E19.73302
G1 X129.53 Y148.54 E19.75590
G1 X129.73 Y148.03 E19.77875
G1 X129.80 Y147.48 E19.80158
G1 X129.73 Y146.94 E19.82442
G1 X129.53 Y146.43 E19.84727
G1 X129.21 Y145.98 E19.87015
G1 X128.78 Y145.63 E19.89298
G1 X128.29 Y145.40 E19.91582
G1 X127.75 Y145.30 E19.93867
G1 X127.20 Y145.33 E19.96150
G1 X126.68 Y145.50 E19.98433
G0 F12000 X131.61 Y141.84
G1 F1800 X131.61 Y163.16 E20.87054
G1 X173.39 Y163.16 E22.60789
G1 X173.39 Y141.84 E23.49410
G1 X131.61 Y141.84 E25.23145
G0 F12000 X128.29 Y155.43
G1 F1800 X127.75 Y155.33 E25.25430
G1 X127.20 Y155.36 E25.27713
G1 X126.68 Y155.53 E25.29996
G1 X126.21 Y155.83 E25.32279
G1 X125.83 Y156.23 E25.34565
G1 X125.57 Y156.71 E25.36857
G1 X125.43 Y157.24 E25.39139
G1 X125.43 Y157.79 E25.41417
G1 X125.57 Y158.32 E25.43699
G1 X125.83 Y158.81 E25.45992
G1 X126.21 Y159.21 E25.48277
G1 X126.68 Y159.50 E25.50561
G1 X127.20 Y159.67 E25.52843
G1 X127.75 Y159.70 E25.55126
G1 X128.29 Y159.60 E25.57411
G1 X128.78 Y159.37 E25.59695
G1 X129.21 Y159.02 E25.61978
G1 X129.53 Y158.57 E25.64266
G1 X129.73 Y158.06 E25.66551
G1 X129.80 Y157.52 E25.68835
G1 X129.73 Y156.97 E25.71119
G1 X129.53 Y156.46 E25.73403
G1 X129.21 Y156.01 E25.75692
G1 X128.78 Y155.66 E25.77974
G1 X128.29 Y155.43 E25.80258
G0 F12000 X131.66 Y141.90
G0 X173.34 Y141.90
G0 X175.22 Y157.24
G1 F1800 X175.22 Y157.79 E25.82536
G1 X175.35 Y158.32 E25.84818
G1 X175.62 Y158.81 E25.87111
G1 X176.00 Y159.21 E25.89396
G1 X176.46 Y159.50 E25.91680
G1 X176.98 Y159.67 E25.93962
G1 X177.53 Y159.70 E25.96245
G1 X178.07 Y159.60 E25.98531
G1 X178.57 Y159.37 E26.00815
G1 X178.99 Y159.02 E26.03097
G1 X179.31 Y158.57 E26.05386
G1 X179.51 Y158.06 E26.07670
G1 X179.58 Y157.52 E26.09954
G1 X179.51 Y156.97 E26.12238
G1 X179.31 Y156.46 E26.14522
G1 X178.99 Y156.01 E26.16811
G1 X178.57 Y155.66 E26.19094
G1 X178.07 Y155.43 E26.21377
G1 X177.53 Y155.33 E26.23663
G1 X176.98 Y155.36 E26.25946
G1 X176.46 Y155.53 E26.28228
G1 X176.00 Y155.83 E26.30512
G1 X175.62 Y156.23 E26.32797
G1 X175.35 Y156.71 E26.35090
G1 X175.22 Y157.24 E26.37372
G0 F12000 X176.98 Y149.64
G1 F1800 X177.53 Y149.67 E26.39655
G1 X178.07 Y149.57 E26.41940
G1 X178.57 Y149.34 E26.44224
G1 X178.99 Y148.99 E26.46507
G1 X179.31 Y148.54 E26.48795
G1 X179.51 Y148.03 E26.51080
G1 X179.58 Y147.48 E26.53364
G1 X179.51 Y146.94 E26.55647
G1 X179.31 Y146.43 E26.57932
G1 X178.99 Y145.98 E26.60220
G1 X178.57 Y145.63 E26.62503
G1 X178.07 Y145.40 E26.64787
G1 X177.53 Y145.30 E26.67072
G1 X176.98 Y145.33 E26.69355
G1 X176.46 Y145.50 E26.71638
G1 X176.00 Y145.79 E26.73922
G1 X175.62 Y146.19 E26.76207
G1 X175.35 Y146.68 E26.78499
G1 X175.22 Y147.21 E26.80781
G1 X175.22 Y147.76 E26.83059
G1 X175.35 Y148.29 E26.85341
G1 X175.62 Y148.77 E26.87634
G1 X176.00 Y149.17 E26.89919
G1 X176.46 Y149.47 E26.92203
G1 X176.98 Y149.64 E26.94485
G0 F12000 X177.06 Y149.24
;TYPE:WALL-OUTER
G1 F1800 X177.50 Y149.27 E26.96351
G1 X177.94 Y149.19 E26.98213
G1 X178.35 Y148.99 E27.00080
G1 X178.70 Y148.71 E27.01944
G1 X178.96 Y148.35 E27.03810
G1 X179.12 Y147.93 E27.05673
G1 X179.18 Y147.48 E27.07538
G1 X179.12 Y147.04 E27.09403
G1 X178.96 Y146.62 E27.11266
G1 X178.70 Y146.26 E27.13132
G1 X178.35 Y145.97 E27.14996
G1 X177.94 Y145.78 E27.16863
G1 X177.50 Y145.70 E27.18725
G1 X177.06 Y145.73 E27.20591
G1 X176.63 Y145.87 E27.22454
G1 X176.25 Y146.11 E27.24315
G1 X175.94 Y146.43 E27.26180
G1 X175.73 Y146.83 E27.28050
G1 X175.62 Y147.26 E27.29912
G1 X175.62 Y147.71 E27.31774
G1 X175.73 Y148.14 E27.33636
G1 X175.94 Y148.54 E27.35506
G1 X176.25 Y148.86 E27.37370
G1 X176.63 Y149.10 E27.39232
G1 X177.06 Y149.24 E27.41095
G0 F12000 X177.04 Y149.54
G0 X177.56 Y155.44
G0 X177.50 Y155.73
G1 F1800 X177.06 Y155.76 E27.42961
G1 X176.63 Y155.90 E27.44824
G1 X176.25 Y156.14 E27.46685
G1 X175.94 Y156.46 E27.48550
G1 X175.73 Y156.86 E27.50420
G1 X175.62 Y157.29 E27.52282
G1 X175.62 Y157.74 E27.54144
G1 X175.73 Y158.17 E27.56006
G1 X175.94 Y158.57 E27.57876
G1 X176.25 Y158.89 E27.59740
G1 X176.63 Y159.13 E27.61602
G1 X177.06 Y159.27 E27.63465
G1 X177.50 Y159.30 E27.65331
G1 X177.94 Y159.22 E27.67193
G1 X178.35 Y159.03 E27.69060
G1 X178.70 Y158.74 E27.70923
G1 X178.96 Y158.38 E27.72789
G1 X179.12 Y157.96 E27.74652
G1 X179.18 Y157.52 E27.76518
G1 X179.12 Y157.07 E27.78383
G1 X178.96 Y156.65 E27.80246
G1 X178.70 Y156.29 E27.82112
G1 X178.35 Y156.01 E27.83976
G1 X177.94 Y155.81 E27.85843
G1 X177.50 Y155.73 E27.87704
G0 F12000 X177.56 Y155.44
G0 X176.46 Y155.53
G0 X175.35 Y156.71
G0 X175.35 Y158.32
G0 X173.34 Y163.10
G0 X172.99 Y163.06
G0 X172.99 Y162.76
G1 F1800 X172.99 Y142.24 E28.73000
G1 X132.01 Y142.24 E30.43408
G1 X132.01 Y162.76 E31.28704
G1 X172.99 Y162.76 E32.99112
G0 F12000 X172.99 Y163.06
G0 X181.53 Y168.92
G0 X181.83 Y169.13
G1 F1800 X123.17 Y169.13 E35.42967
G1 X123.17 Y135.87 E36.81221
G1 X181.83 Y135.87 E39.25076
G1 X181.83 Y169.13 E40.63330
G0 F12000 X181.53 Y168.92
G0 X131.66 Y163.10
G0 X129.45 Y148.46
G0 X129.18 Y148.35
G1 F1800 X129.34 Y147.93 E40.65193
G1 X129.40 Y147.48 E40.67058
G1 X129.34 Y147.04 E40.68924
G1 X129.18 Y146.62 E40.70787
G1 X128.91 Y146.26 E40.72653
G1 X128.57 Y145.97 E40.74516
G1 X128.16 Y145.78 E40.76384
G1 X127.72 Y145.70 E40.78245
G1 X127.27 Y145.73 E40.80111
G1 X126.85 Y145.87 E40.81974
G1 X126.47 Y146.11 E40.83836
G1 X126.16 Y146.43 E40.85700
G1 X125.94 Y146.83 E40.87570
G1 X125.83 Y147.26 E40.89432
G1 X125.83 Y147.71 E40.91294
G1 X125.94 Y148.14 E40.93156
G1 X126.16 Y148.54 E40.95026
G1 X126.47 Y148.86 E40.96891
G1 X126.85 Y149.10 E40.98752
G1 X127.27 Y149.24 E41.00615
G1 X127.72 Y149.27 E41.02481
G1 X128.16 Y149.19 E41.04343
G1 X128.57 Y148.99 E41.06210
G1 X128.91 Y148.71 E41.08074
G1 X129.18 Y148.35 E41.09940
G0 F12000 X129.45 Y148.46
G0 X127.78 Y155.44
G0 X127.72 Y155.73
G1 F1800 X127.27 Y155.76 E41.11806
G1 X126.85 Y155.90 E41.13669
G1 X126.47 Y156.14 E41.15531
G1 X126.16 Y156.46 E41.17395
G1 X125.94 Y156.86 E41.19265
G1 X125.83 Y157.29 E41.21127
G1 X125.83 Y157.74 E41.22989
G1 X125.94 Y158.17 E41.24851
G1 X126.16 Y158.57 E41.26721
G1 X126.47 Y158.89 E41.28585
G1 X126.85 Y159.13 E41.30447
G1 X127.27 Y159.27 E41.32310
G1 X127.72 Y159.30 E41.34176
G1 X128.16 Y159.22 E41.36038
G1 X128.57 Y159.03 E41.37905
G1 X128.91 Y158.74 E41.39768
G1 X129.18 Y158.38 E41.41635
G1 X129.34 Y157.96 E41.43497
G1 X129.40 Y157.52 E41.45363
G1 X129.34 Y157.07 E41.47228
G1 X129.18 Y156.65 E41.49091
G1 X128.91 Y156.29 E41.50957
G1 X128.57 Y156.01 E41.52821
G1 X128.16 Y155.81 E41.54688
G1 X127.72 Y155.73 E41.56549
G0 F12000 X127.75 Y155.19
;TYPE:FILL
G1 F1800 X123.71 Y151.15 E41.80288
G0 F12000 X123.71 Y151.71
G1 F1800 X127.22 Y155.22 E42.00908
G0 F12000 X126.78 Y155.35
G1 F1800 X123.71 Y152.28 E42.18964
G0 F12000 X123.71 Y152.84
G1 F1800 X126.41 Y155.54 E42.34798
G0 F12000 X126.07 Y155.77
G1 F1800 X123.71 Y153.41 E42.48674
G0 F12000 X123.71 Y153.98
G1 F1800 X125.80 Y156.06 E42.60936
G0 F12000 X125.58 Y156.41
G1 F1800 X123.71 Y154.54 E42.71896
G0 F12000 X123.71 Y155.11
G1 F1800 X125.40 Y156.80 E42.81832
G0 F12000 X125.29 Y157.25
G1 F1800 X123.71 Y155.67 E42.91134
G0 F12000 X123.71 Y156.24
G1 F1800 X125.30 Y157.83 E43.00465
G0 F12000 X125.63 Y158.72
G1 F1800 X123.71 Y156.81 E43.11751
G0 F12000 X123.71 Y157.37
G1 F1800 X134.93 Y168.59 E43.77694
G0 F12000 X134.36 Y168.59
G1 F1800 X123.71 Y157.94 E44.40311
G0 F12000 X123.71 Y158.50
G1 F1800 X133.80 Y168.59 E44.99601
G0 F12000 X133.23 Y168.59
G1 F1800 X123.71 Y159.07 E45.55567
G0 F12000 X123.71 Y159.63
G1 F1800 X132.66 Y168.59 E46.08207
G0 F12000 X132.10 Y168.59
G1 F1800 X123.71 Y160.20 E46.57519
G0 F12000 X123.71 Y160.76
G1 F1800 X131.53 Y168.59 E47.03507
G0 F12000 X130.97 Y168.59
G1 F1800 X123.71 Y161.33 E47.46169
G0 F12000 X123.71 Y161.90
G1 F1800 X130.40 Y168.59 E47.85504
G0 F12000 X129.84 Y168.59
G1 F1800 X123.71 Y162.46 E48.21511
G0 F12000 X123.71 Y163.03
G1 F1800 X129.27 Y168.59 E48.54195
G0 F12000 X128.71 Y168.59
G1 F1800 X123.71 Y163.59 E48.83552
G0 F12000 X123.71 Y164.16
G1 F1800 X128.14 Y168.59 E49.09581
G0 F12000 X127.57 Y168.59
G1 F1800 X123.71 Y164.72 E49.32288
G0 F12000 X123.71 Y165.29
G1 F1800 X127.01 Y168.59 E49.51668
G0 F12000 X126.44 Y168.59
G1 F1800 X123.71 Y165.86 E49.67719
G0 F12000 X123.71 Y166.42
G1 F1800 X125.88 Y168.59 E49.80448
G0 F12000 X125.31 Y168.59
G1 F1800 X123.71 Y166.99 E49.89850
G0 F12000 X123.71 Y167.55
G1 F1800 X124.75 Y168.59 E49.95923
G0 F12000 X124.18 Y168.59
G1 F1800 X123.71 Y168.12 E49.98672
G0 F12000 X127.29 Y159.81
G1 F1800 X136.06 Y168.59 E50.50248
G0 F12000 X135.49 Y168.59
G1 F1800 X126.39 Y159.48 E51.03782
G0 F12000 X127.86 Y159.82
G1 F1800 X136.62 Y168.59 E51.55305
G0 F12000 X137.19 Y168.59
G1 F1800 X131.90 Y163.30 E51.86400
G0 F12000 X132.47 Y163.30
G1 F1800 X137.76 Y168.59 E52.17497
G0 F12000 X138.32 Y168.59
G1 F1800 X133.03 Y163.30 E52.48594
G0 F12000 X133.60 Y163.30
G1 F1800 X138.89 Y168.59 E52.79688
G0 F12000 X139.45 Y168.59
G1 F1800 X134.16 Y163.30 E53.10783
G0 F12000 X134.73 Y163.30
G1 F1800 X140.02 Y168.59 E53.41880
G0 F12000 X140.58 Y168.59
G1 F1800 X135.30 Y163.30 E53.72974
G0 F12000 X135.86 Y163.30
G1 F1800 X141.15 Y168.59 E54.04069
G0 F12000 X141.72 Y168.59
G1 F1800 X136.43 Y163.30 E54.35166
G0 F12000 X136.99 Y163.30
G1 F1800 X142.28 Y168.59 E54.66260
G0 F12000 X142.85 Y168.59
G1 F1800 X137.56 Y163.30 E54.97355
G0 F12000 X138.12 Y163.30
G1 F1800 X143.41 Y168.59 E55.28452
G0 F12000 X143.98 Y168.59
G1 F1800 X138.69 Y163.30 E55.59546
G0 F12000 X139.26 Y163.30
G1 F1800 X144.54 Y168.59 E55.90641
G0 F12000 X145.11 Y168.59
G1 F1800 X139.82 Y163.30 E56.21738
G0 F12000 X140.39 Y163.30
G1 F1800 X145.68 Y168.59 E56.52835
G0 F12000 X146.24 Y168.59
G1 F1800 X140.95 Y163.30 E56.83930
G0 F12000 X141.52 Y163.30
G1 F1800 X146.81 Y168.59 E57.15027
G0 F12000 X147.37 Y168.59
G1 F1800 X142.08 Y163.30 E57.46124
G0 F12000 X142.65 Y163.30
G1 F1800 X147.94 Y168.59 E57.77219
G0 F12000 X148.50 Y168.59
G1 F1800 X143.22 Y163.30 E58.08316
G0 F12000 X143.78 Y163.30
G1 F1800 X149.07 Y168.59 E58.39413
G0 F12000 X149.63 Y168.59
G1 F1800 X144.35 Y163.30 E58.70508
G0 F12000 X144.91 Y163.30
G1 F1800 X150.20 Y168.59 E59.01602
G0 F12000 X150.77 Y168.59
G1 F1800 X145.48 Y163.30 E59.32699
G0 F12000 X146.04 Y163.30
G1 F1800 X151.33 Y168.59 E59.63794
G0 F12000 X151.90 Y168.59
G1 F1800 X146.61 Y163.30 E59.94888
G0 F12000 X147.18 Y163.30
G1 F1800 X152.46 Y168.59 E60.25985
G0 F12000 X153.03 Y168.59
G1 F1800 X147.74 Y163.30 E60.57080
G0 F12000 X148.31 Y163.30
G1 F1800 X153.59 Y168.59 E60.88174
G0 F12000 X154.16 Y168.59
G1 F1800 X148.87 Y163.30 E61.19271
G0 F12000 X149.44 Y163.30
G1 F1800 X154.73 Y168.59 E61.50366
G0 F12000 X155.29 Y168.59
G1 F1800 X150.00 Y163.30 E61.81460
G0 F12000 X150.57 Y163.30
G1 F1800 X155.86 Y168.59 E62.12557
G0 F12000 X156.42 Y168.59
G1 F1800 X151.13 Y163.30 E62.43655
G0 F12000 X151.70 Y163.30
G1 F1800 X156.99 Y168.59 E62.74749
G0 F12000 X157.56 Y168.59
G1 F1800 X152.27 Y163.30 E63.05846
G0 F12000 X152.83 Y163.30
G1 F1800 X158.12 Y168.59 E63.36938
G0 F12000 X158.69 Y168.59
G1 F1800 X153.40 Y163.30 E63.68026
G0 F12000 X153.96 Y163.30
G1 F1800 X159.25 Y168.59 E63.99118
G0 F12000 X159.82 Y168.59
G1 F1800 X154.53 Y163.30 E64.30209
G0 F12000 X155.10 Y163.30
G1 F1800 X160.38 Y168.59 E64.61297
G0 F12000 X160.95 Y168.59
G1 F1800 X155.66 Y163.30 E64.92389
G0 F12000 X156.23 Y163.30
G1 F1800 X161.51 Y168.59 E65.23480
G0 F12000 X162.08 Y168.59
G1 F1800 X156.79 Y163.30 E65.54569
G0 F12000 X157.36 Y163.30
G1 F1800 X162.65 Y168.59 E65.85660
G0 F12000 X163.21 Y168.59
G1 F1800 X157.92 Y163.30 E66.16752
G0 F12000 X158.49 Y163.30
G1 F1800 X163.78 Y168.59 E66.47840
G0 F12000 X164.34 Y168.59
G1 F1800 X159.06 Y163.30 E66.78931
G0 F12000 X159.62 Y163.30
G1 F1800 X164.91 Y168.59 E67.10023
G0 F12000 X165.47 Y168.59
G1 F1800 X160.19 Y163.30 E67.41114
G0 F12000 X160.75 Y163.30
G1 F1800 X166.04 Y168.59 E67.72206
G0 F12000 X166.61 Y168.59
G1 F1800 X161.32 Y163.30 E68.03297
G0 F12000 X161.88 Y163.30
G1 F1800 X167.17 Y168.59 E68.34389
G0 F12000 X167.74 Y168.59
G1 F1800 X162.45 Y163.30 E68.65477
G0 F12000 X163.01 Y163.30
G1 F1800 X168.30 Y168.59 E68.96568
G0 F12000 X168.87 Y168.59
G1 F1800 X163.58 Y163.30 E69.27660
G0 F12000 X164.15 Y163.30
G1 F1800 X169.43 Y168.59 E69.58748
G0 F12000 X170.00 Y168.59
G1 F1800 X164.71 Y163.30 E69.89840
G0 F12000 X165.28 Y163.30
G1 F1800 X170.57 Y168.59 E70.20931
G0 F12000 X171.13 Y168.59
G1 F1800 X165.84 Y163.30 E70.52020
G0 F12000 X166.41 Y163.30
G1 F1800 X171.70 Y168.59 E70.83111
G0 F12000 X172.26 Y168.59
G1 F1800 X166.97 Y163.30 E71.14202
G0 F12000 X167.54 Y163.30
G1 F1800 X172.83 Y168.59 E71.45291
G0 F12000 X173.39 Y168.59
G1 F1800 X168.11 Y163.30 E71.76382
G0 F12000 X168.67 Y163.30
G1 F1800 X173.96 Y168.59 E72.07474
G0 F12000 X174.53 Y168.59
G1 F1800 X169.24 Y163.30 E72.38562
G0 F12000 X169.80 Y163.30
G1 F1800 X175.09 Y168.59 E72.69654
G0 F12000 X175.66 Y168.59
G1 F1800 X170.37 Y163.30 E73.00745
G0 F12000 X170.94 Y163.30
G1 F1800 X176.22 Y168.59 E73.31836
G0 F12000 X176.79 Y168.59
G1 F1800 X171.50 Y163.30 E73.62928
G0 F12000 X172.07 Y163.30
G1 F1800 X177.35 Y168.59 E73.94019
G0 F12000 X177.92 Y168.59
G1 F1800 X172.63 Y163.30 E74.25111
G0 F12000 X173.20 Y163.30
G1 F1800 X178.49 Y168.59 E74.56199
G0 F12000 X179.05 Y168.59
G1 F1800 X173.53 Y163.07 E74.88643
G0 F12000 X173.53 Y162.50
G1 F1800 X179.62 Y168.59 E75.24414
G0 F12000 X180.18 Y168.59
G1 F1800 X173.53 Y161.94 E75.63511
G0 F12000 X173.53 Y161.37
G1 F1800 X180.75 Y168.59 E76.05935
G0 F12000 X181.29 Y168.56
G1 F1800 X173.53 Y160.81 E76.51520
G0 F12000 X173.53 Y160.24
G1 F1800 X181.29 Y167.99 E76.97108
G0 F12000 X181.29 Y167.43
G1 F1800 X173.53 Y159.67 E77.42695
G0 F12000 X173.53 Y159.11
G1 F1800 X181.29 Y166.86 E77.88280
G0 F12000 X181.29 Y166.29
G1 F1800 X173.53 Y158.54 E78.33865
G0 F12000 X173.53 Y157.98
G1 F1800 X181.29 Y165.73 E78.79452
G0 F12000 X181.29 Y165.16
G1 F1800 X173.53 Y157.41 E79.25037
G0 F12000 X173.53 Y156.84
G1 F1800 X175.42 Y158.73 E79.36108
G0 F12000 X175.08 Y157.83
G1 F1800 X173.53 Y156.28 E79.45219
G0 F12000 X173.53 Y155.71
G1 F1800 X175.08 Y157.26 E79.54291
G0 F12000 X175.18 Y156.80
G1 F1800 X173.53 Y155.15 E79.63998
G0 F12000 X173.53 Y154.58
G1 F1800 X175.36 Y156.41 E79.74731
G0 F12000 X175.58 Y156.06
G1 F1800 X173.53 Y154.02 E79.86761
G0 F12000 X173.53 Y153.45
G1 F1800 X175.85 Y155.77 E80.00408
G0 F12000 X176.19 Y155.54
G1 F1800 X173.53 Y152.88 E80.16009
G0 F12000 X173.53 Y152.32
G1 F1800 X176.56 Y155.35 E80.33833
G0 F12000 X177.00 Y155.22
G1 F1800 X173.53 Y151.75 E80.54218
G0 F12000 X173.53 Y151.19
G1 F1800 X177.53 Y155.19 E80.77725
G0 F12000 X178.29 Y155.38
G1 F1800 X173.53 Y150.62 E81.05697
G0 F12000 X173.53 Y150.06
G1 F1800 X181.29 Y157.81 E81.51282
G0 F12000 X181.29 Y158.38
G1 F1800 X179.52 Y156.61 E81.61650
G0 F12000 X179.70 Y157.36
G1 F1800 X181.29 Y158.94 E81.70955
G0 F12000 X181.29 Y159.51
G1 F1800 X179.68 Y157.90 E81.80427
G0 F12000 X179.55 Y158.34
G1 F1800 X181.29 Y160.07 E81.90616
G0 F12000 X181.29 Y160.64
G1 F1800 X179.37 Y158.72 E82.01867
G0 F12000 X179.13 Y159.05
G1 F1800 X181.29 Y161.20 E82.14517
G0 F12000 X181.29 Y161.77
G1 F1800 X178.84 Y159.32 E82.28904
G0 F12000 X178.50 Y159.55
G1 F1800 X181.29 Y162.34 E82.45273
G0 F12000 X181.29 Y162.90
G1 F1800 X178.12 Y159.73 E82.63906
G0 F12000 X177.64 Y159.82
G1 F1800 X181.29 Y163.47 E82.85319
G0 F12000 X181.29 Y164.03
G1 F1800 X177.07 Y159.81 E83.10122
G0 F12000 X176.17 Y159.48
G1 F1800 X181.29 Y164.60 E83.40220
G0 F12000 X181.29 Y157.24
G1 F1800 X173.53 Y149.49 E83.85805
G0 F12000 X173.53 Y148.93
G1 F1800 X181.29 Y156.68 E84.31392
G0 F12000 X181.29 Y156.11
G1 F1800 X173.53 Y148.36 E84.76977
G0 F12000 X173.53 Y147.79
G1 F1800 X181.29 Y155.55 E85.22562
G0 F12000 X181.29 Y154.98
G1 F1800 X173.53 Y147.23 E85.68149
G0 F12000 X173.53 Y146.66
G1 F1800 X175.23 Y148.36 E85.78139
G0 F12000 X175.08 Y147.64
G1 F1800 X173.53 Y146.10 E85.87211
G0 F12000 X173.53 Y145.53
G1 F1800 X175.10 Y147.10 E85.96424
G0 F12000 X175.21 Y146.65
G1 F1800 X173.53 Y144.97 E86.06308
G0 F12000 X173.53 Y144.40
G1 F1800 X175.41 Y146.28 E86.17353
G0 F12000 X175.65 Y145.95
G1 F1800 X173.53 Y143.83 E86.29812
G0 F12000 X173.53 Y143.27
G1 F1800 X175.93 Y145.67 E86.43917
G0 F12000 X176.28 Y145.45
G1 F1800 X173.53 Y142.70 E86.60059
G0 F12000 X173.53 Y142.14
G1 F1800 X176.68 Y145.28 E86.78548
G0 F12000 X177.14 Y145.18
G1 F1800 X168.37 Y136.41 E87.30097
G0 F12000 X168.94 Y136.41
G1 F1800 X177.72 Y145.19 E87.81697
G0 F12000 X178.57 Y145.48
G1 F1800 X169.50 Y136.41 E88.35022
G0 F12000 X170.07 Y136.41
G1 F1800 X181.29 Y147.63 E89.00965
G0 F12000 X181.29 Y147.06
G1 F1800 X170.64 Y136.41 E89.63583
G0 F12000 X171.20 Y136.41
G1 F1800 X181.29 Y146.50 E90.22873
G0 F12000 X181.29 Y145.93
G1 F1800 X171.77 Y136.41 E90.78838
G0 F12000 X172.33 Y136.41
G1 F1800 X181.29 Y145.37 E91.31478
G0 F12000 X181.29 Y144.80
G1 F1800 X172.90 Y136.41 E91.80791
G0 F12000 X173.47 Y136.41
G1 F1800 X181.29 Y144.23 E92.26778
G0 F12000 X181.29 Y143.67
G1 F1800 X174.03 Y136.41 E92.69441
G0 F12000 X174.60 Y136.41
G1 F1800 X181.29 Y143.10 E93.08775
G0 F12000 X181.29 Y142.54
G1 F1800 X175.16 Y136.41 E93.44785
G0 F12000 X175.73 Y136.41
G1 F1800 X181.29 Y141.97 E93.77467
G0 F12000 X181.29 Y141.41
G1 F1800 X176.29 Y136.41 E94.06824
G0 F12000 X176.86 Y136.41
G1 F1800 X181.29 Y140.84 E94.32856
G0 F12000 X181.29 Y140.27
G1 F1800 X177.43 Y136.41 E94.55560
G0 F12000 X177.99 Y136.41
G1 F1800 X181.29 Y139.71 E94.74939
G0 F12000 X181.29 Y139.14
G1 F1800 X178.56 Y136.41 E94.90993
G0 F12000 X179.12 Y136.41
G1 F1800 X181.29 Y138.58 E95.03720
G0 F12000 X181.29 Y138.01
G1 F1800 X179.69 Y136.41 E95.13121
G0 F12000 X180.25 Y136.41
G1 F1800 X181.29 Y137.45 E95.19198
G0 F12000 X181.29 Y136.88
G1 F1800 X180.82 Y136.41 E95.21947
G0 F12000 X173.10 Y141.70
G1 F1800 X167.81 Y136.41 E95.53041
G0 F12000 X167.24 Y136.41
G1 F1800 X172.53 Y141.70 E95.84138
G0 F12000 X171.97 Y141.70
G1 F1800 X166.68 Y136.41 E96.15233
G0 F12000 X166.11 Y136.41
G1 F1800 X171.40 Y141.70 E96.46327
G0 F12000 X170.83 Y141.70
G1 F1800 X165.54 Y136.41 E96.77424
G0 F12000 X164.98 Y136.41
G1 F1800 X170.27 Y141.70 E97.08519
G0 F12000 X169.70 Y141.70
G1 F1800 X164.41 Y136.41 E97.39613
G0 F12000 X163.85 Y136.41
G1 F1800 X169.14 Y141.70 E97.70710
G0 F12000 X168.57 Y141.70
G1 F1800 X163.28 Y136.41 E98.01808
G0 F12000 X162.72 Y136.41
G1 F1800 X168.00 Y141.70 E98.32902
G0 F12000 X167.44 Y141.70
G1 F1800 X162.15 Y136.41 E98.63999
G0 F12000 X161.59 Y136.41
G1 F1800 X166.87 Y141.70 E98.95097
G0 F12000 X166.31 Y141.70
G1 F1800 X161.02 Y136.41 E99.26191
G0 F12000 X160.45 Y136.41
G1 F1800 X165.74 Y141.70 E99.57288
G0 F12000 X165.18 Y141.70
G1 F1800 X159.89 Y136.41 E99.88385
G0 F12000 X159.32 Y136.41
G1 F1800 X164.61 Y141.70 E100.19480
G0 F12000 X164.04 Y141.70
G1 F1800 X158.76 Y136.41 E100.50574
G0 F12000 X158.19 Y136.41
G1 F1800 X163.48 Y141.70 E100.81671
G0 F12000 X162.91 Y141.70
G1 F1800 X157.63 Y136.41 E101.12766
G0 F12000 X157.06 Y136.41
G1 F1800 X162.35 Y141.70 E101.43860
G0 F12000 X161.78 Y141.70
G1 F1800 X156.49 Y136.41 E101.74957
G0 F12000 X155.93 Y136.41
G1 F1800 X161.22 Y141.70 E102.06052
G0 F12000 X160.65 Y141.70
G1 F1800 X155.36 Y136.41 E102.37146
G0 F12000 X154.80 Y136.41
G1 F1800 X160.09 Y141.70 E102.68243
G0 F12000 X159.52 Y141.70
G1 F1800 X154.23 Y136.41 E102.99338
G0 F12000 X153.67 Y136.41
G1 F1800 X158.95 Y141.70 E103.30432
G0 F12000 X158.39 Y141.70
G1 F1800 X153.10 Y136.41 E103.61529
G0 F12000 X152.53 Y136.41
G1 F1800 X157.82 Y141.70 E103.92627
G0 F12000 X157.26 Y141.70
G1 F1800 X151.97 Y136.41 E104.23721
G0 F12000 X151.40 Y136.41
G1 F1800 X156.69 Y141.70 E104.54818
G0 F12000 X156.13 Y141.70
G1 F1800 X150.84 Y136.41 E104.85916
G0 F12000 X150.27 Y136.41
G1 F1800 X155.56 Y141.70 E105.17010
G0 F12000 X154.99 Y141.70
G1 F1800 X149.71 Y136.41 E105.48104
G0 F12000 X149.14 Y136.41
G1 F1800 X154.43 Y141.70 E105.79202
G0 F12000 X153.86 Y141.70
G1 F1800 X148.57 Y136.41 E106.10296
G0 F12000 X148.01 Y136.41
G1 F1800 X153.30 Y141.70 E106.41390
G0 F12000 X152.73 Y141.70
G1 F1800 X147.44 Y136.41 E106.72488
G0 F12000 X146.88 Y136.41
G1 F1800 X152.16 Y141.70 E107.03576
G0 F12000 X151.60 Y141.70
G1 F1800 X146.31 Y136.41 E107.34668
G0 F12000 X145.75 Y136.41
G1 F1800 X151.03 Y141.70 E107.65759
G0 F12000 X150.47 Y141.70
G1 F1800 X145.18 Y136.41 E107.96847
G0 F12000 X144.62 Y136.41
G1 F1800 X149.90 Y141.70 E108.27939
G0 F12000 X149.34 Y141.70
G1 F1800 X144.05 Y136.41 E108.59030
G0 F12000 X143.48 Y136.41
G1 F1800 X148.77 Y141.70 E108.90122
G0 F12000 X148.21 Y141.70
G1 F1800 X142.92 Y136.41 E109.21213
G0 F12000 X142.35 Y136.41
G1 F1800 X147.64 Y141.70 E109.52305
G0 F12000 X147.07 Y141.70
G1 F1800 X141.79 Y136.41 E109.83396
G0 F12000 X141.22 Y136.41
G1 F1800 X146.51 Y141.70 E110.14484
G0 F12000 X145.94 Y141.70
G1 F1800 X140.66 Y136.41 E110.45576
G0 F12000 X140.09 Y136.41
G1 F1800 X145.38 Y141.70 E110.76667
G0 F12000 X144.81 Y141.70
G1 F1800 X139.52 Y136.41 E111.07756
G0 F12000 X138.96 Y136.41
G1 F1800 X144.25 Y141.70 E111.38847
G0 F12000 X143.68 Y141.70
G1 F1800 X138.39 Y136.41 E111.69939
G0 F12000 X137.83 Y136.41
G1 F1800 X143.11 Y141.70 E112.01027
G0 F12000 X142.55 Y141.70
G1 F1800 X137.26 Y136.41 E112.32118
G0 F12000 X136.69 Y136.41
G1 F1800 X141.98 Y141.70 E112.63210
G0 F12000 X141.42 Y141.70
G1 F1800 X136.13 Y136.41 E112.94298
G0 F12000 X135.56 Y136.41
G1 F1800 X140.85 Y141.70 E113.25390
G0 F12000 X140.29 Y141.70
G1 F1800 X135.00 Y136.41 E113.56481
G0 F12000 X134.43 Y136.41
G1 F1800 X139.72 Y141.70 E113.87570
G0 F12000 X139.16 Y141.70
G1 F1800 X133.87 Y136.41 E114.18661
G0 F12000 X133.30 Y136.41
G1 F1800 X138.59 Y141.70 E114.49752
G0 F12000 X138.02 Y141.70
G1 F1800 X132.74 Y136.41 E114.80844
G0 F12000 X132.17 Y136.41
G1 F1800 X137.46 Y141.70 E115.11935
G0 F12000 X136.89 Y141.70
G1 F1800 X131.60 Y136.41 E115.43027
G0 F12000 X131.04 Y136.41
G1 F1800 X136.33 Y141.70 E115.74118
G0 F12000 X135.76 Y141.70
G1 F1800 X130.47 Y136.41 E116.05207
G0 F12000 X129.91 Y136.41
G1 F1800 X135.19 Y141.70 E116.36298
G0 F12000 X134.63 Y141.70
G1 F1800 X129.34 Y136.41 E116.67389
G0 F12000 X128.78 Y136.41
G1 F1800 X134.06 Y141.70 E116.98478
G0 F12000 X133.50 Y141.70
G1 F1800 X128.21 Y136.41 E117.29569
G0 F12000 X127.64 Y136.41
G1 F1800 X132.93 Y141.70 E117.60661
G0 F12000 X132.37 Y141.70
G1 F1800 X127.08 Y136.41 E117.91749
G0 F12000 X126.51 Y136.41
G1 F1800 X131.80 Y141.70 E118.22841
G0 F12000 X131.47 Y141.93
G1 F1800 X125.95 Y136.41 E118.55287
G0 F12000 X125.38 Y136.41
G1 F1800 X131.47 Y142.50 E118.91056
G0 F12000 X131.47 Y143.06
G1 F1800 X124.82 Y136.41 E119.30152
G0 F12000 X124.25 Y136.41
G1 F1800 X131.47 Y143.63 E119.72577
G0 F12000 X131.47 Y144.19
G1 F1800 X123.71 Y136.44 E120.18161
G0 F12000 X123.71 Y137.01
G1 F1800 X131.47 Y144.76 E120.63746
G0 F12000 X131.47 Y145.32
G1 F1800 X123.71 Y137.57 E121.09334
G0 F12000 X123.71 Y138.14
G1 F1800 X131.47 Y145.89 E121.54918
G0 F12000 X131.47 Y146.46
G1 F1800 X123.71 Y138.70 E122.00503
G0 F12000 X123.71 Y139.27
G1 F1800 X131.47 Y147.02 E122.46091
G0 F12000 X131.47 Y147.59
G1 F1800 X123.71 Y139.83 E122.91678
G0 F12000 X123.71 Y140.40
G1 F1800 X128.79 Y145.48 E123.21561
G0 F12000 X127.93 Y145.19
G1 F1800 X123.71 Y140.97 E123.46388
G0 F12000 X123.71 Y141.53
G1 F1800 X127.36 Y145.18 E123.67837
G0 F12000 X126.90 Y145.28
G1 F1800 X123.71 Y142.10 E123.86558
G0 F12000 X123.71 Y142.66
G1 F1800 X126.50 Y145.45 E124.02929
G0 F12000 X126.15 Y145.67
G1 F1800 X123.71 Y143.23 E124.17264
G0 F12000 X123.71 Y143.79
G1 F1800 X125.87 Y145.95 E124.29952
G0 F12000 X125.63 Y146.28
G1 F1800 X123.71 Y144.36 E124.41226
G0 F12000 X123.71 Y144.93
G1 F1800 X125.43 Y146.65 E124.51342
G0 F12000 X125.32 Y147.10
G1 F1800 X123.71 Y145.49 E124.60785
G0 F12000 X123.71 Y146.06
G1 F1800 X125.29 Y147.64 E124.70081
G0 F12000 X125.45 Y148.36
G1 F1800 X123.71 Y146.62 E124.80285
G0 F12000 X123.71 Y147.19
G1 F1800 X131.47 Y154.94 E125.25869
G0 F12000 X131.47 Y154.38
G1 F1800 X126.71 Y149.62 E125.53803
G0 F12000 X127.45 Y149.79
G1 F1800 X131.47 Y153.81 E125.77425
G0 F12000 X131.47 Y153.24
G1 F1800 X127.99 Y149.77 E125.97862
G0 F12000 X128.44 Y149.65
G1 F1800 X131.47 Y152.68 E126.15660
G0 F12000 X131.47 Y152.11
G1 F1800 X128.82 Y149.47 E126.31194
G0 F12000 X129.14 Y149.22
G1 F1800 X131.47 Y151.55 E126.44864
G0 F12000 X131.47 Y150.98
G1 F1800 X129.42 Y148.93 E126.56914
G0 F12000 X129.65 Y148.60
G1 F1800 X131.47 Y150.42 E126.67565
G0 F12000 X131.47 Y149.85
G1 F1800 X129.81 Y148.20 E126.77275
G0 F12000 X129.91 Y147.73
G1 F1800 X131.47 Y149.28 E126.86427
G0 F12000 X131.47 Y148.72
G1 F1800 X129.90 Y147.15 E126.95637
G0 F12000 X129.61 Y146.30
G1 F1800 X131.47 Y148.15 E127.06544
G0 F12000 X131.47 Y155.51
G1 F1800 X123.71 Y147.75 E127.52129
G0 F12000 X123.71 Y148.32
G1 F1800 X131.47 Y156.07 E127.97716
G0 F12000 X131.47 Y156.64
G1 F1800 X123.71 Y148.88 E128.43304
G0 F12000 X123.71 Y149.45
G1 F1800 X131.47 Y157.20 E128.88889
G0 F12000 X131.47 Y157.77
G1 F1800 X123.71 Y150.02 E129.34476
G0 F12000 X123.71 Y150.58
G1 F1800 X128.51 Y155.38 E129.62692
G0 F12000 X129.74 Y156.61
G1 F1800 X131.47 Y158.34 E129.72841
G0 F12000 X131.47 Y158.90
G1 F1800 X129.92 Y157.36 E129.81919
G0 F12000 X129.89 Y157.89
G1 F1800 X131.47 Y159.47 E129.91165
G0 F12000 X131.47 Y160.03
G1 F1800 X129.77 Y158.34 E130.01122
G0 F12000 X129.59 Y158.72
G1 F1800 X131.47 Y160.60 E130.12137
G0 F12000 X131.47 Y161.16
G1 F1800 X129.35 Y159.05 E130.24558
G0 F12000 X129.06 Y159.32
G1 F1800 X131.47 Y161.73 E130.38719
G0 F12000 X131.47 Y162.29
G1 F1800 X128.72 Y159.55 E130.54855
G0 F12000 X128.34 Y159.73
G1 F1800 X131.47 Y162.86 E130.73256
G0 F12000 X131.66 Y141.90
G0 X173.34 Y141.90
G0 X173.38 Y150.54
G0 X176.50 Y149.63
G1 F1800 X181.29 Y154.42 E131.01419
G0 F12000 X181.29 Y153.85
G1 F1800 X177.23 Y149.79 E131.25279
G0 F12000 X177.77 Y149.77
G1 F1800 X181.29 Y153.28 E131.45954
G0 F12000 X181.29 Y152.72
G1 F1800 X178.22 Y149.65 E131.63987
G0 F12000 X178.60 Y149.47
G1 F1800 X181.29 Y152.15 E131.79756
G0 F12000 X181.29 Y151.59
G1 F1800 X178.92 Y149.22 E131.93659
G0 F12000 X179.20 Y148.93
G1 F1800 X181.29 Y151.02 E132.05935
G0 F12000 X181.29 Y150.46
G1 F1800 X179.44 Y148.61 E132.16812
G0 F12000 X179.60 Y148.20
G1 F1800 X181.29 Y149.89 E132.26749
G0 F12000 X181.29 Y149.32
G1 F1800 X179.69 Y147.73 E132.36124
G0 F12000 X179.68 Y147.16
G1 F1800 X181.29 Y148.76 E132.45555
G0 F12000 X181.29 Y148.19
G1 F1800 X179.40 Y146.30 E132.56665
G1 F2400 E131.36665
G0 F12000 X181.43 Y173.93
;TYPE:WALL-INNER
G1 F2400 E132.56665
G1 F1800 X181.43 Y206.38 E133.91597
G1 X123.57 Y206.38 E136.32126
G1 X123.57 Y173.93 E137.67058
G1 X181.43 Y173.93 E140.07587
G0 F12000 X173.39 Y179.50
G1 F1800 X131.61 Y179.50 E141.81321
G1 X131.61 Y200.81 E142.69947
G1 X173.39 Y200.81 E144.43681
G1 X173.39 Y179.50 E145.32307
G0 F12000 X176.00 Y183.45
G1 F1800 X175.62 Y183.85 E145.34592
G1 X175.35 Y184.33 E145.36885
G1 X175.22 Y184.86 E145.39167
G1 X175.22 Y185.41 E145.41445
G1 X175.35 Y185.94 E145.43727
G1 X175.62 Y186.43 E145.46019
G1 X176.00 Y186.83 E145.48305
G1 X176.46 Y187.12 E145.50588
G1 X176.98 Y187.29 E145.52871
G1 X177.53 Y187.33 E145.55154
G1 X178.07 Y187.22 E145.57439
G1 X178.57 Y186.99 E145.59723
G1 X178.99 Y186.64 E145.62006
G1 X179.31 Y186.19 E145.64294
G1 X179.51 Y185.68 E145.66579
G1 X179.58 Y185.14 E145.68863
G1 X179.51 Y184.59 E145.71147
G1 X179.31 Y184.08 E145.73431
G1 X178.99 Y183.64 E145.75720
G1 X178.57 Y183.29 E145.78002
G1 X178.07 Y183.05 E145.80286
G1 X177.53 Y182.95 E145.82572
G1 X176.98 Y182.99 E145.84854
G1 X176.46 Y183.16 E145.87137
G1 X176.00 Y183.45 E145.89421
G0 F12000 X175.22 Y184.87
G0 X175.62 Y186.43
G0 X176.98 Y193.02
G1 F1800 X176.46 Y193.19 E145.91703
G1 X176.00 Y193.48 E145.93987
G1 X175.62 Y193.88 E145.96272
G1 X175.35 Y194.37 E145.98564
G1 X175.22 Y194.90 E146.00846
G1 X175.22 Y195.44 E146.03125
G1 X175.35 Y195.98 E146.05407
G1 X175.62 Y196.46 E146.07699
G1 X176.00 Y196.86 E146.09984
G1 X176.46 Y197.15 E146.12268
G1 X176.98 Y197.32 E146.14550
G1 X177.53 Y197.36 E146.16833
G1 X178.07 Y197.26 E146.19119
G1 X178.57 Y197.02 E146.21403
G1 X178.99 Y196.67 E146.23685
G1 X179.31 Y196.23 E146.25974
G1 X179.51 Y195.72 E146.28258
G1 X179.58 Y195.17 E146.30542
G1 X179.51 Y194.63 E146.32826
G1 X179.31 Y194.12 E146.35111
G1 X178.99 Y193.67 E146.37399
G1 X178.57 Y193.32 E146.39682
G1 X178.07 Y193.09 E146.41966
G1 X177.53 Y192.98 E146.44251
G1 X176.98 Y193.02 E146.46534
G0 F12000 X173.39 Y193.18
G0 X173.34 Y200.75
G0 X131.66 Y200.75
G0 X129.80 Y195.17
G1 F1800 X129.73 Y194.63 E146.48818
G1 X129.53 Y194.12 E146.51103
G1 X129.21 Y193.67 E146.53391
G1 X128.78 Y193.32 E146.55674
G1 X128.29 Y193.09 E146.57957
G1 X127.75 Y192.98 E146.60243
G1 X127.20 Y193.02 E146.62526
G1 X126.68 Y193.19 E146.64808
G1 X126.21 Y193.48 E146.67092
G1 X125.83 Y193.88 E146.69377
G1 X125.57 Y194.37 E146.71670
G1 X125.43 Y194.90 E146.73952
G1 X125.43 Y195.44 E146.76230
G1 X125.57 Y195.98 E146.78512
G1 X125.83 Y196.46 E146.80804
G1 X126.21 Y196.86 E146.83090
G1 X126.68 Y197.15 E146.85373
G1 X127.20 Y197.32 E146.87656
G1 X127.75 Y197.36 E146.89939
G1 X128.29 Y197.26 E146.92224
G1 X128.78 Y197.02 E146.94508
G1 X129.21 Y196.67 E146.96791
G1 X129.53 Y196.23 E146.99079
G1 X129.73 Y195.72 E147.01364
G1 X129.80 Y195.17 E147.03648
G0 F12000 X128.29 Y187.22
G1 F1800 X128.78 Y186.99 E147.05931
G1 X129.21 Y186.64 E147.08214
G1 X129.53 Y186.19 E147.10503
G1 X129.73 Y185.68 E147.12787
G1 X129.80 Y185.14 E147.15071
G1 X129.73 Y184.59 E147.17355
G1 X129.53 Y184.08 E147.19639
G1 X129.21 Y183.64 E147.21928
G1 X128.78 Y183.29 E147.24210
G1 X128.29 Y183.05 E147.26494
G1 X127.75 Y182.95 E147.28780
G1 X127.20 Y182.99 E147.31063
G1 X126.68 Y183.16 E147.33345
G1 X126.21 Y183.45 E147.35629
G1 X125.83 Y183.85 E147.37914
G1 X125.57 Y184.33 E147.40207
G1 X125.43 Y184.86 E147.42489
G1 X125.43 Y185.41 E147.44767
G1 X125.57 Y185.94 E147.47049
G1 X125.83 Y186.43 E147.49341
G1 X126.21 Y186.83 E147.51627
G1 X126.68 Y187.12 E147.53910
G1 X127.20 Y187.29 E147.56193
G1 X127.75 Y187.33 E147.58476
G1 X128.29 Y187.22 E147.60761
G0 F12000 X128.16 Y186.84
;TYPE:WALL-OUTER
G1 F1800 X128.57 Y186.65 E147.62628
G1 X128.91 Y186.36 E147.64492
G1 X129.18 Y186.00 E147.66358
G1 X129.34 Y185.58 E147.68221
G1 X129.40 Y185.14 E147.70086
G1 X129.34 Y184.69 E147.71951
G1 X129.18 Y184.28 E147.73814
G1 X128.91 Y183.91 E147.75680
G1 X128.57 Y183.63 E147.77544
G1 X128.16 Y183.44 E147.79411
G1 X127.72 Y183.35 E147.81273
G1 X127.27 Y183.38 E147.83139
G1 X126.85 Y183.52 E147.85002
G1 X126.47 Y183.76 E147.86864
G1 X126.16 Y184.09 E147.88728
G1 X125.94 Y184.48 E147.90598
G1 X125.83 Y184.91 E147.92460
G1 X125.83 Y185.36 E147.94322
G1 X125.94 Y185.80 E147.96184
G1 X126.16 Y186.19 E147.98054
G1 X126.47 Y186.52 E147.99918
G1 X126.85 Y186.76 E148.01780
G1 X127.27 Y186.90 E148.03643
G1 X127.72 Y186.92 E148.05509
G1 X128.16 Y186.84 E148.07371
G0 F12000 X128.22 Y187.13
G0 X127.78 Y193.09
G0 X127.72 Y193.39
G1 F1800 X127.27 Y193.41 E148.09237
G1 X126.85 Y193.55 E148.11100
G1 X126.47 Y193.79 E148.12961
G1 X126.16 Y194.12 E148.14826
G1 X125.94 Y194.51 E148.16696
G1 X125.83 Y194.95 E148.18558
G1 X125.83 Y195.40 E148.20420
G1 X125.94 Y195.83 E148.22282
G1 X126.16 Y196.22 E148.24152
G1 X126.47 Y196.55 E148.26016
G1 X126.85 Y196.79 E148.27878
G1 X127.27 Y196.93 E148.29741
G1 X127.72 Y196.96 E148.31607
G1 X128.16 Y196.87 E148.33468
G1 X128.57 Y196.68 E148.35336
G1 X128.91 Y196.40 E148.37199
G1 X129.18 Y196.03 E148.39065
G1 X129.34 Y195.62 E148.40928
G1 X129.40 Y195.17 E148.42794
G1 X129.34 Y194.73 E148.44659
G1 X129.18 Y194.31 E148.46522
G1 X128.91 Y193.95 E148.48388
G1 X128.57 Y193.66 E148.50252
G1 X128.16 Y193.47 E148.52119
G1 X127.72 Y193.39 E148.53980
G0 F12000 X127.78 Y193.09
G0 X129.21 Y193.67
G0 X129.80 Y195.17
G0 X131.71 Y200.41
G0 X132.01 Y200.41
G1 F1800 X172.99 Y200.41 E150.24389
G1 X172.99 Y179.90 E151.09688
G1 X132.01 Y179.90 E152.80097
G1 X132.01 Y200.41 E153.65396
G0 F12000 X131.71 Y200.41
G0 X123.38 Y206.48
G0 X123.17 Y206.78
G1 F1800 X123.17 Y173.53 E155.03655
G1 X181.83 Y173.53 E157.47510
G1 X181.83 Y206.78 E158.85768
G1 X123.17 Y206.78 E161.29623
G0 F12000 X123.38 Y206.48
G0 X173.34 Y200.75
G0 X175.47 Y185.94
G0 X175.73 Y185.80
G1 F1800 X175.94 Y186.19 E161.31493
G1 X176.25 Y186.52 E161.33358
G1 X176.63 Y186.76 E161.35219
G1 X177.06 Y186.90 E161.37082
G1 X177.50 Y186.92 E161.38948
G1 X177.94 Y186.84 E161.40810
G1 X178.35 Y186.65 E161.42677
G1 X178.70 Y186.36 E161.44541
G1 X178.96 Y186.00 E161.46407
G1 X179.12 Y185.58 E161.48270
G1 X179.18 Y185.14 E161.50135
G1 X179.12 Y184.69 E161.52000
G1 X178.96 Y184.28 E161.53863
G1 X178.70 Y183.91 E161.55729
G1 X178.35 Y183.63 E161.57593
G1 X177.94 Y183.44 E161.59460
G1 X177.50 Y183.35 E161.61322
G1 X177.06 Y183.38 E161.63188
G1 X176.63 Y183.52 E161.65051
G1 X176.25 Y183.76 E161.66912
G1 X175.94 Y184.09 E161.68777
G1 X175.73 Y184.48 E161.70647
G1 X175.62 Y184.91 E161.72508
G1 X175.62 Y185.36 E161.74371
G1 X175.73 Y185.80 E161.76232
G0 F12000 X175.47 Y185.94
G0 X177.04 Y193.11
G0 X177.06 Y193.41
G1 F1800 X176.63 Y193.55 E161.78095
G1 X176.25 Y193.79 E161.79957
G1 X175.94 Y194.12 E161.81822
G1 X175.73 Y194.51 E161.83692
G1 X175.62 Y194.95 E161.85553
G1 X175.62 Y195.40 E161.87416
G1 X175.73 Y195.83 E161.89277
G1 X175.94 Y196.22 E161.91147
G1 X176.25 Y196.55 E161.93012
G1 X176.63 Y196.79 E161.94873
G1 X177.06 Y196.93 E161.96736
G1 X177.50 Y196.96 E161.98602
G1 X177.94 Y196.87 E162.00464
G1 X178.35 Y196.68 E162.02331
G1 X178.70 Y196.40 E162.04195
G1 X178.96 Y196.03 E162.06061
G1 X179.12 Y195.62 E162.07924
G1 X179.18 Y195.17 E162.09789
G1 X179.12 Y194.73 E162.11654
G1 X178.96 Y194.31 E162.13517
G1 X178.70 Y193.95 E162.15383
G1 X178.35 Y193.66 E162.17247
G1 X177.94 Y193.47 E162.19114
G1 X177.50 Y193.39 E162.20976
G1 X177.06 Y193.41 E162.22842
G0 F12000 X176.81 Y192.93
;TYPE:FILL
G1 F1800 X173.53 Y189.66 E162.42080
G0 F12000 X173.53 Y189.09
G1 F1800 X177.30 Y192.86 E162.64223
G0 F12000 X177.92 Y192.91
G1 F1800 X173.53 Y188.52 E162.90034
G0 F12000 X173.53 Y187.96
G1 F1800 X181.29 Y195.71 E163.35625
G0 F12000 X181.29 Y196.28
G1 F1800 X179.66 Y194.65 E163.45203
G0 F12000 X179.71 Y195.27
G1 F1800 X181.29 Y196.84 E163.54463
G0 F12000 X181.29 Y197.41
G1 F1800 X179.64 Y195.77 E163.64123
G0 F12000 X179.48 Y196.17
G1 F1800 X181.29 Y197.97 E163.74724
G0 F12000 X181.29 Y198.54
G1 F1800 X179.27 Y196.52 E163.86586
G0 F12000 X179.01 Y196.83
G1 F1800 X181.29 Y199.11 E163.99954
G0 F12000 X181.29 Y199.67
G1 F1800 X178.70 Y197.09 E164.15141
G0 F12000 X178.34 Y197.28
G1 F1800 X181.29 Y200.24 E164.32497
G0 F12000 X181.29 Y200.80
G1 F1800 X177.91 Y197.43 E164.52347
G0 F12000 X177.41 Y197.49
G1 F1800 X181.29 Y201.37 E164.75148
G0 F12000 X181.29 Y201.93
G1 F1800 X176.75 Y197.39 E165.01847
G0 F12000 X175.17 Y195.81
G1 F1800 X173.53 Y194.18 E165.11449
G0 F12000 X173.53 Y194.75
G1 F1800 X181.29 Y202.50 E165.57036
G0 F12000 X181.29 Y203.07
G1 F1800 X173.53 Y195.31 E166.02627
G0 F12000 X173.53 Y195.88
G1 F1800 X181.29 Y203.63 E166.48215
G0 F12000 X181.29 Y204.20
G1 F1800 X173.53 Y196.44 E166.93802
G0 F12000 X173.53 Y197.01
G1 F1800 X181.29 Y204.76 E167.39393
G0 F12000 X181.29 Y205.33
G1 F1800 X173.53 Y197.57 E167.84980
G0 F12000 X173.53 Y198.14
G1 F1800 X181.29 Y205.89 E168.30568
G0 F12000 X181.07 Y206.24
G1 F1800 X173.53 Y198.71 E168.74871
G0 F12000 X173.53 Y199.27
G1 F1800 X180.50 Y206.24 E169.15846
G0 F12000 X179.94 Y206.24
G1 F1800 X173.53 Y199.84 E169.53493
G0 F12000 X173.53 Y200.40
G1 F1800 X179.37 Y206.24 E169.87818
G0 F12000 X178.81 Y206.24
G1 F1800 X173.52 Y200.95 E170.18916
G0 F12000 X172.95 Y200.95
G1 F1800 X178.24 Y206.24 E170.50010
G0 F12000 X177.67 Y206.24
G1 F1800 X172.38 Y200.95 E170.81107
G0 F12000 X171.82 Y200.95
G1 F1800 X177.11 Y206.24 E171.12205
G0 F12000 X176.54 Y206.24
G1 F1800 X171.25 Y200.95 E171.43299
G0 F12000 X170.69 Y200.95
G1 F1800 X175.98 Y206.24 E171.74393
G0 F12000 X175.41 Y206.24
G1 F1800 X170.12 Y200.95 E172.05491
G0 F12000 X169.56 Y200.95
G1 F1800 X174.84 Y206.24 E172.36585
G0 F12000 X174.28 Y206.24
G1 F1800 X168.99 Y200.95 E172.67679
G0 F12000 X168.43 Y200.95
G1 F1800 X173.71 Y206.24 E172.98777
G0 F12000 X173.15 Y206.24
G1 F1800 X167.86 Y200.95 E173.29871
G0 F12000 X167.29 Y200.95
G1 F1800 X172.58 Y206.24 E173.60965
G0 F12000 X172.02 Y206.24
G1 F1800 X166.73 Y200.95 E173.92063
G0 F12000 X166.16 Y200.95
G1 F1800 X171.45 Y206.24 E174.23157
G0 F12000 X170.88 Y206.24
G1 F1800 X165.60 Y200.95 E174.54251
G0 F12000 X165.03 Y200.95
G1 F1800 X170.32 Y206.24 E174.85349
G0 F12000 X169.75 Y206.24
G1 F1800 X164.47 Y200.95 E175.16446
G0 F12000 X163.90 Y200.95
G1 F1800 X169.19 Y206.24 E175.47540
G0 F12000 X168.62 Y206.24
G1 F1800 X163.33 Y200.95 E175.78638
G0 F12000 X162.77 Y200.95
G1 F1800 X168.06 Y206.24 E176.09735
G0 F12000 X167.49 Y206.24
G1 F1800 X162.20 Y200.95 E176.40829
G0 F12000 X161.64 Y200.95
G1 F1800 X166.93 Y206.24 E176.71924
G0 F12000 X166.36 Y206.24
G1 F1800 X161.07 Y200.95 E177.03021
G0 F12000 X160.51 Y200.95
G1 F1800 X165.79 Y206.24 E177.34115
G0 F12000 X165.23 Y206.24
G1 F1800 X159.94 Y200.95 E177.65210
G0 F12000 X159.37 Y200.95
G1 F1800 X164.66 Y206.24 E177.96307
G0 F12000 X164.10 Y206.24
G1 F1800 X158.81 Y200.95 E178.27401
G0 F12000 X158.24 Y200.95
G1 F1800 X163.53 Y206.24 E178.58496
G0 F12000 X162.97 Y206.24
G1 F1800 X157.68 Y200.95 E178.89593
G0 F12000 X157.11 Y200.95
G1 F1800 X162.40 Y206.24 E179.20687
G0 F12000 X161.83 Y206.24
G1 F1800 X156.55 Y200.95 E179.51782
G0 F12000 X155.98 Y200.95
G1 F1800 X161.27 Y206.24 E179.82879
G0 F12000 X160.70 Y206.24
G1 F1800 X155.41 Y200.95 E180.13976
G0 F12000 X154.85 Y200.95
G1 F1800 X160.14 Y206.24 E180.45070
G0 F12000 X159.57 Y206.24
G1 F1800 X154.28 Y200.95 E180.76168
G0 F12000 X153.72 Y200.95
G1 F1800 X159.01 Y206.24 E181.07265
G0 F12000 X158.44 Y206.24
G1 F1800 X153.15 Y200.95 E181.38359
G0 F12000 X152.59 Y200.95
G1 F1800 X157.88 Y206.24 E181.69457
G0 F12000 X157.31 Y206.24
G1 F1800 X152.02 Y200.95 E182.00554
G0 F12000 X151.46 Y200.95
G1 F1800 X156.74 Y206.24 E182.31648
G0 F12000 X156.18 Y206.24
G1 F1800 X150.89 Y200.95 E182.62743
G0 F12000 X150.32 Y200.95
G1 F1800 X155.61 Y206.24 E182.93840
G0 F12000 X155.05 Y206.24
G1 F1800 X149.76 Y200.95 E183.24934
G0 F12000 X149.19 Y200.95
G1 F1800 X154.48 Y206.24 E183.56029
G0 F12000 X153.91 Y206.24
G1 F1800 X148.63 Y200.95 E183.87126
G0 F12000 X148.06 Y200.95
G1 F1800 X153.35 Y206.24 E184.18220
G0 F12000 X152.78 Y206.24
G1 F1800 X147.50 Y200.95 E184.49315
G0 F12000 X146.93 Y200.95
G1 F1800 X152.22 Y206.24 E184.80412
G0 F12000 X151.65 Y206.24
G1 F1800 X146.36 Y200.95 E185.11506
G0 F12000 X145.80 Y200.95
G1 F1800 X151.09 Y206.24 E185.42601
G0 F12000 X150.52 Y206.24
G1 F1800 X145.23 Y200.95 E185.73698
G0 F12000 X144.67 Y200.95
G1 F1800 X149.96 Y206.24 E186.04795
G0 F12000 X149.39 Y206.24
G1 F1800 X144.10 Y200.95 E186.35890
G0 F12000 X143.53 Y200.95
G1 F1800 X148.82 Y206.24 E186.66987
G0 F12000 X148.26 Y206.24
G1 F1800 X142.97 Y200.95 E186.98084
G0 F12000 X142.40 Y200.95
G1 F1800 X147.69 Y206.24 E187.29179
G0 F12000 X147.13 Y206.24
G1 F1800 X141.84 Y200.95 E187.60276
G0 F12000 X141.27 Y200.95
G1 F1800 X146.56 Y206.24 E187.91373
G0 F12000 X146.00 Y206.24
G1 F1800 X140.71 Y200.95 E188.22467
G0 F12000 X140.14 Y200.95
G1 F1800 X145.43 Y206.24 E188.53562
G0 F12000 X144.86 Y206.24
G1 F1800 X139.57 Y200.95 E188.84659
G0 F12000 X139.01 Y200.95
G1 F1800 X144.30 Y206.24 E189.15753
G0 F12000 X143.73 Y206.24
G1 F1800 X138.44 Y200.95 E189.46848
G0 F12000 X137.88 Y200.95
G1 F1800 X143.17 Y206.24 E189.77945
G0 F12000 X142.60 Y206.24
G1 F1800 X137.31 Y200.95 E190.09039
G0 F12000 X136.75 Y200.95
G1 F1800 X142.03 Y206.24 E190.40134
G0 F12000 X141.47 Y206.24
G1 F1800 X136.18 Y200.95 E190.71231
G0 F12000 X135.62 Y200.95
G1 F1800 X140.90 Y206.24 E191.02325
G0 F12000 X140.34 Y206.24
G1 F1800 X135.05 Y200.95 E191.33420
G0 F12000 X134.48 Y200.95
G1 F1800 X139.77 Y206.24 E191.64517
G0 F12000 X139.21 Y206.24
G1 F1800 X133.92 Y200.95 E191.95614
G0 F12000 X133.35 Y200.95
G1 F1800 X138.64 Y206.24 E192.26709
G0 F12000 X138.08 Y206.24
G1 F1800 X132.79 Y200.95 E192.57806
G0 F12000 X132.22 Y200.95
G1 F1800 X137.51 Y206.24 E192.88903
G0 F12000 X136.94 Y206.24
G1 F1800 X131.66 Y200.95 E193.19998
G0 F12000 X131.47 Y200.76
G1 F1800 X128.13 Y197.43 E193.39603
G0 F12000 X128.55 Y197.28
G1 F1800 X131.47 Y200.20 E193.56725
G0 F12000 X131.47 Y199.63
G1 F1800 X128.92 Y197.09 E193.71674
G0 F12000 X129.23 Y196.83
G1 F1800 X131.47 Y199.06 E193.84806
G0 F12000 X131.47 Y198.50
G1 F1800 X129.49 Y196.52 E193.96433
G0 F12000 X129.70 Y196.17
G1 F1800 X131.47 Y197.93 E194.06801
G0 F12000 X131.47 Y197.37
G1 F1800 X129.86 Y195.76 E194.16229
G0 F12000 X129.93 Y195.27
G1 F1800 X131.47 Y196.80 E194.25261
G0 F12000 X131.47 Y196.24
G1 F1800 X129.88 Y194.65 E194.34612
G0 F12000 X131.47 Y194.54
G1 F1800 X123.71 Y186.79 E194.80191
G0 F12000 X123.71 Y187.35
G1 F1800 X131.47 Y195.10 E195.25773
G0 F12000 X131.47 Y195.67
G1 F1800 X123.71 Y187.92 E195.71354
G0 F12000 X123.71 Y188.48
G1 F1800 X128.14 Y192.91 E195.97404
G0 F12000 X127.52 Y192.86
G1 F1800 X123.71 Y189.05 E196.19785
G0 F12000 X123.71 Y189.62
G1 F1800 X127.02 Y192.93 E196.39255
G0 F12000 X126.60 Y193.07
G1 F1800 X123.71 Y190.18 E196.56235
G0 F12000 X123.71 Y190.75
G1 F1800 X126.25 Y193.29 E196.71175
G0 F12000 X125.95 Y193.55
G1 F1800 X123.71 Y191.31 E196.84346
G0 F12000 X123.71 Y191.88
G1 F1800 X125.69 Y193.85 E196.95970
G0 F12000 X125.49 Y194.22
G1 F1800 X123.71 Y192.44 E197.06406
G0 F12000 X123.71 Y193.01
G1 F1800 X125.35 Y194.65 E197.16043
G0 F12000 X125.29 Y195.16
G1 F1800 X123.71 Y193.57 E197.25339
G0 F12000 X123.71 Y194.14
G1 F1800 X125.38 Y195.81 E197.35152
G0 F12000 X123.71 Y195.84
G1 F1800 X134.12 Y206.24 E197.96317
G0 F12000 X134.68 Y206.24
G1 F1800 X123.71 Y195.27 E198.60808
G0 F12000 X123.71 Y194.71
G1 F1800 X135.25 Y206.24 E199.28626
G0 F12000 X135.81 Y206.24
G1 F1800 X126.97 Y197.40 E199.80637
G0 F12000 X127.63 Y197.49
G1 F1800 X136.38 Y206.24 E200.32081
G0 F12000 X133.55 Y206.24
G1 F1800 X123.71 Y196.40 E200.89922
G0 F12000 X123.71 Y196.97
G1 F1800 X132.98 Y206.24 E201.44435
G0 F12000 X132.42 Y206.24
G1 F1800 X123.71 Y197.53 E201.95623
G0 F12000 X123.71 Y198.10
G1 F1800 X131.85 Y206.24 E202.43486
G0 F12000 X131.29 Y206.24
G1 F1800 X123.71 Y198.67 E202.88021
G0 F12000 X123.71 Y199.23
G1 F1800 X130.72 Y206.24 E203.29231
G0 F12000 X130.16 Y206.24
G1 F1800 X123.71 Y199.80 E203.67116
G0 F12000 X123.71 Y200.36
G1 F1800 X129.59 Y206.24 E204.01674
G0 F12000 X129.03 Y206.24
G1 F1800 X123.71 Y200.93 E204.32906
G0 F12000 X123.71 Y201.50
G1 F1800 X128.46 Y206.24 E204.60811
G0 F12000 X127.89 Y206.24
G1 F1800 X123.71 Y202.06 E204.85391
G0 F12000 X123.71 Y202.63
G1 F1800 X127.33 Y206.24 E205.06645
G0 F12000 X126.76 Y206.24
G1 F1800 X123.71 Y203.19 E205.24572
G0 F12000 X123.71 Y203.76
G1 F1800 X126.20 Y206.24 E205.39174
G0 F12000 X125.63 Y206.24
G1 F1800 X123.71 Y204.32 E205.50449
G0 F12000 X123.71 Y204.89
G1 F1800 X125.06 Y206.24 E205.58398
G0 F12000 X124.50 Y206.24
G1 F1800 X123.71 Y205.45 E205.63022
G0 F12000 X123.71 Y206.02
G1 F1800 X123.93 Y206.24 E205.64319
G0 F12000 X131.47 Y193.97
G1 F1800 X123.71 Y186.22 E206.09900
G0 F12000 X123.71 Y185.66
G1 F1800 X131.47 Y193.41 E206.55482
G0 F12000 X131.47 Y192.84
G1 F1800 X123.71 Y185.09 E207.01061
G0 F12000 X123.71 Y184.52
G1 F1800 X126.10 Y186.91 E207.15084
G0 F12000 X126.12 Y186.94
G1 F1800 X131.47 Y192.28 E207.46481
G0 F12000 X131.47 Y191.71
G1 F1800 X127.18 Y187.43 E207.71657
G0 F12000 X127.78 Y187.46
G1 F1800 X131.47 Y191.15 E207.93318
G0 F12000 X131.47 Y190.58
G1 F1800 X128.26 Y187.37 E208.12189
G0 F12000 X128.66 Y187.20
G1 F1800 X131.47 Y190.01 E208.28710
G0 F12000 X131.47 Y189.45
G1 F1800 X129.00 Y186.99 E208.43174
G0 F12000 X129.31 Y186.73
G1 F1800 X131.47 Y188.88 E208.55836
G0 F12000 X131.47 Y188.32
G1 F1800 X129.55 Y186.40 E208.67092
G0 F12000 X129.74 Y186.03
G1 F1800 X131.47 Y187.75 E208.77214
G0 F12000 X131.47 Y187.19
G1 F1800 X129.88 Y185.60 E208.86525
G0 F12000 X129.94 Y185.09
G1 F1800 X131.47 Y186.62 E208.95520
G0 F12000 X131.47 Y186.05
G1 F1800 X129.80 Y184.39 E209.05292
G0 F12000 X131.47 Y184.36
G1 F1800 X123.71 Y176.60 E209.50874
G0 F12000 X123.71 Y176.04
G1 F1800 X131.47 Y183.79 E209.96453
G0 F12000 X131.47 Y183.23
G1 F1800 X123.71 Y175.47 E210.42035
G0 F12000 X123.71 Y174.91
G1 F1800 X131.47 Y182.66 E210.87616
G0 F12000 X131.47 Y182.09
G1 F1800 X123.71 Y174.34 E211.33195
G0 F12000 X124.00 Y174.07
G1 F1800 X131.47 Y181.53 E211.77069
G0 F12000 X131.47 Y180.96
G1 F1800 X124.57 Y174.07 E212.17615
G0 F12000 X125.14 Y174.07
G1 F1800 X131.47 Y180.40 E212.54833
G0 F12000 X131.47 Y179.83
G1 F1800 X125.70 Y174.07 E212.88729
G0 F12000 X126.27 Y174.07
G1 F1800 X131.55 Y179.35 E213.19817
G0 F12000 X132.12 Y179.35
G1 F1800 X126.83 Y174.07 E213.50906
G0 F12000 X127.40 Y174.07
G1 F1800 X132.69 Y179.35 E213.81991
G0 F12000 X133.25 Y179.35
G1 F1800 X127.96 Y174.07 E214.13080
G0 F12000 X128.53 Y174.07
G1 F1800 X133.82 Y179.35 E214.44168
G0 F12000 X134.38 Y179.35
G1 F1800 X129.09 Y174.07 E214.75254
G0 F12000 X129.66 Y174.07
G1 F1800 X134.95 Y179.35 E215.06342
G0 F12000 X135.51 Y179.35
G1 F1800 X130.23 Y174.07 E215.37431
G0 F12000 X130.79 Y174.07
G1 F1800 X136.08 Y179.35 E215.68516
G0 F12000 X136.65 Y179.35
G1 F1800 X131.36 Y174.07 E215.99605
G0 F12000 X131.92 Y174.07
G1 F1800 X137.21 Y179.35 E216.30693
G0 F12000 X137.78 Y179.35
G1 F1800 X132.49 Y174.07 E216.61779
G0 F12000 X133.05 Y174.07
G1 F1800 X138.34 Y179.35 E216.92867
G0 F12000 X138.91 Y179.35
G1 F1800 X133.62 Y174.07 E217.23955
G0 F12000 X134.19 Y174.07
G1 F1800 X139.47 Y179.35 E217.55041
G0 F12000 X140.04 Y179.35
G1 F1800 X134.75 Y174.07 E217.86129
G0 F12000 X135.32 Y174.07
G1 F1800 X140.60 Y179.35 E218.17218
G0 F12000 X141.17 Y179.35
G1 F1800 X135.88 Y174.07 E218.48306
G0 F12000 X136.45 Y174.07
G1 F1800 X141.74 Y179.35 E218.79395
G0 F12000 X142.30 Y179.35
G1 F1800 X137.01 Y174.07 E219.10483
G0 F12000 X137.58 Y174.07
G1 F1800 X142.87 Y179.35 E219.41572
G0 F12000 X143.43 Y179.35
G1 F1800 X138.15 Y174.07 E219.72657
G0 F12000 X138.71 Y174.07
G1 F1800 X144.00 Y179.35 E220.03746
G0 F12000 X144.56 Y179.35
G1 F1800 X139.28 Y174.07 E220.34834
G0 F12000 X139.84 Y174.07
G1 F1800 X145.13 Y179.35 E220.65920
G0 F12000 X145.70 Y179.35
G1 F1800 X140.41 Y174.07 E220.97008
G0 F12000 X140.97 Y174.07
G1 F1800 X146.26 Y179.35 E221.28097
G0 F12000 X146.83 Y179.35
G1 F1800 X141.54 Y174.07 E221.59182
G0 F12000 X142.10 Y174.07
G1 F1800 X147.39 Y179.35 E221.90271
G0 F12000 X147.96 Y179.35
G1 F1800 X142.67 Y174.07 E222.21359
G0 F12000 X143.24 Y174.07
G1 F1800 X148.52 Y179.35 E222.52445
G0 F12000 X149.09 Y179.35
G1 F1800 X143.80 Y174.07 E222.83533
G0 F12000 X144.37 Y174.07
G1 F1800 X149.66 Y179.35 E223.14622
G0 F12000 X150.22 Y179.35
G1 F1800 X144.93 Y174.07 E223.45710
G0 F12000 X145.50 Y174.07
G1 F1800 X150.79 Y179.35 E223.76799
G0 F12000 X151.35 Y179.35
G1 F1800 X146.06 Y174.07 E224.07887
G0 F12000 X146.63 Y174.07
G1 F1800 X151.92 Y179.35 E224.38976
G0 F12000 X152.48 Y179.35
G1 F1800 X147.20 Y174.07 E224.70061
G0 F12000 X147.76 Y174.07
G1 F1800 X153.05 Y179.35 E225.01150
G0 F12000 X153.62 Y179.35
G1 F1800 X148.33 Y174.07 E225.32238
G0 F12000 X148.89 Y174.07
G1 F1800 X154.18 Y179.35 E225.63324
G0 F12000 X154.75 Y179.35
G1 F1800 X149.46 Y174.07 E225.94412
G0 F12000 X150.03 Y174.07
G1 F1800 X155.31 Y179.35 E226.25501
G0 F12000 X155.88 Y179.35
G1 F1800 X150.59 Y174.07 E226.56586
G0 F12000 X151.16 Y174.07
G1 F1800 X156.44 Y179.35 E226.87675
G0 F12000 X157.01 Y179.35
G1 F1800 X151.72 Y174.07 E227.18763
G0 F12000 X152.29 Y174.07
G1 F1800 X157.57 Y179.35 E227.49849
G0 F12000 X158.14 Y179.35
G1 F1800 X152.85 Y174.07 E227.80937
G0 F12000 X153.42 Y174.07
G1 F1800 X158.71 Y179.35 E228.12026
G0 F12000 X159.27 Y179.35
G1 F1800 X153.99 Y174.07 E228.43111
G0 F12000 X154.55 Y174.07
G1 F1800 X159.84 Y179.35 E228.74200
G0 F12000 X160.40 Y179.35
G1 F1800 X155.12 Y174.07 E229.05288
G0 F12000 X155.68 Y174.07
G1 F1800 X160.97 Y179.35 E229.36377
G0 F12000 X161.53 Y179.35
G1 F1800 X156.25 Y174.07 E229.67465
G0 F12000 X156.81 Y174.07
G1 F1800 X162.10 Y179.35 E229.98554
G0 F12000 X162.67 Y179.35
G1 F1800 X157.38 Y174.07 E230.29642
G0 F12000 X157.94 Y174.07
G1 F1800 X163.23 Y179.35 E230.60728
G0 F12000 X163.80 Y179.35
G1 F1800 X158.51 Y174.07 E230.91816
G0 F12000 X159.08 Y174.07
G1 F1800 X164.36 Y179.35 E231.22904
G0 F12000 X164.93 Y179.35
G1 F1800 X159.64 Y174.07 E231.53990
G0 F12000 X160.21 Y174.07
G1 F1800 X165.50 Y179.35 E231.85078
G0 F12000 X166.06 Y179.35
G1 F1800 X160.77 Y174.07 E232.16167
G0 F12000 X161.34 Y174.07
G1 F1800 X166.63 Y179.35 E232.47252
G0 F12000 X167.19 Y179.35
G1 F1800 X161.90 Y174.07 E232.78341
G0 F12000 X162.47 Y174.07
G1 F1800 X167.76 Y179.35 E233.09429
G0 F12000 X168.32 Y179.35
G1 F1800 X163.04 Y174.07 E233.40515
G0 F12000 X163.60 Y174.07
G1 F1800 X168.89 Y179.35 E233.71603
G0 F12000 X169.46 Y179.35
G1 F1800 X164.17 Y174.07 E234.02692
G0 F12000 X164.73 Y174.07
G1 F1800 X170.02 Y179.35 E234.33777
G0 F12000 X170.59 Y179.35
G1 F1800 X165.30 Y174.07 E234.64866
G0 F12000 X165.86 Y174.07
G1 F1800 X171.15 Y179.35 E234.95954
G0 F12000 X171.72 Y179.35
G1 F1800 X166.43 Y174.07 E235.27043
G0 F12000 X167.00 Y174.07
G1 F1800 X172.28 Y179.35 E235.58131
G0 F12000 X172.85 Y179.35
G1 F1800 X167.56 Y174.07 E235.89220
G0 F12000 X168.13 Y174.07
G1 F1800 X173.41 Y179.35 E236.20308
G0 F12000 X173.53 Y179.47
G1 F1800 X176.92 Y182.86 E236.40205
G0 F12000 X176.49 Y183.00
G1 F1800 X173.53 Y180.04 E236.57597
G0 F12000 X173.53 Y180.60
G1 F1800 X176.13 Y183.20 E236.72849
G0 F12000 X175.81 Y183.44
G1 F1800 X173.53 Y181.17 E236.86219
G0 F12000 X173.53 Y181.74
G1 F1800 X175.53 Y183.74 E236.97972
G0 F12000 X175.32 Y184.09
G1 F1800 X173.53 Y182.30 E237.08505
G0 F12000 X173.53 Y182.87
G1 F1800 X175.16 Y184.50 E237.18101
G0 F12000 X175.08 Y184.98
G1 F1800 X173.53 Y183.43 E237.27173
G0 F12000 X173.53 Y184.00
G1 F1800 X175.12 Y185.58 E237.36472
G0 F12000 X173.53 Y185.70
G1 F1800 X181.29 Y193.45 E237.82059
G0 F12000 X181.29 Y194.01
G1 F1800 X173.53 Y186.26 E238.27650
G0 F12000 X173.53 Y186.83
G1 F1800 X181.29 Y194.58 E238.73238
G0 F12000 X181.29 Y195.15
G1 F1800 X173.53 Y187.39 E239.18825
G0 F12000 X173.53 Y185.13
G1 F1800 X181.29 Y192.88 E239.64413
G0 F12000 X181.29 Y192.32
G1 F1800 X173.53 Y184.56 E240.10003
G0 F12000 X177.44 Y182.81
G1 F1800 X168.69 Y174.07 E240.61427
G0 F12000 X169.26 Y174.07
G1 F1800 X178.11 Y182.92 E241.13464
G0 F12000 X179.59 Y184.40
G1 F1800 X181.29 Y186.09 E241.23462
G0 F12000 X181.29 Y186.66
G1 F1800 X179.72 Y185.09 E241.32682
G0 F12000 X179.66 Y185.60
G1 F1800 X181.29 Y187.23 E241.42221
G0 F12000 X181.29 Y187.79
G1 F1800 X179.53 Y186.03 E241.52572
G0 F12000 X179.33 Y186.40
G1 F1800 X181.29 Y188.36 E241.64067
G0 F12000 X181.29 Y188.92
G1 F1800 X179.09 Y186.73 E241.76961
G0 F12000 X178.79 Y186.99
G1 F1800 X181.29 Y189.49 E241.91663
G0 F12000 X181.29 Y190.06
G1 F1800 X178.44 Y187.21 E242.08423
G0 F12000 X178.04 Y187.37
G1 F1800 X181.29 Y190.62 E242.27532
G0 F12000 X181.29 Y191.19
G1 F1800 X177.56 Y187.46 E242.49430
G0 F12000 X176.96 Y187.43
G1 F1800 X181.29 Y191.75 E242.74854
G0 F12000 X176.38 Y193.07
G1 F1800 X173.53 Y190.22 E242.91602
G0 F12000 X173.53 Y190.79
G1 F1800 X176.04 Y193.29 E243.06316
G0 F12000 X175.74 Y193.55
G1 F1800 X173.53 Y191.35 E243.19262
G0 F12000 X173.53 Y191.92
G1 F1800 X175.47 Y193.86 E243.30660
G0 F12000 X175.27 Y194.22
G1 F1800 X173.53 Y192.48 E243.40876
G0 F12000 X173.53 Y193.05
G1 F1800 X175.13 Y194.65 E243.50286
G0 F12000 X175.08 Y195.16
G1 F1800 X173.53 Y193.62 E243.59358
G0 F12000 X181.29 Y185.53
G1 F1800 X169.82 Y174.07 E244.26754
G0 F12000 X170.39 Y174.07
G1 F1800 X181.29 Y184.96 E244.90824
G0 F12000 X181.29 Y184.40
G1 F1800 X170.96 Y174.07 E245.51569
G0 F12000 X171.52 Y174.07
G1 F1800 X181.29 Y183.83 E246.08986
G0 F12000 X181.29 Y183.27
G1 F1800 X172.09 Y174.07 E246.63079
G0 F12000 X172.65 Y174.07
G1 F1800 X181.29 Y182.70 E247.13846
G0 F12000 X181.29 Y182.13
G1 F1800 X173.22 Y174.07 E247.61286
G0 F12000 X173.78 Y174.07
G1 F1800 X181.29 Y181.57 E248.05401
G0 F12000 X181.29 Y181.00
G1 F1800 X174.35 Y174.07 E248.46191
G0 F12000 X174.91 Y174.07
G1 F1800 X181.29 Y180.44 E248.83653
G0 F12000 X181.29 Y179.87
G1 F1800 X175.48 Y174.07 E249.17790
G0 F12000 X176.05 Y174.07
G1 F1800 X181.29 Y179.31 E249.48602
G0 F12000 X181.29 Y178.74
G1 F1800 X176.61 Y174.07 E249.76086
G0 F12000 X177.18 Y174.07
G1 F1800 X181.29 Y178.18 E250.00246
G0 F12000 X181.29 Y177.61
G1 F1800 X177.74 Y174.07 E250.21077
G0 F12000 X178.31 Y174.07
G1 F1800 X181.29 Y177.04 E250.38584
G0 F12000 X181.29 Y176.48
G1 F1800 X178.88 Y174.07 E250.52765
G0 F12000 X179.44 Y174.07
G1 F1800 X181.29 Y175.91 E250.63619
G0 F12000 X181.29 Y175.35
G1 F1800 X180.01 Y174.07 E250.71148
G0 F12000 X180.57 Y174.07
G1 F1800 X181.29 Y174.78 E250.75349
G0 F12000 X181.29 Y174.22
G1 F1800 X181.14 Y174.07 E250.76225
G0 F12000 X131.66 Y179.56
G0 X131.47 Y184.92
G1 F1800 X123.71 Y177.17 E251.21807
G0 F12000 X123.71 Y177.74
G1 F1800 X131.47 Y185.49 E251.67385
G0 F12000 X128.33 Y182.92
G1 F1800 X123.71 Y178.30 E251.94529
G0 F12000 X123.71 Y178.87
G1 F1800 X127.66 Y182.81 E252.17730
G0 F12000 X127.14 Y182.86
G1 F1800 X123.71 Y179.43 E252.37856
G0 F12000 X123.71 Y180.00
G1 F1800 X126.71 Y183.00 E252.55480
G0 F12000 X126.35 Y183.20
G1 F1800 X123.71 Y180.56 E252.70961
G0 F12000 X123.71 Y181.13
G1 F1800 X126.03 Y183.44 E252.84560
G0 F12000 X125.75 Y183.73
G1 F1800 X123.71 Y181.70 E252.96540
G0 F12000 X123.71 Y182.26
G1 F1800 X125.54 Y184.09 E253.07297
G0 F12000 X125.38 Y184.50
G1 F1800 X123.71 Y182.83 E253.17110
G0 F12000 X123.71 Y183.39
G1 F1800 X125.29 Y184.97 E253.26406
G0 F12000 X125.33 Y185.58
G1 F1800 X123.71 Y183.96 E253.35922
;LAYER:1
G0 F12000 X125.57 Y184.33 Z0.40
;TYPE:WALL-INNER
G1 F2820 X125.43 Y184.86 E253.37291
G1 X125.43 Y185.41 E253.38658
G1 X125.57 Y185.94 E253.40027
G1 X125.83 Y186.43 E253.41402
G1 X126.21 Y186.83 E253.42774
G1 X126.68 Y187.12 E253.44144
G1 X127.20 Y187.29 E253.45513
G1 X127.75 Y187.33 E253.46883
G1 X128.29 Y187.22 E253.48254
G1 X128.78 Y186.99 E253.49625
G1 X129.21 Y186.64 E253.50994
G1 X129.53 Y186.19 E253.52367
G1 X129.73 Y185.68 E253.53738
G1 X129.80 Y185.14 E253.55108
G1 X129.73 Y184.59 E253.56479
G1 X129.53 Y184.08 E253.57849
G1 X129.21 Y183.64 E253.59223
G1 X128.78 Y183.29 E253.60592
G1 X128.29 Y183.05 E253.61962
G1 X127.75 Y182.95 E253.63334
G1 X127.20 Y182.99 E253.64703
G1 X126.68 Y183.16 E253.66073
G1 X126.21 Y183.45 E253.67443
G1 X125.83 Y183.85 E253.68814
G1 X125.57 Y184.33 E253.70190
G0 F12000 X126.68 Y183.16
G0 X131.61 Y179.50
G1 F2820 X131.61 Y200.81 E254.23365
G1 X173.39 Y200.81 E255.27606
G1 X173.39 Y179.50 E255.80781
G1 X131.61 Y179.50 E256.85022
G0 F12000 X123.57 Y173.93
G1 F2820 X181.43 Y173.93 E258.29339
G1 X181.43 Y206.38 E259.10299
G1 X123.57 Y206.38 E260.54616
G1 X123.57 Y173.93 E261.35575
G0 F12000 X125.57 Y185.94
G0 X127.20 Y193.02
G1 F2820 X126.68 Y193.19 E261.36945
G1 X126.21 Y193.48 E261.38315
G1 X125.83 Y193.88 E261.39686
G1 X125.57 Y194.37 E261.41062
G1 X125.43 Y194.90 E261.42431
G1 X125.43 Y195.44 E261.43798
G1 X125.57 Y195.98 E261.45167
G1 X125.83 Y196.46 E261.46542
G1 X126.21 Y196.86 E261.47914
G1 X126.68 Y197.15 E261.49284
G1 X127.20 Y197.32 E261.50653
G1 X127.75 Y197.36 E261.52023
G1 X128.29 Y197.26 E261.53394
G1 X128.78 Y197.02 E261.54765
G1 X129.21 Y196.67 E261.56134
G1 X129.53 Y196.23 E261.57507
G1 X129.73 Y195.72 E261.58878
G1 X129.80 Y195.17 E261.60248
G1 X129.73 Y194.63 E261.61619
G1 X129.53 Y194.12 E261.62989
G1 X129.21 Y193.67 E261.64362
G1 X128.78 Y193.32 E261.65732
G1 X128.29 Y193.09 E261.67102
G1 X127.75 Y192.98 E261.68474
G1 X127.20 Y193.02 E261.69843
G0 F12000 X131.66 Y179.56
G0 X173.34 Y179.56
G0 X175.22 Y194.90
G1 F2820 X175.22 Y195.44 E261.71210
G1 X175.35 Y195.98 E261.72580
G1 X175.62 Y196.46 E261.73955
G1 X176.00 Y196.86 E261.75326
G1 X176.46 Y197.15 E261.76696
G1 X176.98 Y197.32 E261.78066
G1 X177.53 Y197.36 E261.79436
G1 X178.07 Y197.26 E261.80807
G1 X178.57 Y197.02 E261.82177
G1 X178.99 Y196.67 E261.83547
G1 X179.31 Y196.23 E261.84920
G1 X179.51 Y195.72 E261.86291
G1 X179.58 Y195.17 E261.87661
G1 X179.51 Y194.63 E261.89031
G1 X179.31 Y194.12 E261.90402
G1 X178.99 Y193.67 E261.91775
G1 X178.57 Y193.32 E261.93145
G1 X178.07 Y193.09 E261.94515
G1 X177.53 Y192.98 E261.95886
G1 X176.98 Y193.02 E261.97256
G1 X176.46 Y193.19 E261.98626
G1 X176.00 Y193.48 E261.99996
G1 X175.62 Y193.88 E262.01367
G1 X175.35 Y194.37 E262.02742
G1 X175.22 Y194.90 E262.04112
G0 F12000 X176.98 Y187.29
G1 F2820 X177.53 Y187.33 E262.05481
G1 X178.07 Y187.22 E262.06853
G1 X178.57 Y186.99 E262.08223
G1 X178.99 Y186.64 E262.09592
G1 X179.31 Y186.19 E262.10966
G1 X179.51 Y185.68 E262.12336
G1 X179.58 Y185.14 E262.13707
G1 X179.51 Y184.59 E262.15077
G1 X179.31 Y184.08 E262.16448
G1 X178.99 Y183.64 E262.17821
G1 X178.57 Y183.29 E262.19190
G1 X178.07 Y183.05 E262.20561
G1 X177.53 Y182.95 E262.21932
G1 X176.98 Y182.99 E262.23302
G1 X176.46 Y183.16 E262.24671
G1 X176.00 Y183.45 E262.26041
G1 X175.62 Y183.85 E262.27413
G1 X175.35 Y184.33 E262.28788
G1 X175.22 Y184.86 E262.30157
G1 X175.22 Y185.41 E262.31524
G1 X175.35 Y185.94 E262.32893
G1 X175.62 Y186.43 E262.34269
G1 X176.00 Y186.83 E262.35640
G1 X176.46 Y187.12 E262.37010
G1 X176.98 Y187.29 E262.38380
G0 F12000 X177.06 Y186.90
;TYPE:WALL-OUTER
G1 F2820 X177.50 Y186.92 E262.39499
G1 X177.94 Y186.84 E262.40616
G1 X178.35 Y186.65 E262.41737
G1 X178.70 Y186.36 E262.42855
G1 X178.96 Y186.00 E262.43974
G1 X179.12 Y185.58 E262.45092
G1 X179.18 Y185.14 E262.46211
G1 X179.12 Y184.69 E262.47330
G1 X178.96 Y184.28 E262.48448
G1 X178.70 Y183.91 E262.49568
G1 X178.35 Y183.63 E262.50686
G1 X177.94 Y183.44 E262.51806
G1 X177.50 Y183.35 E262.52923
G1 X177.06 Y183.38 E262.54043
G1 X176.63 Y183.52 E262.55161
G1 X176.25 Y183.76 E262.56278
G1 X175.94 Y184.09 E262.57397
G1 X175.73 Y184.48 E262.58519
G1 X175.62 Y184.91 E262.59635
G1 X175.62 Y185.36 E262.60753
G1 X175.73 Y185.80 E262.61870
G1 X175.94 Y186.19 E262.62992
G1 X176.25 Y186.52 E262.64111
G1 X176.63 Y186.76 E262.65228
G1 X177.06 Y186.90 E262.66345
G0 F12000 X177.04 Y187.19
G0 X177.56 Y193.09
G0 X177.50 Y193.39
G1 F2820 X177.06 Y193.41 E262.67465
G1 X176.63 Y193.55 E262.68583
G1 X176.25 Y193.79 E262.69700
G1 X175.94 Y194.12 E262.70819
G1 X175.73 Y194.51 E262.71941
G1 X175.62 Y194.95 E262.73057
G1 X175.62 Y195.40 E262.74175
G1 X175.73 Y195.83 E262.75292
G1 X175.94 Y196.22 E262.76414
G1 X176.25 Y196.55 E262.77533
G1 X176.63 Y196.79 E262.78650
G1 X177.06 Y196.93 E262.79767
G1 X177.50 Y196.96 E262.80887
G1 X177.94 Y196.87 E262.82004
G1 X178.35 Y196.68 E262.83124
G1 X178.70 Y196.40 E262.84243
G1 X178.96 Y196.03 E262.85362
G1 X179.12 Y195.62 E262.86480
G1 X179.18 Y195.17 E262.87599
G1 X179.12 Y194.73 E262.88718
G1 X178.96 Y194.31 E262.89836
G1 X178.70 Y193.95 E262.90956
G1 X178.35 Y193.66 E262.92074
G1 X177.94 Y193.47 E262.93194
G1 X177.50 Y193.39 E262.94311
G0 F12000 X177.56 Y193.09
G0 X176.46 Y193.19
G0 X175.35 Y194.37
G0 X175.35 Y195.98
G0 X173.34 Y200.75
G0 X172.99 Y200.71
G0 X172.99 Y200.41
G1 F2820 X172.99 Y179.90 E263.45491
G1 X132.01 Y179.90 E264.47736
G1 X132.01 Y200.41 E264.98916
G1 X172.99 Y200.41 E266.01161
G0 F12000 X172.99 Y200.71
G0 X181.53 Y206.57
G0 X181.83 Y206.78
G1 F2820 X123.17 Y206.78 E267.47474
G1 X123.17 Y173.53 E268.30429
G1 X181.83 Y173.53 E269.76742
G1 X181.83 Y206.78 E270.59697
G0 F12000 X181.53 Y206.57
G0 X131.66 Y200.75
G0 X129.45 Y186.11
G0 X129.18 Y186.00
G1 F2820 X129.34 Y185.58 E270.60814
G1 X129.40 Y185.14 E270.61934
G1 X129.34 Y184.69 E270.63053
G1 X129.18 Y184.28 E270.64170
G1 X128.91 Y183.91 E270.65290
G1 X128.57 Y183.63 E270.66408
G1 X128.16 Y183.44 E270.67529
G1 X127.72 Y183.35 E270.68646
G1 X127.27 Y183.38 E270.69765
G1 X126.85 Y183.52 E270.70883
G1 X126.47 Y183.76 E270.72000
G1 X126.16 Y184.09 E270.73119
G1 X125.94 Y184.48 E270.74241
G1 X125.83 Y184.91 E270.75358
G1 X125.83 Y185.36 E270.76475
G1 X125.94 Y185.80 E270.77592
G1 X126.16 Y186.19 E270.78714
G1 X126.47 Y186.52 E270.79833
G1 X126.85 Y186.76 E270.80950
G1 X127.27 Y186.90 E270.82068
G1 X127.72 Y186.92 E270.83187
G1 X128.16 Y186.84 E270.84304
G1 X128.57 Y186.65 E270.85425
G1 X128.91 Y186.36 E270.86543
G1 X129.18 Y186.00 E270.87662
G0 F12000 X129.45 Y186.11
G0 X127.78 Y193.09
G0 X127.72 Y193.39
G1 F2820 X127.27 Y193.41 E270.88782
G1 X126.85 Y193.55 E270.89900
G1 X126.47 Y193.79 E270.91017
G1 X126.16 Y194.12 E270.92136
G1 X125.94 Y194.51 E270.93258
G1 X125.83 Y194.95 E270.94375
G1 X125.83 Y195.40 E270.95492
G1 X125.94 Y195.83 E270.96609
G1 X126.16 Y196.22 E270.97731
G1 X126.47 Y196.55 E270.98850
G1 X126.85 Y196.79 E270.99967
G1 X127.27 Y196.93 E271.01084
G1 X127.72 Y196.96 E271.02204
G1 X128.16 Y196.87 E271.03321
G1 X128.57 Y196.68 E271.04441
G1 X128.91 Y196.40 E271.05560
G1 X129.18 Y196.03 E271.06679
G1 X129.34 Y195.62 E271.07797
G1 X129.40 Y195.17 E271.08916
G1 X129.34 Y194.73 E271.10035
G1 X129.18 Y194.31 E271.11153
G1 X128.91 Y193.95 E271.12273
G1 X128.57 Y193.66 E271.13391
G1 X128.16 Y193.47 E271.14511
G1 X127.72 Y193.39 E271.15628
G0 F12000 X127.61 Y192.85
;TYPE:FILL
G1 F2820 X131.47 Y188.99 E271.29233
G0 F12000 X131.47 Y188.43
G1 F2820 X126.94 Y192.95 E271.45196
G0 F12000 X128.12 Y192.91
G1 F2820 X131.47 Y189.56 E271.57014
G0 F12000 X131.47 Y190.13
G1 F2820 X128.54 Y193.05 E271.67329
G0 F12000 X128.91 Y193.24
G1 F2820 X131.47 Y190.69 E271.76334
G0 F12000 X131.47 Y191.26
G1 F2820 X129.22 Y193.50 E271.84249
G0 F12000 X129.48 Y193.81
G1 F2820 X131.47 Y191.82 E271.91248
G0 F12000 X131.47 Y192.39
G1 F2820 X129.70 Y194.16 E271.97483
G0 F12000 X129.86 Y194.56
G1 F2820 X131.47 Y192.95 E272.03154
G0 F12000 X131.47 Y193.52
G1 F2820 X129.93 Y195.06 E272.08578
G0 F12000 X129.88 Y195.67
G1 F2820 X131.47 Y194.09 E272.14178
G0 F12000 X131.47 Y194.65
G1 F2820 X123.71 Y202.40 E272.41527
G0 F12000 X123.71 Y202.97
G1 F2820 X131.47 Y195.22 E272.68876
G0 F12000 X131.47 Y195.78
G1 F2820 X123.71 Y203.53 E272.96224
G0 F12000 X123.71 Y204.10
G1 F2820 X131.47 Y196.35 E273.23573
G0 F12000 X131.47 Y196.91
G1 F2820 X123.71 Y204.67 E273.50922
G0 F12000 X123.71 Y205.23
G1 F2820 X131.47 Y197.48 E273.78269
G0 F12000 X131.47 Y198.04
G1 F2820 X123.71 Y205.80 E274.05618
G0 F12000 X123.84 Y206.24
G1 F2820 X131.47 Y198.61 E274.32533
G0 F12000 X131.47 Y199.18
G1 F2820 X124.40 Y206.24 E274.57451
G0 F12000 X124.97 Y206.24
G1 F2820 X131.47 Y199.74 E274.80377
G0 F12000 X131.47 Y200.31
G1 F2820 X125.53 Y206.24 E275.01305
G0 F12000 X126.10 Y206.24
G1 F2820 X131.47 Y200.87 E275.20237
G0 F12000 X131.95 Y200.95
G1 F2820 X126.66 Y206.24 E275.38897
G0 F12000 X127.23 Y206.24
G1 F2820 X132.52 Y200.95 E275.57557
G0 F12000 X133.09 Y200.95
G1 F2820 X127.80 Y206.24 E275.76217
G0 F12000 X128.36 Y206.24
G1 F2820 X133.65 Y200.95 E275.94877
G0 F12000 X134.22 Y200.95
G1 F2820 X128.93 Y206.24 E276.13538
G0 F12000 X129.49 Y206.24
G1 F2820 X134.78 Y200.95 E276.32198
G0 F12000 X135.35 Y200.95
G1 F2820 X130.06 Y206.24 E276.50860
G0 F12000 X130.62 Y206.24
G1 F2820 X135.91 Y200.95 E276.69520
G0 F12000 X136.48 Y200.95
G1 F2820 X131.19 Y206.24 E276.88180
G0 F12000 X131.75 Y206.24
G1 F2820 X137.04 Y200.95 E277.06842
G0 F12000 X137.61 Y200.95
G1 F2820 X132.32 Y206.24 E277.25502
G0 F12000 X132.89 Y206.24
G1 F2820 X138.18 Y200.95 E277.44162
G0 F12000 X138.74 Y200.95
G1 F2820 X133.45 Y206.24 E277.62824
G0 F12000 X134.02 Y206.24
G1 F2820 X139.31 Y200.95 E277.81484
G0 F12000 X139.87 Y200.95
G1 F2820 X134.58 Y206.24 E278.00144
G0 F12000 X135.15 Y206.24
G1 F2820 X140.44 Y200.95 E278.18804
G0 F12000 X141.00 Y200.95
G1 F2820 X135.72 Y206.24 E278.37465
G0 F12000 X136.28 Y206.24
G1 F2820 X141.57 Y200.95 E278.56125
G0 F12000 X142.14 Y200.95
G1 F2820 X136.85 Y206.24 E278.74785
G0 F12000 X137.41 Y206.24
G1 F2820 X142.70 Y200.95 E278.93445
G0 F12000 X143.27 Y200.95
G1 F2820 X137.98 Y206.24 E279.12105
G0 F12000 X138.54 Y206.24
G1 F2820 X143.83 Y200.95 E279.30765
G0 F12000 X144.40 Y200.95
G1 F2820 X139.11 Y206.24 E279.49425
G0 F12000 X139.68 Y206.24
G1 F2820 X144.96 Y200.95 E279.68086
G0 F12000 X145.53 Y200.95
G1 F2820 X140.24 Y206.24 E279.86746
G0 F12000 X140.81 Y206.24
G1 F2820 X146.10 Y200.95 E280.05408
G0 F12000 X146.66 Y200.95
G1 F2820 X141.37 Y206.24 E280.24068
G0 F12000 X141.94 Y206.24
G1 F2820 X147.23 Y200.95 E280.42728
G0 F12000 X147.79 Y200.95
G1 F2820 X142.50 Y206.24 E280.61390
G0 F12000 X143.07 Y206.24
G1 F2820 X148.36 Y200.95 E280.80050
G0 F12000 X148.92 Y200.95
G1 F2820 X143.63 Y206.24 E280.98710
G0 F12000 X144.20 Y206.24
G1 F2820 X149.49 Y200.95 E281.17372
G0 F12000 X150.06 Y200.95
G1 F2820 X144.77 Y206.24 E281.36032
G0 F12000 X145.33 Y206.24
G1 F2820 X150.62 Y200.95 E281.54692
G0 F12000 X151.19 Y200.95
G1 F2820 X145.90 Y206.24 E281.73352
G0 F12000 X146.46 Y206.24
G1 F2820 X151.75 Y200.95 E281.92013
G0 F12000 X152.32 Y200.95
G1 F2820 X147.03 Y206.24 E282.10673
G0 F12000 X147.59 Y206.24
G1 F2820 X152.88 Y200.95 E282.29333
G0 F12000 X153.45 Y200.95
G1 F2820 X148.16 Y206.24 E282.47993
G0 F12000 X148.73 Y206.24
G1 F2820 X154.01 Y200.95 E282.66653
G0 F12000 X154.58 Y200.95
G1 F2820 X149.29 Y206.24 E282.85313
G0 F12000 X149.86 Y206.24
G1 F2820 X155.15 Y200.95 E283.03975
G0 F12000 X155.71 Y200.95
G1 F2820 X150.42 Y206.24 E283.22635
G0 F12000 X150.99 Y206.24
G1 F2820 X156.28 Y200.95 E283.41295
G0 F12000 X156.84 Y200.95
G1 F2820 X151.55 Y206.24 E283.59957
G0 F12000 X152.12 Y206.24
G1 F2820 X157.41 Y200.95 E283.78617
G0 F12000 X157.97 Y200.95
G1 F2820 X152.69 Y206.24 E283.97278
G0 F12000 X153.25 Y206.24
G1 F2820 X158.54 Y200.95 E284.15939
G0 F12000 X159.11 Y200.95
G1 F2820 X153.82 Y206.24 E284.34600
G0 F12000 X154.38 Y206.24
G1 F2820 X159.67 Y200.95 E284.53260
G0 F12000 X160.24 Y200.95
G1 F2820 X154.95 Y206.24 E284.71920
G0 F12000 X155.51 Y206.24
G1 F2820 X160.80 Y200.95 E284.90580
G0 F12000 X161.37 Y200.95
G1 F2820 X156.08 Y206.24 E285.09240
G0 F12000 X156.65 Y206.24
G1 F2820 X161.94 Y200.95 E285.27900
G0 F12000 X162.50 Y200.95
G1 F2820 X157.21 Y206.24 E285.46560
G0 F12000 X157.78 Y206.24
G1 F2820 X163.07 Y200.95 E285.65221
G0 F12000 X163.63 Y200.95
G1 F2820 X158.34 Y206.24 E285.83881
G0 F12000 X158.91 Y206.24
G1 F2820 X164.20 Y200.95 E286.02541
G0 F12000 X164.76 Y200.95
G1 F2820 X159.47 Y206.24 E286.21201
G0 F12000 X160.04 Y206.24
G1 F2820 X165.33 Y200.95 E286.39861
G0 F12000 X165.90 Y200.95
G1 F2820 X160.60 Y206.24 E286.58523
G0 F12000 X161.17 Y206.24
G1 F2820 X166.46 Y200.95 E286.77183
G0 F12000 X167.03 Y200.95
G1 F2820 X161.74 Y206.24 E286.95843
G0 F12000 X162.30 Y206.24
G1 F2820 X167.59 Y200.95 E287.14505
G0 F12000 X168.16 Y200.95
G1 F2820 X162.87 Y206.24 E287.33165
G0 F12000 X163.43 Y206.24
G1 F2820 X168.72 Y200.95 E287.51826
G0 F12000 X169.29 Y200.95
G1 F2820 X164.00 Y206.24 E287.70487
G0 F12000 X164.56 Y206.24
G1 F2820 X169.85 Y200.95 E287.89148
G0 F12000 X170.42 Y200.95
G1 F2820 X165.13 Y206.24 E288.07808
G0 F12000 X165.70 Y206.24
G1 F2820 X170.99 Y200.95 E288.26468
G0 F12000 X171.55 Y200.95
G1 F2820 X166.26 Y206.24 E288.45128
G0 F12000 X166.83 Y206.24
G1 F2820 X172.12 Y200.95 E288.63788
G0 F12000 X172.68 Y200.95
G1 F2820 X167.39 Y206.24 E288.82448
G0 F12000 X167.96 Y206.24
G1 F2820 X173.25 Y200.95 E289.01108
G0 F12000 X173.53 Y200.67
G1 F2820 X176.79 Y197.41 E289.12605
G0 F12000 X176.37 Y197.26
G1 F2820 X173.53 Y200.10 E289.22621
G0 F12000 X173.53 Y199.53
G1 F2820 X176.03 Y197.04 E289.31414
G0 F12000 X175.72 Y196.78
G1 F2820 X173.53 Y198.97 E289.39147
G0 F12000 X173.53 Y198.40
G1 F2820 X175.47 Y196.47 E289.45962
G0 F12000 X175.26 Y196.11
G1 F2820 X173.53 Y197.84 E289.52069
G0 F12000 X173.53 Y197.27
G1 F2820 X175.13 Y195.68 E289.57701
G0 F12000 X175.08 Y195.16
G1 F2820 X173.53 Y196.71 E289.63144
G0 F12000 X173.53 Y196.14
G1 F2820 X175.17 Y194.50 E289.68923
G0 F12000 X173.53 Y194.44
G1 F2820 X181.29 Y186.69 E289.96274
G0 F12000 X181.29 Y186.13
G1 F2820 X173.53 Y193.88 E290.23623
G0 F12000 X173.53 Y193.31
G1 F2820 X181.29 Y185.56 E290.50973
G0 F12000 X181.29 Y184.99
G1 F2820 X173.53 Y192.75 E290.78324
G0 F12000 X173.53 Y192.18
G1 F2820 X178.58 Y187.14 E290.96115
G0 F12000 X177.72 Y187.43
G1 F2820 X173.53 Y191.62 E291.10875
G0 F12000 X173.53 Y191.05
G1 F2820 X177.14 Y187.44 E291.23614
G0 F12000 X176.68 Y187.34
G1 F2820 X173.53 Y190.48 E291.34714
G0 F12000 X173.53 Y189.92
G1 F2820 X176.28 Y187.17 E291.44406
G0 F12000 X175.93 Y186.95
G1 F2820 X173.53 Y189.35 E291.52877
G0 F12000 X173.53 Y188.79
G1 F2820 X175.65 Y186.67 E291.60354
G0 F12000 X175.41 Y186.34
G1 F2820 X173.53 Y188.22 E291.66979
G0 F12000 X173.53 Y187.66
G1 F2820 X175.21 Y185.97 E291.72909
G0 F12000 X175.10 Y185.52
G1 F2820 X173.53 Y187.09 E291.78435
G0 F12000 X173.53 Y186.52
G1 F2820 X175.08 Y184.98 E291.83879
G0 F12000 X175.23 Y184.26
G1 F2820 X173.53 Y185.96 E291.89865
G0 F12000 X173.53 Y185.39
G1 F2820 X181.29 Y177.64 E292.17216
G0 F12000 X181.29 Y177.07
G1 F2820 X173.53 Y184.83 E292.44565
G0 F12000 X173.53 Y184.26
G1 F2820 X181.29 Y176.51 E292.71916
G0 F12000 X181.29 Y175.94
G1 F2820 X173.53 Y183.70 E292.99267
G0 F12000 X173.53 Y183.13
G1 F2820 X181.29 Y175.38 E293.26616
G0 F12000 X181.29 Y174.81
G1 F2820 X173.53 Y182.56 E293.53967
G0 F12000 X173.53 Y182.00
G1 F2820 X181.29 Y174.25 E293.81317
G0 F12000 X180.90 Y174.07
G1 F2820 X173.53 Y181.43 E294.07308
G0 F12000 X173.53 Y180.87
G1 F2820 X180.34 Y174.07 E294.31304
G0 F12000 X179.77 Y174.07
G1 F2820 X173.53 Y180.30 E294.53303
G0 F12000 X173.53 Y179.74
G1 F2820 X179.20 Y174.07 E294.73307
G0 F12000 X178.64 Y174.07
G1 F2820 X173.35 Y179.35 E294.91966
G0 F12000 X172.78 Y179.35
G1 F2820 X178.07 Y174.07 E295.10624
G0 F12000 X177.51 Y174.07
G1 F2820 X172.22 Y179.35 E295.29284
G0 F12000 X171.65 Y179.35
G1 F2820 X176.94 Y174.07 E295.47943
G0 F12000 X176.38 Y174.07
G1 F2820 X171.09 Y179.35 E295.66601
G0 F12000 X170.52 Y179.35
G1 F2820 X175.81 Y174.07 E295.85261
G0 F12000 X175.24 Y174.07
G1 F2820 X169.96 Y179.35 E296.03920
G0 F12000 X169.39 Y179.35
G1 F2820 X174.68 Y174.07 E296.22578
G0 F12000 X174.11 Y174.07
G1 F2820 X168.82 Y179.35 E296.41238
G0 F12000 X168.26 Y179.35
G1 F2820 X173.55 Y174.07 E296.59896
G0 F12000 X172.98 Y174.07
G1 F2820 X167.69 Y179.35 E296.78555
G0 F12000 X167.13 Y179.35
G1 F2820 X172.41 Y174.07 E296.97213
G0 F12000 X171.85 Y174.07
G1 F2820 X166.56 Y179.35 E297.15872
G0 F12000 X166.00 Y179.35
G1 F2820 X171.28 Y174.07 E297.34530
G0 F12000 X170.72 Y174.07
G1 F2820 X165.43 Y179.35 E297.53188
G0 F12000 X164.86 Y179.35
G1 F2820 X170.15 Y174.07 E297.71847
G0 F12000 X169.59 Y174.07
G1 F2820 X164.30 Y179.35 E297.90505
G0 F12000 X163.73 Y179.35
G1 F2820 X169.02 Y174.07 E298.09163
G0 F12000 X168.46 Y174.07
G1 F2820 X163.17 Y179.35 E298.27822
G0 F12000 X162.60 Y179.35
G1 F2820 X167.89 Y174.07 E298.46480
G0 F12000 X167.32 Y174.07
G1 F2820 X162.03 Y179.35 E298.65139
G0 F12000 X161.47 Y179.35
G1 F2820 X166.76 Y174.07 E298.83799
G0 F12000 X166.19 Y174.07
G1 F2820 X160.90 Y179.35 E299.02457
G0 F12000 X160.34 Y179.35
G1 F2820 X165.63 Y174.07 E299.21116
G0 F12000 X165.06 Y174.07
G1 F2820 X159.77 Y179.35 E299.39776
G0 F12000 X159.21 Y179.35
G1 F2820 X164.50 Y174.07 E299.58434
G0 F12000 X163.93 Y174.07
G1 F2820 X158.64 Y179.35 E299.77092
G0 F12000 X158.07 Y179.35
G1 F2820 X163.37 Y174.07 E299.95753
G0 F12000 X162.80 Y174.07
G1 F2820 X157.51 Y179.35 E300.14411
G0 F12000 X156.94 Y179.35
G1 F2820 X162.23 Y174.07 E300.33069
G0 F12000 X161.67 Y174.07
G1 F2820 X156.38 Y179.35 E300.51728
G0 F12000 X155.81 Y179.35
G1 F2820 X161.10 Y174.07 E300.70386
G0 F12000 X160.54 Y174.07
G1 F2820 X155.25 Y179.35 E300.89044
G0 F12000 X154.68 Y179.35
G1 F2820 X159.97 Y174.07 E301.07703
G0 F12000 X159.41 Y174.07
G1 F2820 X154.12 Y179.35 E301.26361
G0 F12000 X153.55 Y179.35
G1 F2820 X158.84 Y174.07 E301.45020
G0 F12000 X158.27 Y174.07
G1 F2820 X152.98 Y179.35 E301.63678
G0 F12000 X152.42 Y179.35
G1 F2820 X157.71 Y174.07 E301.82338
G0 F12000 X157.14 Y174.07
G1 F2820 X151.85 Y179.35 E302.00996
G0 F12000 X151.29 Y179.35
G1 F2820 X156.58 Y174.07 E302.19655
G0 F12000 X156.01 Y174.07
G1 F2820 X150.72 Y179.35 E302.38315
G0 F12000 X150.16 Y179.35
G1 F2820 X155.44 Y174.07 E302.56973
G0 F12000 X154.88 Y174.07
G1 F2820 X149.59 Y179.35 E302.75632
G0 F12000 X149.02 Y179.35
G1 F2820 X154.31 Y174.07 E302.94292
G0 F12000 X153.75 Y174.07
G1 F2820 X148.46 Y179.35 E303.12950
G0 F12000 X147.89 Y179.35
G1 F2820 X153.18 Y174.07 E303.31609
G0 F12000 X152.62 Y174.07
G1 F2820 X147.33 Y179.35 E303.50267
G0 F12000 X146.76 Y179.35
G1 F2820 X152.05 Y174.07 E303.68925
G0 F12000 X151.49 Y174.07
G1 F2820 X146.20 Y179.35 E303.87584
G0 F12000 X145.63 Y179.35
G1 F2820 X150.92 Y174.07 E304.06242
G0 F12000 X150.35 Y174.07
G1 F2820 X145.06 Y179.35 E304.24900
G0 F12000 X144.50 Y179.35
G1 F2820 X149.79 Y174.07 E304.43559
G0 F12000 X149.22 Y174.07
G1 F2820 X143.93 Y179.35 E304.62217
G0 F12000 X143.37 Y179.35
G1 F2820 X148.66 Y174.07 E304.80876
G0 F12000 X148.09 Y174.07
G1 F2820 X142.80 Y179.35 E304.99534
G0 F12000 X142.24 Y179.35
G1 F2820 X147.53 Y174.07 E305.18192
G0 F12000 X146.96 Y174.07
G1 F2820 X141.67 Y179.35 E305.36852
G0 F12000 X141.10 Y179.35
G1 F2820 X146.39 Y174.07 E305.55511
G0 F12000 X145.83 Y174.07
G1 F2820 X140.54 Y179.35 E305.74169
G0 F12000 X139.97 Y179.35
G1 F2820 X145.26 Y174.07 E305.92829
G0 F12000 X144.70 Y174.07
G1 F2820 X139.41 Y179.35 E306.11488
G0 F12000 X138.84 Y179.35
G1 F2820 X144.13 Y174.07 E306.30146
G0 F12000 X143.57 Y174.07
G1 F2820 X138.28 Y179.35 E306.48806
G0 F12000 X137.71 Y179.35
G1 F2820 X143.00 Y174.07 E306.67465
G0 F12000 X142.43 Y174.07
G1 F2820 X137.15 Y179.35 E306.86123
G0 F12000 X136.58 Y179.35
G1 F2820 X141.87 Y174.07 E307.04781
G0 F12000 X141.30 Y174.07
G1 F2820 X136.01 Y179.35 E307.23440
G0 F12000 X135.45 Y179.35
G1 F2820 X140.74 Y174.07 E307.42098
G0 F12000 X140.17 Y174.07
G1 F2820 X134.88 Y179.35 E307.60757
G0 F12000 X134.32 Y179.35
G1 F2820 X139.61 Y174.07 E307.79415
G0 F12000 X139.04 Y174.07
G1 F2820 X133.75 Y179.35 E307.98073
G0 F12000 X133.19 Y179.35
G1 F2820 X138.47 Y174.07 E308.16732
G0 F12000 X137.91 Y174.07
G1 F2820 X132.62 Y179.35 E308.35392
G0 F12000 X132.05 Y179.35
G1 F2820 X137.34 Y174.07 E308.54050
G0 F12000 X136.78 Y174.07
G1 F2820 X131.49 Y179.35 E308.72709
G0 F12000 X131.47 Y179.38
G1 F2820 X127.99 Y182.85 E308.84968
G0 F12000 X128.44 Y182.97
G1 F2820 X131.47 Y179.94 E308.95644
G0 F12000 X131.47 Y180.51
G1 F2820 X128.82 Y183.15 E309.04963
G0 F12000 X129.14 Y183.40
G1 F2820 X131.47 Y181.07 E309.13165
G0 F12000 X131.47 Y181.64
G1 F2820 X129.42 Y183.69 E309.20388
G0 F12000 X129.66 Y184.02
G1 F2820 X131.47 Y182.21 E309.26773
G0 F12000 X131.47 Y182.77
G1 F2820 X129.82 Y184.42 E309.32591
G0 F12000 X129.91 Y184.89
G1 F2820 X131.47 Y183.34 E309.38075
G0 F12000 X131.47 Y183.90
G1 F2820 X129.90 Y185.47 E309.43599
G0 F12000 X129.60 Y186.33
G1 F2820 X131.47 Y184.47 E309.50168
G0 F12000 X131.47 Y185.03
G1 F2820 X123.71 Y192.79 E309.77517
G0 F12000 X123.71 Y192.22
G1 F2820 X128.80 Y187.13 E309.95461
G0 F12000 X127.94 Y187.43
G1 F2820 X123.71 Y191.66 E310.10366
G0 F12000 X123.71 Y191.09
G1 F2820 X127.36 Y187.44 E310.23242
G0 F12000 X126.90 Y187.34
G1 F2820 X123.71 Y190.52 E310.34482
G0 F12000 X123.71 Y189.96
G1 F2820 X126.50 Y187.17 E310.44310
G0 F12000 X126.15 Y186.95
G1 F2820 X123.71 Y189.39 E310.52918
G0 F12000 X123.71 Y188.83
G1 F2820 X125.87 Y186.67 E310.60531
G0 F12000 X125.63 Y186.34
G1 F2820 X123.71 Y188.26 E310.67293
G0 F12000 X123.71 Y187.70
G1 F2820 X125.43 Y185.98 E310.73358
G0 F12000 X125.32 Y185.53
G1 F2820 X123.71 Y187.13 E310.79020
G0 F12000 X123.71 Y186.56
G1 F2820 X125.29 Y184.98 E310.84597
G0 F12000 X125.44 Y184.27
G1 F2820 X123.71 Y186.00 E310.90700
G0 F12000 X123.71 Y185.43
G1 F2820 X135.08 Y174.07 E311.30800
G0 F12000 X134.51 Y174.07
G1 F2820 X123.71 Y184.87 E311.68907
G0 F12000 X123.71 Y184.30
G1 F2820 X133.95 Y174.07 E312.05017
G0 F12000 X133.38 Y174.07
G1 F2820 X123.71 Y183.74 E312.39131
G0 F12000 X123.71 Y183.17
G1 F2820 X132.82 Y174.07 E312.71250
G0 F12000 X132.25 Y174.07
G1 F2820 X123.71 Y182.60 E313.01373
G0 F12000 X123.71 Y182.04
G1 F2820 X131.69 Y174.07 E313.29500
G0 F12000 X131.12 Y174.07
G1 F2820 X123.71 Y181.47 E313.55632
G0 F12000 X123.71 Y180.91
G1 F2820 X130.56 Y174.07 E313.79769
G0 F12000 X129.99 Y174.07
G1 F2820 X123.71 Y180.34 E314.01909
G0 F12000 X123.71 Y179.78
G1 F2820 X129.42 Y174.07 E314.22053
G0 F12000 X128.86 Y174.07
G1 F2820 X123.71 Y179.21 E314.40203
G0 F12000 X123.71 Y178.65
G1 F2820 X128.29 Y174.07 E314.56357
G0 F12000 X127.73 Y174.07
G1 F2820 X123.71 Y178.08 E314.70514
G0 F12000 X123.71 Y177.51
G1 F2820 X127.16 Y174.07 E314.82678
G0 F12000 X126.59 Y174.07
G1 F2820 X123.71 Y176.95 E314.92845
G0 F12000 X123.71 Y176.38
G1 F2820 X126.03 Y174.07 E315.01015
G0 F12000 X125.46 Y174.07
G1 F2820 X123.71 Y175.82 E315.07192
G0 F12000 X123.71 Y175.25
G1 F2820 X124.90 Y174.07 E315.11373
G0 F12000 X124.33 Y174.07
G1 F2820 X123.71 Y174.69 E315.13556
G0 F12000 X126.72 Y182.99
G1 F2820 X135.65 Y174.07 E315.45052
G0 F12000 X136.21 Y174.07
G1 F2820 X127.45 Y182.83 E315.75962
G0 F12000 X129.21 Y183.64
G0 X131.47 Y185.60
G1 F2820 X123.71 Y193.35 E316.03311
G0 F12000 X123.71 Y193.92
G1 F2820 X131.47 Y186.17 E316.30661
G0 F12000 X131.47 Y186.73
G1 F2820 X123.71 Y194.48 E316.58008
G0 F12000 X123.71 Y195.05
G1 F2820 X131.47 Y187.30 E316.85357
G0 F12000 X131.47 Y187.86
G1 F2820 X123.71 Y195.62 E317.12706
G0 F12000 X123.71 Y196.18
G1 F2820 X125.39 Y194.51 E317.18610
G0 F12000 X125.29 Y195.17
G1 F2820 X123.71 Y196.75 E317.24183
G0 F12000 X123.71 Y197.31
G1 F2820 X125.35 Y195.68 E317.29953
G0 F12000 X125.48 Y196.11
G1 F2820 X123.71 Y197.88 E317.36194
G0 F12000 X123.71 Y198.44
G1 F2820 X125.68 Y196.47 E317.43143
G0 F12000 X125.94 Y196.78
G1 F2820 X123.71 Y199.01 E317.51014
G0 F12000 X123.71 Y199.57
G1 F2820 X126.24 Y197.04 E317.59943
G0 F12000 X126.59 Y197.26
G1 F2820 X123.71 Y200.14 E317.70096
G0 F12000 X123.71 Y200.71
G1 F2820 X127.01 Y197.41 E317.81730
G0 F12000 X127.50 Y197.48
G1 F2820 X123.71 Y201.27 E317.95100
G0 F12000 X123.71 Y201.84
G1 F2820 X128.12 Y197.43 E318.10658
G0 F12000 X131.66 Y200.75
G0 X168.53 Y206.24
G1 F2820 X177.28 Y197.48 E318.41558
G0 F12000 X177.90 Y197.43
G1 F2820 X169.09 Y206.24 E318.72644
G0 F12000 X169.66 Y206.24
G1 F2820 X181.29 Y194.61 E319.13672
G0 F12000 X181.29 Y195.18
G1 F2820 X170.22 Y206.24 E319.52704
G0 F12000 X170.79 Y206.24
G1 F2820 X181.29 Y195.74 E319.89740
G0 F12000 X181.29 Y196.31
G1 F2820 X171.35 Y206.24 E320.24781
G0 F12000 X171.92 Y206.24
G1 F2820 X181.29 Y196.87 E320.57826
G0 F12000 X181.29 Y197.44
G1 F2820 X172.49 Y206.24 E320.88876
G0 F12000 X173.05 Y206.24
G1 F2820 X181.29 Y198.00 E321.17930
G0 F12000 X181.29 Y198.57
G1 F2820 X173.62 Y206.24 E321.44988
G0 F12000 X174.18 Y206.24
G1 F2820 X181.29 Y199.14 E321.70051
G0 F12000 X181.29 Y199.70
G1 F2820 X174.75 Y206.24 E321.93118
G0 F12000 X175.31 Y206.24
G1 F2820 X181.29 Y200.27 E322.14189
G0 F12000 X181.29 Y200.83
G1 F2820 X175.88 Y206.24 E322.33265
G0 F12000 X176.44 Y206.24
G1 F2820 X181.29 Y201.40 E322.50345
G0 F12000 X181.29 Y201.97
G1 F2820 X177.01 Y206.24 E322.65430
G0 F12000 X177.58 Y206.24
G1 F2820 X181.29 Y202.53 E322.78520
G0 F12000 X181.29 Y203.10
G1 F2820 X178.14 Y206.24 E322.89613
G0 F12000 X178.71 Y206.24
G1 F2820 X181.29 Y203.66 E322.98711
G0 F12000 X181.29 Y204.23
G1 F2820 X179.27 Y206.24 E323.05814
G0 F12000 X179.84 Y206.24
G1 F2820 X181.29 Y204.79 E323.10920
G0 F12000 X181.29 Y205.36
G1 F2820 X180.40 Y206.24 E323.14032
G0 F12000 X180.97 Y206.24
G1 F2820 X181.29 Y205.93 E323.15147
G0 F12000 X179.66 Y195.67
G1 F2820 X181.29 Y194.04 E323.20879
G0 F12000 X181.29 Y193.48
G1 F2820 X179.71 Y195.06 E323.26437
G0 F12000 X179.64 Y194.56
G1 F2820 X181.29 Y192.91 E323.32244
G0 F12000 X181.29 Y192.35
G1 F2820 X179.48 Y194.15 E323.38615
G0 F12000 X179.26 Y193.81
G1 F2820 X181.29 Y191.78 E323.45752
G0 F12000 X181.29 Y191.22
G1 F2820 X179.00 Y193.50 E323.53802
G0 F12000 X178.69 Y193.24
G1 F2820 X181.29 Y190.65 E323.62946
G0 F12000 X181.29 Y190.09
G1 F2820 X178.32 Y193.05 E323.73404
G0 F12000 X177.90 Y192.91
G1 F2820 X181.29 Y189.52 E323.85363
G0 F12000 X181.29 Y188.95
G1 F2820 X177.39 Y192.85 E323.99108
G0 F12000 X176.72 Y192.96
G1 F2820 X181.29 Y188.39 E324.15221
G0 F12000 X181.29 Y187.82
G1 F2820 X173.53 Y195.57 E324.42570
G0 F12000 X173.53 Y195.01
G1 F2820 X181.29 Y187.26 E324.69921
G0 F12000 X179.39 Y186.32
G1 F2820 X181.29 Y184.43 E324.76595
G0 F12000 X181.29 Y183.86
G1 F2820 X179.68 Y185.47 E324.82250
G0 F12000 X179.69 Y184.89
G1 F2820 X181.29 Y183.30 E324.87870
G0 F12000 X181.29 Y182.73
G1 F2820 X179.60 Y184.42 E324.93830
G0 F12000 X179.44 Y184.01
G1 F2820 X181.29 Y182.17 E325.00353
G0 F12000 X181.29 Y181.60
G1 F2820 X179.20 Y183.69 E325.07715
G0 F12000 X178.92 Y183.40
G1 F2820 X181.29 Y181.03 E325.16057
G0 F12000 X181.29 Y180.47
G1 F2820 X178.60 Y183.15 E325.25515
G0 F12000 X178.22 Y182.97
G1 F2820 X181.29 Y179.90 E325.36331
G0 F12000 X181.29 Y179.34
G1 F2820 X177.77 Y182.85 E325.48734
G0 F12000 X177.23 Y182.83
G1 F2820 X181.29 Y178.77 E325.63043
G0 F12000 X181.29 Y178.21
G1 F2820 X176.50 Y183.00 E325.79938
G1 F2400 E324.59938
G0 F12000 X181.43 Y168.73
;TYPE:WALL-INNER
G1 F2400 E325.79938
G1 F2820 X123.57 Y168.73 E327.24255
G1 X123.57 Y136.27 E328.05212
G1 X181.43 Y136.27 E329.49529
G1 X181.43 Y168.73 E330.30486
G0 F12000 X173.39 Y163.16
G1 F2820 X173.39 Y141.84 E330.83659
G1 X131.61 Y141.84 E331.87900
G1 X131.61 Y163.16 E332.41073
G1 X173.39 Y163.16 E333.45313
G0 F12000 X176.00 Y159.21
G1 F2820 X176.46 Y159.50 E333.46683
G1 X176.98 Y159.67 E333.48053
G1 X177.53 Y159.70 E333.49423
G1 X178.07 Y159.60 E333.50794
G1 X178.57 Y159.37 E333.52164
G1 X178.99 Y159.02 E333.53534
G1 X179.31 Y158.57 E333.54907
G1 X179.51 Y158.06 E333.56278
G1 X179.58 Y157.52 E333.57648
G1 X179.51 Y156.97 E333.59018
G1 X179.31 Y156.46 E333.60389
G1 X178.99 Y156.01 E333.61762
G1 X178.57 Y155.66 E333.63132
G1 X178.07 Y155.43 E333.64502
G1 X177.53 Y155.33 E333.65873
G1 X176.98 Y155.36 E333.67243
G1 X176.46 Y155.53 E333.68613
G1 X176.00 Y155.83 E333.69983
G1 X175.62 Y156.23 E333.71354
G1 X175.35 Y156.71 E333.72729
G1 X175.22 Y157.24 E333.74099
G1 X175.22 Y157.79 E333.75466
G1 X175.35 Y158.32 E333.76835
G1 X175.62 Y158.81 E333.78210
G1 X176.00 Y159.21 E333.79581
G0 F12000 X175.22 Y157.79
G0 X175.62 Y156.23
G0 X176.98 Y149.64
G1 F2820 X177.53 Y149.67 E333.80951
G1 X178.07 Y149.57 E333.82322
G1 X178.57 Y149.34 E333.83693
G1 X178.99 Y148.99 E333.85062
G1 X179.31 Y148.54 E333.86435
G1 X179.51 Y148.03 E333.87806
G1 X179.58 Y147.48 E333.89176
G1 X179.51 Y146.94 E333.90547
G1 X179.31 Y146.43 E333.91917
G1 X178.99 Y145.98 E333.93291
G1 X178.57 Y145.63 E333.94660
G1 X178.07 Y145.40 E333.96030
G1 X177.53 Y145.30 E333.97402
G1 X176.98 Y145.33 E333.98772
G1 X176.46 Y145.50 E334.00141
G1 X176.00 Y145.79 E334.01511
G1 X175.62 Y146.19 E334.02882
G1 X175.35 Y146.68 E334.04258
G1 X175.22 Y147.21 E334.05627
G1 X175.22 Y147.76 E334.06994
G1 X175.35 Y148.29 E334.08363
G1 X175.62 Y148.77 E334.09739
G1 X176.00 Y149.17 E334.11110
G1 X176.46 Y149.47 E334.12480
G1 X176.98 Y149.64 E334.13849
G0 F12000 X173.34 Y163.10
G0 X131.66 Y163.10
G0 X129.80 Y147.48
G1 F2820 X129.73 Y146.94 E334.15220
G1 X129.53 Y146.43 E334.16590
G1 X129.21 Y145.98 E334.17964
G1 X128.78 Y145.63 E334.19333
G1 X128.29 Y145.40 E334.20703
G1 X127.75 Y145.30 E334.22075
G1 X127.20 Y145.33 E334.23444
G1 X126.68 Y145.50 E334.24814
G1 X126.21 Y145.79 E334.26184
G1 X125.83 Y146.19 E334.27555
G1 X125.57 Y146.68 E334.28931
G1 X125.43 Y147.21 E334.30300
G1 X125.43 Y147.76 E334.31667
G1 X125.57 Y148.29 E334.33036
G1 X125.83 Y148.77 E334.34412
G1 X126.21 Y149.17 E334.35783
G1 X126.68 Y149.47 E334.37153
G1 X127.20 Y149.64 E334.38522
G1 X127.75 Y149.67 E334.39892
G1 X128.29 Y149.57 E334.41263
G1 X128.78 Y149.34 E334.42634
G1 X129.21 Y148.99 E334.44003
G1 X129.53 Y148.54 E334.45376
G1 X129.73 Y148.03 E334.46747
G1 X129.80 Y147.48 E334.48117
G0 F12000 X128.29 Y155.43
G1 F2820 X127.75 Y155.33 E334.49489
G1 X127.20 Y155.36 E334.50859
G1 X126.68 Y155.53 E334.52228
G1 X126.21 Y155.83 E334.53598
G1 X125.83 Y156.23 E334.54969
G1 X125.57 Y156.71 E334.56345
G1 X125.43 Y157.24 E334.57714
G1 X125.43 Y157.79 E334.59081
G1 X125.57 Y158.32 E334.60450
G1 X125.83 Y158.81 E334.61826
G1 X126.21 Y159.21 E334.63197
G1 X126.68 Y159.50 E334.64567
G1 X127.20 Y159.67 E334.65936
G1 X127.75 Y159.70 E334.67306
G1 X128.29 Y159.60 E334.68678
G1 X128.78 Y159.37 E334.70048
G1 X129.21 Y159.02 E334.71417
G1 X129.53 Y158.57 E334.72791
G1 X129.73 Y158.06 E334.74161
G1 X129.80 Y157.52 E334.75532
G1 X129.73 Y156.97 E334.76902
G1 X129.53 Y156.46 E334.78273
G1 X129.21 Y156.01 E334.79646
G1 X128.78 Y155.66 E334.81015
G1 X128.29 Y155.43 E334.82386
G0 F12000 X128.16 Y155.81
;TYPE:WALL-OUTER
G1 F2820 X127.72 Y155.73 E334.83503
G1 X127.27 Y155.76 E334.84622
G1 X126.85 Y155.90 E334.85740
G1 X126.47 Y156.14 E334.86857
G1 X126.16 Y156.46 E334.87976
G1 X125.94 Y156.86 E334.89098
G1 X125.83 Y157.29 E334.90215
G1 X125.83 Y157.74 E334.91332
G1 X125.94 Y158.17 E334.92449
G1 X126.16 Y158.57 E334.93571
G1 X126.47 Y158.89 E334.94690
G1 X126.85 Y159.13 E334.95807
G1 X127.27 Y159.27 E334.96925
G1 X127.72 Y159.30 E334.98044
G1 X128.16 Y159.22 E334.99161
G1 X128.57 Y159.03 E335.00282
G1 X128.91 Y158.74 E335.01400
G1 X129.18 Y158.38 E335.02519
G1 X129.34 Y157.96 E335.03637
G1 X129.40 Y157.52 E335.04756
G1 X129.34 Y157.07 E335.05875
G1 X129.18 Y156.65 E335.06993
G1 X128.91 Y156.29 E335.08113
G1 X128.57 Y156.01 E335.09231
G1 X128.16 Y155.81 E335.10351
G0 F12000 X128.22 Y155.52
G0 X127.70 Y149.57
G0 X127.72 Y149.27
G1 F2820 X128.16 Y149.19 E335.11468
G1 X128.57 Y148.99 E335.12589
G1 X128.91 Y148.71 E335.13707
G1 X129.18 Y148.35 E335.14826
G1 X129.34 Y147.93 E335.15944
G1 X129.40 Y147.48 E335.17063
G1 X129.34 Y147.04 E335.18182
G1 X129.18 Y146.62 E335.19300
G1 X128.91 Y146.26 E335.20420
G1 X128.57 Y145.97 E335.21538
G1 X128.16 Y145.78 E335.22658
G1 X127.72 Y145.70 E335.23775
G1 X127.27 Y145.73 E335.24895
G1 X126.85 Y145.87 E335.26013
G1 X126.47 Y146.11 E335.27130
G1 X126.16 Y146.43 E335.28249
G1 X125.94 Y146.83 E335.29371
G1 X125.83 Y147.26 E335.30487
G1 X125.83 Y147.71 E335.31605
G1 X125.94 Y148.14 E335.32722
G1 X126.16 Y148.54 E335.33844
G1 X126.47 Y148.86 E335.34963
G1 X126.85 Y149.10 E335.36080
G1 X127.27 Y149.24 E335.37197
G1 X127.72 Y149.27 E335.38317
G0 F12000 X127.70 Y149.57
G0 X128.78 Y149.33
G0 X129.73 Y148.03
G0 X131.66 Y141.90
G0 X132.01 Y141.94
G0 X132.01 Y142.24
G1 F2820 X132.01 Y162.76 E335.89494
G1 X172.99 Y162.76 E336.91739
G1 X172.99 Y142.24 E337.42917
G1 X132.01 Y142.24 E338.45162
G0 F12000 X132.01 Y141.94
G0 X123.47 Y136.08
G0 X123.17 Y135.87
G1 F2820 X181.83 Y135.87 E339.91475
G1 X181.83 Y169.13 E340.74427
G1 X123.17 Y169.13 E342.20740
G1 X123.17 Y135.87 E343.03693
G0 F12000 X123.47 Y136.08
G0 X173.34 Y141.90
G0 X175.44 Y156.78
G0 X175.73 Y156.86
G1 F2820 X175.62 Y157.29 E343.04809
G1 X175.62 Y157.74 E343.05927
G1 X175.73 Y158.17 E343.07044
G1 X175.94 Y158.57 E343.08166
G1 X176.25 Y158.89 E343.09285
G1 X176.63 Y159.13 E343.10402
G1 X177.06 Y159.27 E343.11519
G1 X177.50 Y159.30 E343.12639
G1 X177.94 Y159.22 E343.13756
G1 X178.35 Y159.03 E343.14876
G1 X178.70 Y158.74 E343.15995
G1 X178.96 Y158.38 E343.17114
G1 X179.12 Y157.96 E343.18232
G1 X179.18 Y157.52 E343.19351
G1 X179.12 Y157.07 E343.20470
G1 X178.96 Y156.65 E343.21588
G1 X178.70 Y156.29 E343.22708
G1 X178.35 Y156.01 E343.23826
G1 X177.94 Y155.81 E343.24946
G1 X177.50 Y155.73 E343.26063
G1 X177.06 Y155.76 E343.27183
G1 X176.63 Y155.90 E343.28301
G1 X176.25 Y156.14 E343.29418
G1 X175.94 Y156.46 E343.30536
G1 X175.73 Y156.86 E343.31658
G0 F12000 X175.44 Y156.78
G0 X177.04 Y149.54
G0 X177.06 Y149.24
G1 F2820 X177.50 Y149.27 E343.32778
G1 X177.94 Y149.19 E343.33895
G1 X178.35 Y148.99 E343.35015
G1 X178.70 Y148.71 E343.36134
G1 X178.96 Y148.35 E343.37253
G1 X179.12 Y147.93 E343.38371
G1 X179.18 Y147.48 E343.39490
G1 X179.12 Y147.04 E343.40609
G1 X178.96 Y146.62 E343.41727
G1 X178.70 Y146.26 E343.42847
G1 X178.35 Y145.97 E343.43965
G1 X177.94 Y145.78 E343.45085
G1 X177.50 Y145.70 E343.46202
G1 X177.06 Y145.73 E343.47322
G1 X176.63 Y145.87 E343.48440
G1 X176.25 Y146.11 E343.49557
G1 X175.94 Y146.43 E343.50675
G1 X175.73 Y146.83 E343.51797
G1 X175.62 Y147.26 E343.52914
G1 X175.62 Y147.71 E343.54032
G1 X175.73 Y148.14 E343.55149
G1 X175.94 Y148.54 E343.56271
G1 X176.25 Y148.86 E343.57389
G1 X176.63 Y149.10 E343.58506
G1 X177.06 Y149.24 E343.59624
G0 F12000 X176.92 Y149.76
;TYPE:FILL
G1 F2820 X173.53 Y153.15 E343.71571
G0 F12000 X173.53 Y153.72
G1 F2820 X177.44 Y149.81 E343.85361
G0 F12000 X178.11 Y149.70
G1 F2820 X173.53 Y154.28 E344.01513
G0 F12000 X173.53 Y154.85
G1 F2820 X181.28 Y147.09 E344.28862
G0 F12000 X181.28 Y147.66
G1 F2820 X173.53 Y155.41 E344.56209
G0 F12000 X173.53 Y155.98
G1 F2820 X181.28 Y148.22 E344.83558
G0 F12000 X181.28 Y148.79
G1 F2820 X173.53 Y156.54 E345.10907
G0 F12000 X173.53 Y157.11
G1 F2820 X181.28 Y149.36 E345.38255
G0 F12000 X181.28 Y149.92
G1 F2820 X173.53 Y157.68 E345.65604
G0 F12000 X173.53 Y158.24
G1 F2820 X175.35 Y156.43 E345.72005
G0 F12000 X175.08 Y157.26
G1 F2820 X173.53 Y158.81 E345.77446
G0 F12000 X173.53 Y159.37
G1 F2820 X175.08 Y157.82 E345.82907
G0 F12000 X175.19 Y158.28
G1 F2820 X173.53 Y159.94 E345.88769
G0 F12000 X173.53 Y160.50
G1 F2820 X175.38 Y158.66 E345.95276
G0 F12000 X175.60 Y159.00
G1 F2820 X173.53 Y161.07 E346.02585
G0 F12000 X173.53 Y161.63
G1 F2820 X175.88 Y159.29 E346.10865
G0 F12000 X176.22 Y159.51
G1 F2820 X173.53 Y162.20 E346.20349
G0 F12000 X173.53 Y162.77
G1 F2820 X176.61 Y159.69 E346.31190
G0 F12000 X177.05 Y159.81
G1 F2820 X168.28 Y168.59 E346.62141
G0 F12000 X167.71 Y168.59
G1 F2820 X173.00 Y163.30 E346.80799
G0 F12000 X172.44 Y163.30
G1 F2820 X167.15 Y168.59 E346.99458
G0 F12000 X166.58 Y168.59
G1 F2820 X171.87 Y163.30 E347.18116
G0 F12000 X171.31 Y163.30
G1 F2820 X166.01 Y168.59 E347.36776
G0 F12000 X165.45 Y168.59
G1 F2820 X170.74 Y163.30 E347.55435
G0 F12000 X170.17 Y163.30
G1 F2820 X164.88 Y168.59 E347.74093
G0 F12000 X164.32 Y168.59
G1 F2820 X169.61 Y163.30 E347.92753
G0 F12000 X169.04 Y163.30
G1 F2820 X163.75 Y168.59 E348.11412
G0 F12000 X163.19 Y168.59
G1 F2820 X168.48 Y163.30 E348.30070
G0 F12000 X167.91 Y163.30
G1 F2820 X162.62 Y168.59 E348.48728
G0 F12000 X162.06 Y168.59
G1 F2820 X167.34 Y163.30 E348.67387
G0 F12000 X166.78 Y163.30
G1 F2820 X161.49 Y168.59 E348.86045
G0 F12000 X160.92 Y168.59
G1 F2820 X166.21 Y163.30 E349.04703
G0 F12000 X165.65 Y163.30
G1 F2820 X160.36 Y168.59 E349.23362
G0 F12000 X159.79 Y168.59
G1 F2820 X165.08 Y163.30 E349.42020
G0 F12000 X164.52 Y163.30
G1 F2820 X159.23 Y168.59 E349.60679
G0 F12000 X158.66 Y168.59
G1 F2820 X163.95 Y163.30 E349.79337
G0 F12000 X163.38 Y163.30
G1 F2820 X158.10 Y168.59 E349.97995
G0 F12000 X157.53 Y168.59
G1 F2820 X162.82 Y163.30 E350.16654
G0 F12000 X162.25 Y163.30
G1 F2820 X156.96 Y168.59 E350.35314
G0 F12000 X156.40 Y168.59
G1 F2820 X161.69 Y163.30 E350.53972
G0 F12000 X161.12 Y163.30
G1 F2820 X155.83 Y168.59 E350.72631
G0 F12000 X155.27 Y168.59
G1 F2820 X160.56 Y163.30 E350.91291
G0 F12000 X159.99 Y163.30
G1 F2820 X154.70 Y168.59 E351.09949
G0 F12000 X154.14 Y168.59
G1 F2820 X159.43 Y163.30 E351.28607
G0 F12000 X158.86 Y163.30
G1 F2820 X153.57 Y168.59 E351.47268
G0 F12000 X153.00 Y168.59
G1 F2820 X158.29 Y163.30 E351.65926
G0 F12000 X157.73 Y163.30
G1 F2820 X152.44 Y168.59 E351.84584
G0 F12000 X151.87 Y168.59
G1 F2820 X157.16 Y163.30 E352.03243
G0 F12000 X156.60 Y163.30
G1 F2820 X151.31 Y168.59 E352.21901
G0 F12000 X150.74 Y168.59
G1 F2820 X156.03 Y163.30 E352.40559
G0 F12000 X155.47 Y163.30
G1 F2820 X150.18 Y168.59 E352.59218
G0 F12000 X149.61 Y168.59
G1 F2820 X154.90 Y163.30 E352.77876
G0 F12000 X154.33 Y163.30
G1 F2820 X149.04 Y168.59 E352.96535
G0 F12000 X148.48 Y168.59
G1 F2820 X153.77 Y163.30 E353.15193
G0 F12000 X153.20 Y163.30
G1 F2820 X147.91 Y168.59 E353.33851
G0 F12000 X147.35 Y168.59
G1 F2820 X152.64 Y163.30 E353.52510
G0 F12000 X152.07 Y163.30
G1 F2820 X146.78 Y168.59 E353.71170
G0 F12000 X146.22 Y168.59
G1 F2820 X151.51 Y163.30 E353.89830
G0 F12000 X150.94 Y163.30
G1 F2820 X145.65 Y168.59 E354.08490
G0 F12000 X145.09 Y168.59
G1 F2820 X150.38 Y163.30 E354.27150
G0 F12000 X149.81 Y163.30
G1 F2820 X144.52 Y168.59 E354.45810
G0 F12000 X143.95 Y168.59
G1 F2820 X149.24 Y163.30 E354.64471
G0 F12000 X148.68 Y163.30
G1 F2820 X143.39 Y168.59 E354.83131
G0 F12000 X142.82 Y168.59
G1 F2820 X148.11 Y163.30 E355.01791
G0 F12000 X147.55 Y163.30
G1 F2820 X142.26 Y168.59 E355.20451
G0 F12000 X141.69 Y168.59
G1 F2820 X146.98 Y163.30 E355.39111
G0 F12000 X146.41 Y163.30
G1 F2820 X141.12 Y168.59 E355.57771
G0 F12000 X140.56 Y168.59
G1 F2820 X145.85 Y163.30 E355.76430
G0 F12000 X145.28 Y163.30
G1 F2820 X139.99 Y168.59 E355.95090
G0 F12000 X139.43 Y168.59
G1 F2820 X144.72 Y163.30 E356.13750
G0 F12000 X144.15 Y163.30
G1 F2820 X138.86 Y168.59 E356.32408
G0 F12000 X138.30 Y168.59
G1 F2820 X143.59 Y163.30 E356.51068
G0 F12000 X143.02 Y163.30
G1 F2820 X137.73 Y168.59 E356.69729
G0 F12000 X137.16 Y168.59
G1 F2820 X142.46 Y163.30 E356.88389
G0 F12000 X141.89 Y163.30
G1 F2820 X136.60 Y168.59 E357.07049
G0 F12000 X136.03 Y168.59
G1 F2820 X141.32 Y163.30 E357.25709
G0 F12000 X140.76 Y163.30
G1 F2820 X135.47 Y168.59 E357.44369
G0 F12000 X134.90 Y168.59
G1 F2820 X140.19 Y163.30 E357.63029
G0 F12000 X139.63 Y163.30
G1 F2820 X134.34 Y168.59 E357.81689
G0 F12000 X133.77 Y168.59
G1 F2820 X139.06 Y163.30 E358.00350
G0 F12000 X138.50 Y163.30
G1 F2820 X133.21 Y168.59 E358.19010
G0 F12000 X132.64 Y168.59
G1 F2820 X137.93 Y163.30 E358.37670
G0 F12000 X137.36 Y163.30
G1 F2820 X132.07 Y168.59 E358.56330
G0 F12000 X131.51 Y168.59
G1 F2820 X136.80 Y163.30 E358.74988
G0 F12000 X136.23 Y163.30
G1 F2820 X130.94 Y168.59 E358.93648
G0 F12000 X130.38 Y168.59
G1 F2820 X135.67 Y163.30 E359.12309
G0 F12000 X135.10 Y163.30
G1 F2820 X129.81 Y168.59 E359.30967
G0 F12000 X129.25 Y168.59
G1 F2820 X134.54 Y163.30 E359.49627
G0 F12000 X133.97 Y163.30
G1 F2820 X128.68 Y168.59 E359.68287
G0 F12000 X128.12 Y168.59
G1 F2820 X133.40 Y163.30 E359.86946
G0 F12000 X132.84 Y163.30
G1 F2820 X127.55 Y168.59 E360.05606
G0 F12000 X126.98 Y168.59
G1 F2820 X132.27 Y163.30 E360.24266
G0 F12000 X131.71 Y163.30
G1 F2820 X126.42 Y168.59 E360.42926
G0 F12000 X125.85 Y168.59
G1 F2820 X131.47 Y162.97 E360.62727
G0 F12000 X131.47 Y162.41
G1 F2820 X125.29 Y168.59 E360.84526
G0 F12000 X124.72 Y168.59
G1 F2820 X131.47 Y161.84 E361.08320
G0 F12000 X131.47 Y161.28
G1 F2820 X124.16 Y168.59 E361.34108
G0 F12000 X123.71 Y168.46
G1 F2820 X131.47 Y160.71 E361.61457
G0 F12000 X131.47 Y160.14
G1 F2820 X123.71 Y167.90 E361.88806
G0 F12000 X123.71 Y167.33
G1 F2820 X131.47 Y159.58 E362.16154
G0 F12000 X131.47 Y159.01
G1 F2820 X123.71 Y166.77 E362.43503
G0 F12000 X123.71 Y166.20
G1 F2820 X131.47 Y158.45 E362.70852
G0 F12000 X131.47 Y157.88
G1 F2820 X123.71 Y165.63 E362.98199
G0 F12000 X123.71 Y165.07
G1 F2820 X131.47 Y157.32 E363.25548
G0 F12000 X131.47 Y156.75
G1 F2820 X129.70 Y158.51 E363.31762
G0 F12000 X129.91 Y157.74
G1 F2820 X131.47 Y156.19 E363.37234
G0 F12000 X131.47 Y155.62
G1 F2820 X129.90 Y157.18 E363.42755
G0 F12000 X129.79 Y156.73
G1 F2820 X131.47 Y155.05 E363.48673
G0 F12000 X131.47 Y154.49
G1 F2820 X129.62 Y156.34 E363.55197
G0 F12000 X129.38 Y156.01
G1 F2820 X131.47 Y153.92 E363.62563
G0 F12000 X131.47 Y153.36
G1 F2820 X129.09 Y155.73 E363.70952
G0 F12000 X128.76 Y155.50
G1 F2820 X131.47 Y152.79 E363.80500
G0 F12000 X131.47 Y152.22
G1 F2820 X128.37 Y155.32 E363.91408
G0 F12000 X127.91 Y155.22
G1 F2820 X131.47 Y151.66 E364.03953
G0 F12000 X131.47 Y151.09
G1 F2820 X127.35 Y155.21 E364.18485
G0 F12000 X126.54 Y155.45
G1 F2820 X131.47 Y150.53 E364.35853
G0 F12000 X131.47 Y149.96
G1 F2820 X123.71 Y157.72 E364.63202
G0 F12000 X123.71 Y158.28
G1 F2820 X125.56 Y156.43 E364.69721
G0 F12000 X125.29 Y157.26
G1 F2820 X123.71 Y158.85 E364.75298
G0 F12000 X123.71 Y159.41
G1 F2820 X125.30 Y157.83 E364.80892
G0 F12000 X125.41 Y158.28
G1 F2820 X123.71 Y159.98 E364.86887
G0 F12000 X123.71 Y160.54
G1 F2820 X125.60 Y158.66 E364.93530
G0 F12000 X125.82 Y159.00
G1 F2820 X123.71 Y161.11 E365.00979
G0 F12000 X123.71 Y161.68
G1 F2820 X126.10 Y159.29 E365.09396
G0 F12000 X126.44 Y159.51
G1 F2820 X123.71 Y162.24 E365.19016
G0 F12000 X123.71 Y162.81
G1 F2820 X126.83 Y159.69 E365.29996
G0 F12000 X127.27 Y159.81
G1 F2820 X123.71 Y163.37 E365.42552
G0 F12000 X123.71 Y163.94
G1 F2820 X127.82 Y159.83 E365.57037
G0 F12000 X128.62 Y159.60
G1 F2820 X123.71 Y164.50 E365.74341
G0 F12000 X123.71 Y157.15
G1 F2820 X131.47 Y149.40 E366.01690
G0 F12000 X131.47 Y148.83
G1 F2820 X123.71 Y156.58 E366.29037
G0 F12000 X123.71 Y156.02
G1 F2820 X131.47 Y148.26 E366.56386
G0 F12000 X131.47 Y147.70
G1 F2820 X123.71 Y155.45 E366.83735
G0 F12000 X123.71 Y154.89
G1 F2820 X131.47 Y147.13 E367.11082
G0 F12000 X131.47 Y146.57
G1 F2820 X129.80 Y148.23 E367.16951
G0 F12000 X129.94 Y147.53
G1 F2820 X131.47 Y146.00 E367.22348
G0 F12000 X131.47 Y145.44
G1 F2820 X129.88 Y147.02 E367.27929
G0 F12000 X129.75 Y146.59
G1 F2820 X131.47 Y144.87 E367.33995
G0 F12000 X131.47 Y144.31
G1 F2820 X129.55 Y146.22 E367.40742
G0 F12000 X129.31 Y145.89
G1 F2820 X131.47 Y143.74 E367.48332
G0 F12000 X131.47 Y143.17
G1 F2820 X129.00 Y145.63 E367.57012
G0 F12000 X128.66 Y145.42
G1 F2820 X131.47 Y142.61 E367.66921
G0 F12000 X131.47 Y142.04
G1 F2820 X128.26 Y145.25 E367.78237
G0 F12000 X127.78 Y145.16
G1 F2820 X136.53 Y136.41 E368.09096
G0 F12000 X137.10 Y136.41
G1 F2820 X131.81 Y141.70 E368.27754
G0 F12000 X132.37 Y141.70
G1 F2820 X137.66 Y136.41 E368.46413
G0 F12000 X138.23 Y136.41
G1 F2820 X132.94 Y141.70 E368.65073
G0 F12000 X133.50 Y141.70
G1 F2820 X138.79 Y136.41 E368.83731
G0 F12000 X139.36 Y136.41
G1 F2820 X134.07 Y141.70 E369.02390
G0 F12000 X134.63 Y141.70
G1 F2820 X139.93 Y136.41 E369.21050
G0 F12000 X140.49 Y136.41
G1 F2820 X135.20 Y141.70 E369.39708
G0 F12000 X135.77 Y141.70
G1 F2820 X141.06 Y136.41 E369.58367
G0 F12000 X141.62 Y136.41
G1 F2820 X136.33 Y141.70 E369.77025
G0 F12000 X136.90 Y141.70
G1 F2820 X142.19 Y136.41 E369.95683
G0 F12000 X142.75 Y136.41
G1 F2820 X137.46 Y141.70 E370.14342
G0 F12000 X138.03 Y141.70
G1 F2820 X143.32 Y136.41 E370.33000
G0 F12000 X143.88 Y136.41
G1 F2820 X138.59 Y141.70 E370.51658
G0 F12000 X139.16 Y141.70
G1 F2820 X144.45 Y136.41 E370.70317
G0 F12000 X145.02 Y136.41
G1 F2820 X139.73 Y141.70 E370.88975
G0 F12000 X140.29 Y141.70
G1 F2820 X145.58 Y136.41 E371.07634
G0 F12000 X146.15 Y136.41
G1 F2820 X140.86 Y141.70 E371.26292
G0 F12000 X141.42 Y141.70
G1 F2820 X146.71 Y136.41 E371.44950
G0 F12000 X147.28 Y136.41
G1 F2820 X141.99 Y141.70 E371.63610
G0 F12000 X142.56 Y141.70
G1 F2820 X147.84 Y136.41 E371.82269
G0 F12000 X148.41 Y136.41
G1 F2820 X143.12 Y141.70 E372.00927
G0 F12000 X143.69 Y141.70
G1 F2820 X148.98 Y136.41 E372.19587
G0 F12000 X149.54 Y136.41
G1 F2820 X144.25 Y141.70 E372.38246
G0 F12000 X144.82 Y141.70
G1 F2820 X150.11 Y136.41 E372.56904
G0 F12000 X150.67 Y136.41
G1 F2820 X145.38 Y141.70 E372.75564
G0 F12000 X145.95 Y141.70
G1 F2820 X151.24 Y136.41 E372.94223
G0 F12000 X151.80 Y136.41
G1 F2820 X146.51 Y141.70 E373.12881
G0 F12000 X147.08 Y141.70
G1 F2820 X152.37 Y136.41 E373.31539
G0 F12000 X152.94 Y136.41
G1 F2820 X147.65 Y141.70 E373.50198
G0 F12000 X148.21 Y141.70
G1 F2820 X153.50 Y136.41 E373.68856
G0 F12000 X154.07 Y136.41
G1 F2820 X148.78 Y141.70 E373.87514
G0 F12000 X149.34 Y141.70
G1 F2820 X154.63 Y136.41 E374.06173
G0 F12000 X155.20 Y136.41
G1 F2820 X149.91 Y141.70 E374.24831
G0 F12000 X150.47 Y141.70
G1 F2820 X155.76 Y136.41 E374.43490
G0 F12000 X156.33 Y136.41
