;-- START GCODE --
;Sliced for Type A Machines Series 1
;Sliced at: Sat 14-03-2015 19:26:47
;Basic settings: Layer height: 0.15 Walls: 0.8 Fill: 12
;Print Speed: 100 Support: 0 
;Retraction Speed: 40 Retraction Distance: 1.2
;Print time: #P_TIME#
;Filament used: #F_AMNT#m #F_WGHT#g
;Filament cost: #F_COST#
M106 S255	 ;start with the fan on
G21        ;metric values
G90        ;absolute positioning
M106 S255    ;start with the fan on
G28     ;move to endstops
G29		;allows for auto-levelling
G1 X150 Y5  Z15.0 F12000 ;center and move the platform down 15mm
M109 S220 ;Heat To temp
G92 E0                  ;zero the extruded length
G1 F200 E30              ;extrude 30mm of feed stock
G92 E0                  ;zero the extruded length again
G1 X175 Y25  Z0 F12000 ;remove bugger
G1 X220 F12000 ;remove bugger
G1 X150 Y150  Z15 F12000 ;recenter and begin
G1 F12000

;Layer count: 271
;LAYER:0
M106 S255
G0 F12000 X113.42 Y132.47 Z0.25
;TYPE:SKIRT
G1 F1800 X191.58 Y132.47 E3.24927
G1 X191.58 Y141.41 E3.62095
G1 X185.23 Y141.41 E3.88495
G1 X185.23 Y170.13 E5.07874
G1 X191.58 Y170.13 E5.34274
G1 X191.58 Y179.07 E5.71442
G1 X185.23 Y179.07 E5.97843
G1 X185.23 Y210.18 E7.27204
G1 X119.77 Y210.18 E9.99330
G1 X119.77 Y179.07 E11.28691
G1 X113.42 Y179.07 E11.55091
G1 X113.42 Y170.13 E11.92259
G1 X119.77 Y170.13 E12.18660
G1 X119.77 Y141.41 E13.38039
G1 X113.42 Y141.41 E13.64439
G1 X113.42 Y132.47 E14.01607
G1 F2400 E12.81607
G0 F12000 X117.22 Y136.27
;TYPE:WALL-INNER
G1 F2400 E14.01607
G1 F1800 X187.78 Y136.27 E16.94936
G1 X187.78 Y137.61 E17.00508
G1 X181.43 Y137.61 E17.26908
G1 X181.43 Y168.73 E18.56265
G1 X123.57 Y168.73 E20.96794
G1 X123.57 Y137.61 E22.26151
G1 X117.22 Y137.61 E22.52551
G1 X117.22 Y136.27 E22.58122
G0 F12000 X123.51 Y137.67
G0 X126.06 Y145.93
G1 F1800 X125.71 Y146.39 E22.60500
G1 X125.49 Y146.92 E22.62882
G1 X125.42 Y147.48 E22.65264
G1 X125.49 Y148.05 E22.67645
G1 X125.71 Y148.58 E22.70027
G1 X126.06 Y149.03 E22.72405
G1 X126.51 Y149.38 E22.74787
G1 X127.04 Y149.60 E22.77162
G1 X127.61 Y149.68 E22.79540
G1 X128.18 Y149.60 E22.81923
G1 X128.70 Y149.38 E22.84297
G1 X129.16 Y149.03 E22.86679
G1 X129.51 Y148.58 E22.89057
G1 X129.73 Y148.05 E22.91439
G1 X129.80 Y147.48 E22.93821
G1 X129.73 Y146.92 E22.96202
G1 X129.51 Y146.39 E22.98584
G1 X129.16 Y145.93 E23.00962
G1 X128.70 Y145.59 E23.03344
G1 X128.18 Y145.37 E23.05719
G1 X127.61 Y145.29 E23.08101
G1 X127.04 Y145.37 E23.10480
G1 X126.51 Y145.59 E23.12854
G1 X126.06 Y145.93 E23.15236
G0 F12000 X131.61 Y141.84
G1 F1800 X131.61 Y163.16 E24.03858
G1 X173.39 Y163.16 E25.77592
G1 X173.39 Y141.84 E26.66214
G1 X131.61 Y141.84 E28.39948
G0 F12000 X128.18 Y155.40
G1 F1800 X127.61 Y155.32 E28.42330
G1 X127.04 Y155.40 E28.44709
G1 X126.51 Y155.62 E28.47084
G1 X126.06 Y155.97 E28.49465
G1 X125.71 Y156.42 E28.51843
G1 X125.49 Y156.95 E28.54225
G1 X125.42 Y157.52 E28.56607
G1 X125.49 Y158.08 E28.58988
G1 X125.71 Y158.61 E28.61370
G1 X126.06 Y159.07 E28.63748
G1 X126.51 Y159.41 E28.66130
G1 X127.04 Y159.63 E28.68505
G1 X127.61 Y159.71 E28.70883
G1 X128.18 Y159.63 E28.73266
G1 X128.70 Y159.41 E28.75641
G1 X129.16 Y159.07 E28.78022
G1 X129.51 Y158.61 E28.80400
G1 X129.73 Y158.08 E28.82782
G1 X129.80 Y157.52 E28.85164
G1 X129.73 Y156.95 E28.87545
G1 X129.51 Y156.42 E28.89927
G1 X129.16 Y155.97 E28.92305
G1 X128.70 Y155.62 E28.94687
G1 X128.18 Y155.40 E28.97062
G0 F12000 X131.66 Y141.90
G0 X173.34 Y141.90
G0 X175.20 Y157.52
G1 F1800 X175.27 Y158.08 E28.99443
G1 X175.49 Y158.61 E29.01825
G1 X175.84 Y159.07 E29.04203
G1 X176.30 Y159.41 E29.06585
G1 X176.82 Y159.63 E29.08960
G1 X177.39 Y159.71 E29.11342
G1 X177.96 Y159.63 E29.13721
G1 X178.49 Y159.41 E29.16096
G1 X178.94 Y159.07 E29.18477
G1 X179.29 Y158.61 E29.20856
G1 X179.51 Y158.08 E29.23237
G1 X179.58 Y157.52 E29.25619
G1 X179.51 Y156.95 E29.28000
G1 X179.29 Y156.42 E29.30382
G1 X178.94 Y155.97 E29.32760
G1 X178.49 Y155.62 E29.35142
G1 X177.96 Y155.40 E29.37517
G1 X177.39 Y155.32 E29.39895
G1 X176.82 Y155.40 E29.42278
G1 X176.30 Y155.62 E29.44653
G1 X175.84 Y155.97 E29.47034
G1 X175.49 Y156.42 E29.49412
G1 X175.27 Y156.95 E29.51794
G1 X175.20 Y157.52 E29.54176
G0 F12000 X176.82 Y149.60
G1 F1800 X177.39 Y149.68 E29.56558
G1 X177.96 Y149.60 E29.58937
G1 X178.49 Y149.38 E29.61312
G1 X178.94 Y149.03 E29.63693
G1 X179.29 Y148.58 E29.66071
G1 X179.51 Y148.05 E29.68453
G1 X179.58 Y147.48 E29.70835
G1 X179.51 Y146.92 E29.73216
G1 X179.29 Y146.39 E29.75598
G1 X178.94 Y145.93 E29.77976
G1 X178.49 Y145.59 E29.80358
G1 X177.96 Y145.37 E29.82733
G1 X177.39 Y145.29 E29.85111
G1 X176.82 Y145.37 E29.87494
G1 X176.30 Y145.59 E29.89869
G1 X175.84 Y145.93 E29.92250
G1 X175.49 Y146.39 E29.94628
G1 X175.27 Y146.92 E29.97010
G1 X175.20 Y147.48 E29.99392
G1 X175.27 Y148.05 E30.01773
G1 X175.49 Y148.58 E30.04155
G1 X175.84 Y149.03 E30.06533
G1 X176.30 Y149.38 E30.08915
G1 X176.82 Y149.60 E30.11290
G0 F12000 X176.93 Y149.21
;TYPE:WALL-OUTER
G1 F1800 X177.39 Y149.27 E30.13232
G1 X177.85 Y149.21 E30.15170
G1 X178.29 Y149.03 E30.17112
G1 X178.66 Y148.75 E30.19055
G1 X178.94 Y148.38 E30.20997
G1 X179.12 Y147.95 E30.22942
G1 X179.18 Y147.48 E30.24883
G1 X179.12 Y147.02 E30.26825
G1 X178.94 Y146.59 E30.28769
G1 X178.66 Y146.22 E30.30711
G1 X178.29 Y145.93 E30.32654
G1 X177.85 Y145.76 E30.34596
G1 X177.39 Y145.69 E30.36534
G1 X176.93 Y145.76 E30.38476
G1 X176.50 Y145.93 E30.40419
G1 X176.13 Y146.22 E30.42361
G1 X175.84 Y146.59 E30.44304
G1 X175.66 Y147.02 E30.46248
G1 X175.60 Y147.48 E30.48190
G1 X175.66 Y147.95 E30.50131
G1 X175.84 Y148.38 E30.52075
G1 X176.13 Y148.75 E30.54018
G1 X176.50 Y149.03 E30.55960
G1 X176.93 Y149.21 E30.57903
G0 F12000 X176.89 Y149.51
G0 X177.43 Y155.43
G0 X177.39 Y155.73
G1 F1800 X176.93 Y155.79 E30.59845
G1 X176.50 Y155.97 E30.61787
G1 X176.13 Y156.25 E30.63730
G1 X175.84 Y156.62 E30.65672
G1 X175.66 Y157.05 E30.67617
G1 X175.60 Y157.52 E30.69558
G1 X175.66 Y157.98 E30.71500
G1 X175.84 Y158.41 E30.73444
G1 X176.13 Y158.78 E30.75386
G1 X176.50 Y159.07 E30.77329
G1 X176.93 Y159.24 E30.79271
G1 X177.39 Y159.31 E30.81213
G1 X177.85 Y159.24 E30.83151
G1 X178.29 Y159.07 E30.85094
G1 X178.66 Y158.78 E30.87036
G1 X178.94 Y158.41 E30.88979
G1 X179.12 Y157.98 E30.90923
G1 X179.18 Y157.52 E30.92865
G1 X179.12 Y157.05 E30.94806
G1 X178.94 Y156.62 E30.96750
G1 X178.66 Y156.25 E30.98693
G1 X178.29 Y155.97 E31.00635
G1 X177.85 Y155.79 E31.02578
G1 X177.39 Y155.73 E31.04516
G0 F12000 X177.43 Y155.43
G0 X176.30 Y155.62
G0 X175.28 Y156.95
G0 X173.34 Y163.10
G0 X172.99 Y163.06
G0 X172.99 Y162.76
G1 F1800 X172.99 Y142.24 E31.89811
G1 X132.01 Y142.24 E33.60220
G1 X132.01 Y162.76 E34.45515
G1 X172.99 Y162.76 E36.15924
G0 F12000 X172.99 Y163.06
G0 X181.53 Y168.92
G0 X181.83 Y169.13
G1 F1800 X123.17 Y169.13 E38.59779
G1 X123.17 Y138.01 E39.89136
G1 X116.82 Y138.01 E40.15536
G1 X116.82 Y135.87 E40.24433
G1 X188.18 Y135.87 E43.21088
G1 X188.18 Y138.01 E43.29985
G1 X181.83 Y138.01 E43.56386
G1 X181.83 Y169.13 E44.85743
G0 F12000 X181.53 Y168.92
G0 X131.66 Y163.10
G0 X129.63 Y147.99
G0 X129.34 Y147.95
G1 F1800 X129.40 Y147.48 E44.87684
G1 X129.34 Y147.02 E44.89626
G1 X129.16 Y146.59 E44.91570
G1 X128.87 Y146.22 E44.93512
G1 X128.50 Y145.93 E44.95455
G1 X128.07 Y145.76 E44.97397
G1 X127.61 Y145.69 E44.99340
G1 X127.15 Y145.76 E45.01278
G1 X126.71 Y145.93 E45.03220
G1 X126.34 Y146.22 E45.05163
G1 X126.06 Y146.59 E45.07105
G1 X125.88 Y147.02 E45.09049
G1 X125.82 Y147.48 E45.10991
G1 X125.88 Y147.95 E45.12932
G1 X126.06 Y148.38 E45.14876
G1 X126.34 Y148.75 E45.16819
G1 X126.71 Y149.03 E45.18761
G1 X127.15 Y149.21 E45.20704
G1 X127.61 Y149.27 E45.22642
G1 X128.07 Y149.21 E45.24584
G1 X128.50 Y149.03 E45.26527
G1 X128.87 Y148.75 E45.28469
G1 X129.16 Y148.38 E45.30412
G1 X129.34 Y147.95 E45.32356
G0 F12000 X129.63 Y147.99
G0 X128.11 Y155.49
G0 X128.07 Y155.79
G1 F1800 X127.61 Y155.73 E45.34298
G1 X127.15 Y155.79 E45.36236
G1 X126.71 Y155.97 E45.38178
G1 X126.34 Y156.25 E45.40121
G1 X126.06 Y156.62 E45.42063
G1 X125.88 Y157.05 E45.44007
G1 X125.82 Y157.52 E45.45949
G1 X125.88 Y157.98 E45.47891
G1 X126.06 Y158.41 E45.49835
G1 X126.34 Y158.78 E45.51777
G1 X126.71 Y159.07 E45.53720
G1 X127.15 Y159.24 E45.55662
G1 X127.61 Y159.31 E45.57600
G1 X128.07 Y159.24 E45.59542
G1 X128.50 Y159.07 E45.61485
G1 X128.87 Y158.78 E45.63427
G1 X129.16 Y158.41 E45.65370
G1 X129.34 Y157.98 E45.67314
G1 X129.40 Y157.52 E45.69255
G1 X129.34 Y157.05 E45.71197
G1 X129.16 Y156.62 E45.73141
G1 X128.87 Y156.25 E45.75084
G1 X128.50 Y155.97 E45.77026
G1 X128.07 Y155.79 E45.78969
G0 F12000 X128.52 Y155.39
;TYPE:FILL
G1 F1800 X123.71 Y150.58 E46.07208
G0 F12000 X123.71 Y151.15
G1 F1800 X127.77 Y155.20 E46.31033
G0 F12000 X127.23 Y155.23
G1 F1800 X123.71 Y151.71 E46.51705
G0 F12000 X123.71 Y152.28
G1 F1800 X126.78 Y155.35 E46.69762
G0 F12000 X126.40 Y155.53
G1 F1800 X123.71 Y152.85 E46.85534
G0 F12000 X123.71 Y153.41
G1 F1800 X126.08 Y155.77 E46.99421
G0 F12000 X125.80 Y156.07
G1 F1800 X123.71 Y153.98 E47.11704
G0 F12000 X123.71 Y154.54
G1 F1800 X125.57 Y156.40 E47.22599
G0 F12000 X125.40 Y156.80
G1 F1800 X123.71 Y155.11 E47.32524
G0 F12000 X123.71 Y155.67
G1 F1800 X125.31 Y157.27 E47.41890
G0 F12000 X125.32 Y157.84
G1 F1800 X123.71 Y156.24 E47.51315
G0 F12000 X123.71 Y156.81
G1 F1800 X125.58 Y158.68 E47.62307
G0 F12000 X126.45 Y159.54
G1 F1800 X135.49 Y168.59 E48.15503
G0 F12000 X134.93 Y168.59
G1 F1800 X123.71 Y157.37 E48.81440
G0 F12000 X123.71 Y157.94
G1 F1800 X134.36 Y168.59 E49.44052
G0 F12000 X133.80 Y168.59
G1 F1800 X123.71 Y158.50 E50.03339
G0 F12000 X123.71 Y159.07
G1 F1800 X133.23 Y168.59 E50.59298
G0 F12000 X132.66 Y168.59
G1 F1800 X123.71 Y159.63 E51.11932
G0 F12000 X123.71 Y160.20
G1 F1800 X132.10 Y168.59 E51.61242
G0 F12000 X131.53 Y168.59
G1 F1800 X123.71 Y160.76 E52.07223
G0 F12000 X123.71 Y161.33
G1 F1800 X130.97 Y168.59 E52.49880
G0 F12000 X130.40 Y168.59
G1 F1800 X123.71 Y161.90 E52.89209
G0 F12000 X123.71 Y162.46
G1 F1800 X129.84 Y168.59 E53.25213
G0 F12000 X129.27 Y168.59
G1 F1800 X123.71 Y163.03 E53.57891
G0 F12000 X123.71 Y163.59
G1 F1800 X128.71 Y168.59 E53.87243
G0 F12000 X128.14 Y168.59
G1 F1800 X123.71 Y164.16 E54.13269
G0 F12000 X123.71 Y164.72
G1 F1800 X127.57 Y168.59 E54.35970
G0 F12000 X127.01 Y168.59
G1 F1800 X123.71 Y165.29 E54.55343
G0 F12000 X123.71 Y165.86
G1 F1800 X126.44 Y168.59 E54.71392
G0 F12000 X125.88 Y168.59
G1 F1800 X123.71 Y166.42 E54.84115
G0 F12000 X123.71 Y166.99
G1 F1800 X125.31 Y168.59 E54.93511
G0 F12000 X124.75 Y168.59
G1 F1800 X123.71 Y167.55 E54.99581
G0 F12000 X123.71 Y168.12
G1 F1800 X124.18 Y168.59 E55.02324
G0 F12000 X131.47 Y162.86
G1 F1800 X128.33 Y159.72 E55.20777
G0 F12000 X128.73 Y159.56
G1 F1800 X131.47 Y162.29 E55.36876
G0 F12000 X131.47 Y161.73
G1 F1800 X129.06 Y159.32 E55.51040
G0 F12000 X129.35 Y159.05
G1 F1800 X131.47 Y161.16 E55.63487
G0 F12000 X131.47 Y160.60
G1 F1800 X129.59 Y158.73 E55.74488
G0 F12000 X129.77 Y158.34
G1 F1800 X131.47 Y160.03 E55.84445
G0 F12000 X131.47 Y159.47
G1 F1800 X129.89 Y157.89 E55.93694
G0 F12000 X129.92 Y157.36
G1 F1800 X131.47 Y158.90 E56.02766
G0 F12000 X131.47 Y158.34
G1 F1800 X129.74 Y156.61 E56.12923
G0 F12000 X131.47 Y156.64
G1 F1800 X123.71 Y148.89 E56.58505
G0 F12000 X123.71 Y149.45
G1 F1800 X131.47 Y157.20 E57.04086
G0 F12000 X131.47 Y157.77
G1 F1800 X123.71 Y150.02 E57.49668
G0 F12000 X123.71 Y148.32
G1 F1800 X131.47 Y156.07 E57.95250
G0 F12000 X131.47 Y155.51
G1 F1800 X123.71 Y147.75 E58.40831
G0 F12000 X123.71 Y147.19
G1 F1800 X131.47 Y154.94 E58.86410
G0 F12000 X131.47 Y154.38
G1 F1800 X126.70 Y149.61 E59.14418
G0 F12000 X127.45 Y149.80
G1 F1800 X131.47 Y153.81 E59.38010
G0 F12000 X131.47 Y153.24
G1 F1800 X127.99 Y149.77 E59.58447
G0 F12000 X128.43 Y149.65
G1 F1800 X131.47 Y152.68 E59.76277
G0 F12000 X131.47 Y152.11
G1 F1800 X128.82 Y149.47 E59.91826
G0 F12000 X129.14 Y149.22
G1 F1800 X131.47 Y151.55 E60.05484
G0 F12000 X131.47 Y150.98
G1 F1800 X129.41 Y148.93 E60.17546
G0 F12000 X129.65 Y148.60
G1 F1800 X131.47 Y150.42 E60.28218
G0 F12000 X131.47 Y149.85
G1 F1800 X129.82 Y148.20 E60.37913
G0 F12000 X129.91 Y147.73
G1 F1800 X131.47 Y149.28 E60.47059
G0 F12000 X131.47 Y148.72
G1 F1800 X129.90 Y147.15 E60.56269
G0 F12000 X129.63 Y146.32
G1 F1800 X131.47 Y148.15 E60.67047
G0 F12000 X131.47 Y147.59
G1 F1800 X123.71 Y139.84 E61.12628
G0 F12000 X123.71 Y140.40
G1 F1800 X128.77 Y145.46 E61.42382
G0 F12000 X127.94 Y145.19
G1 F1800 X123.71 Y140.97 E61.67227
G0 F12000 X123.71 Y141.53
G1 F1800 X127.36 Y145.18 E61.88678
G0 F12000 X126.89 Y145.28
G1 F1800 X123.71 Y142.10 E62.07361
G0 F12000 X123.71 Y142.66
G1 F1800 X126.49 Y145.44 E62.23692
G0 F12000 X126.16 Y145.68
G1 F1800 X123.71 Y143.23 E62.38079
G0 F12000 X123.71 Y143.79
G1 F1800 X125.87 Y145.95 E62.50750
G0 F12000 X125.62 Y146.27
G1 F1800 X123.71 Y144.36 E62.61974
G0 F12000 X123.71 Y144.93
G1 F1800 X125.44 Y146.66 E62.72154
G0 F12000 X125.32 Y147.10
G1 F1800 X123.71 Y145.49 E62.81623
G0 F12000 X123.71 Y146.06
G1 F1800 X125.30 Y147.64 E62.90925
G0 F12000 X125.48 Y148.39
G1 F1800 X123.71 Y146.62 E63.01294
G0 F12000 X123.71 Y139.27
G1 F1800 X131.47 Y147.02 E63.46875
G0 F12000 X131.47 Y146.46
G1 F1800 X123.71 Y138.70 E63.92457
G0 F12000 X123.71 Y138.14
G1 F1800 X131.47 Y145.89 E64.38036
G0 F12000 X131.47 Y145.32
G1 F1800 X123.71 Y137.57 E64.83618
G0 F12000 X123.61 Y137.47
G1 F1800 X122.55 Y136.41 E64.89847
G0 F12000 X121.99 Y136.41
G1 F1800 X123.05 Y137.47 E64.96079
G0 F12000 X122.48 Y137.47
G1 F1800 X121.42 Y136.41 E65.02309
G0 F12000 X120.86 Y136.41
G1 F1800 X121.92 Y137.47 E65.08538
G0 F12000 X121.35 Y137.47
G1 F1800 X120.29 Y136.41 E65.14771
G0 F12000 X119.72 Y136.41
G1 F1800 X120.78 Y137.47 E65.21000
G0 F12000 X120.22 Y137.47
G1 F1800 X119.16 Y136.41 E65.27230
G0 F12000 X118.59 Y136.41
G1 F1800 X119.65 Y137.47 E65.33462
G0 F12000 X119.09 Y137.47
G1 F1800 X118.03 Y136.41 E65.39692
G0 F12000 X117.46 Y136.41
G1 F1800 X118.52 Y137.47 E65.45921
G0 F12000 X117.96 Y137.47
G1 F1800 X117.36 Y136.88 E65.49413
G0 F12000 X123.12 Y136.41
G1 F1800 X131.47 Y144.76 E65.98488
G0 F12000 X131.47 Y144.19
G1 F1800 X123.68 Y136.41 E66.44237
G0 F12000 X124.25 Y136.41
G1 F1800 X131.47 Y143.63 E66.86661
G0 F12000 X131.47 Y143.06
G1 F1800 X124.82 Y136.41 E67.25758
G0 F12000 X125.38 Y136.41
G1 F1800 X131.47 Y142.50 E67.61527
G0 F12000 X131.47 Y141.93
G1 F1800 X125.95 Y136.41 E67.93973
G0 F12000 X126.51 Y136.41
G1 F1800 X131.80 Y141.70 E68.25065
G0 F12000 X132.37 Y141.70
G1 F1800 X127.08 Y136.41 E68.56153
G0 F12000 X127.64 Y136.41
G1 F1800 X132.93 Y141.70 E68.87244
G0 F12000 X133.50 Y141.70
G1 F1800 X128.21 Y136.41 E69.18336
G0 F12000 X128.78 Y136.41
G1 F1800 X134.06 Y141.70 E69.49424
G0 F12000 X134.63 Y141.70
G1 F1800 X129.34 Y136.41 E69.80516
G0 F12000 X129.91 Y136.41
G1 F1800 X135.19 Y141.70 E70.11607
G0 F12000 X135.76 Y141.70
G1 F1800 X130.47 Y136.41 E70.42696
G0 F12000 X131.04 Y136.41
G1 F1800 X136.33 Y141.70 E70.73787
G0 F12000 X136.89 Y141.70
G1 F1800 X131.60 Y136.41 E71.04879
G0 F12000 X132.17 Y136.41
G1 F1800 X137.46 Y141.70 E71.35970
G0 F12000 X138.02 Y141.70
G1 F1800 X132.74 Y136.41 E71.67061
G0 F12000 X133.30 Y136.41
G1 F1800 X138.59 Y141.70 E71.98153
G0 F12000 X139.16 Y141.70
G1 F1800 X133.87 Y136.41 E72.29244
G0 F12000 X134.43 Y136.41
G1 F1800 X139.72 Y141.70 E72.60333
G0 F12000 X140.29 Y141.70
G1 F1800 X135.00 Y136.41 E72.91424
G0 F12000 X135.56 Y136.41
G1 F1800 X140.85 Y141.70 E73.22515
G0 F12000 X141.42 Y141.70
G1 F1800 X136.13 Y136.41 E73.53604
G0 F12000 X136.69 Y136.41
G1 F1800 X141.98 Y141.70 E73.84695
G0 F12000 X142.55 Y141.70
G1 F1800 X137.26 Y136.41 E74.15787
G0 F12000 X137.83 Y136.41
G1 F1800 X143.11 Y141.70 E74.46875
G0 F12000 X143.68 Y141.70
G1 F1800 X138.39 Y136.41 E74.77967
G0 F12000 X138.96 Y136.41
G1 F1800 X144.25 Y141.70 E75.09058
G0 F12000 X144.81 Y141.70
G1 F1800 X139.52 Y136.41 E75.40147
G0 F12000 X140.09 Y136.41
G1 F1800 X145.38 Y141.70 E75.71238
G0 F12000 X145.94 Y141.70
G1 F1800 X140.66 Y136.41 E76.02329
G0 F12000 X141.22 Y136.41
G1 F1800 X146.51 Y141.70 E76.33418
G0 F12000 X147.07 Y141.70
G1 F1800 X141.79 Y136.41 E76.64509
G0 F12000 X142.35 Y136.41
G1 F1800 X147.64 Y141.70 E76.95601
G0 F12000 X148.21 Y141.70
G1 F1800 X142.92 Y136.41 E77.26692
G0 F12000 X143.48 Y136.41
G1 F1800 X148.77 Y141.70 E77.57783
G0 F12000 X149.34 Y141.70
G1 F1800 X144.05 Y136.41 E77.88875
G0 F12000 X144.62 Y136.41
G1 F1800 X149.90 Y141.70 E78.19966
G0 F12000 X150.47 Y141.70
G1 F1800 X145.18 Y136.41 E78.51055
G0 F12000 X145.75 Y136.41
G1 F1800 X151.03 Y141.70 E78.82146
G0 F12000 X151.60 Y141.70
G1 F1800 X146.31 Y136.41 E79.13238
G0 F12000 X146.88 Y136.41
G1 F1800 X152.16 Y141.70 E79.44326
G0 F12000 X152.73 Y141.70
G1 F1800 X147.44 Y136.41 E79.75423
G0 F12000 X148.01 Y136.41
G1 F1800 X153.30 Y141.70 E80.06518
G0 F12000 X153.86 Y141.70
G1 F1800 X148.57 Y136.41 E80.37612
G0 F12000 X149.14 Y136.41
G1 F1800 X154.43 Y141.70 E80.68709
G0 F12000 X154.99 Y141.70
G1 F1800 X149.71 Y136.41 E80.99804
G0 F12000 X150.27 Y136.41
G1 F1800 X155.56 Y141.70 E81.30898
G0 F12000 X156.13 Y141.70
G1 F1800 X150.84 Y136.41 E81.61995
G0 F12000 X151.40 Y136.41
G1 F1800 X156.69 Y141.70 E81.93093
G0 F12000 X157.26 Y141.70
G1 F1800 X151.97 Y136.41 E82.24187
G0 F12000 X152.53 Y136.41
G1 F1800 X157.82 Y141.70 E82.55284
G0 F12000 X158.39 Y141.70
G1 F1800 X153.10 Y136.41 E82.86382
G0 F12000 X153.67 Y136.41
G1 F1800 X158.95 Y141.70 E83.17476
G0 F12000 X159.52 Y141.70
G1 F1800 X154.23 Y136.41 E83.48570
G0 F12000 X154.80 Y136.41
G1 F1800 X160.09 Y141.70 E83.79668
G0 F12000 X160.65 Y141.70
G1 F1800 X155.36 Y136.41 E84.10762
G0 F12000 X155.93 Y136.41
G1 F1800 X161.22 Y141.70 E84.41856
G0 F12000 X161.78 Y141.70
G1 F1800 X156.49 Y136.41 E84.72954
G0 F12000 X157.06 Y136.41
G1 F1800 X162.35 Y141.70 E85.04048
G0 F12000 X162.91 Y141.70
G1 F1800 X157.63 Y136.41 E85.35142
G0 F12000 X158.19 Y136.41
G1 F1800 X163.48 Y141.70 E85.66240
G0 F12000 X164.04 Y141.70
G1 F1800 X158.76 Y136.41 E85.97334
G0 F12000 X159.32 Y136.41
G1 F1800 X164.61 Y141.70 E86.28428
G0 F12000 X165.18 Y141.70
G1 F1800 X159.89 Y136.41 E86.59526
G0 F12000 X160.45 Y136.41
G1 F1800 X165.74 Y141.70 E86.90623
G0 F12000 X166.31 Y141.70
G1 F1800 X161.02 Y136.41 E87.21717
G0 F12000 X161.59 Y136.41
G1 F1800 X166.87 Y141.70 E87.52815
G0 F12000 X167.44 Y141.70
G1 F1800 X162.15 Y136.41 E87.83912
G0 F12000 X162.72 Y136.41
G1 F1800 X168.00 Y141.70 E88.15006
G0 F12000 X168.57 Y141.70
G1 F1800 X163.28 Y136.41 E88.46103
G0 F12000 X163.85 Y136.41
G1 F1800 X169.14 Y141.70 E88.77201
G0 F12000 X169.70 Y141.70
G1 F1800 X164.41 Y136.41 E89.08295
G0 F12000 X164.98 Y136.41
G1 F1800 X170.27 Y141.70 E89.39389
G0 F12000 X170.83 Y141.70
G1 F1800 X165.54 Y136.41 E89.70487
G0 F12000 X166.11 Y136.41
G1 F1800 X171.40 Y141.70 E90.01581
G0 F12000 X171.97 Y141.70
G1 F1800 X166.68 Y136.41 E90.32675
G0 F12000 X167.24 Y136.41
G1 F1800 X172.53 Y141.70 E90.63773
G0 F12000 X173.10 Y141.70
G1 F1800 X167.81 Y136.41 E90.94867
G0 F12000 X168.37 Y136.41
G1 F1800 X177.14 Y145.18 E91.46423
G0 F12000 X176.67 Y145.28
G1 F1800 X173.53 Y142.14 E91.64882
G0 F12000 X173.53 Y142.70
G1 F1800 X176.27 Y145.44 E91.80980
G0 F12000 X175.94 Y145.68
G1 F1800 X173.53 Y143.27 E91.95144
G0 F12000 X173.53 Y143.83
G1 F1800 X175.65 Y145.95 E92.07591
G0 F12000 X175.40 Y146.27
G1 F1800 X173.53 Y144.40 E92.18592
G0 F12000 X173.53 Y144.97
G1 F1800 X175.23 Y146.66 E92.28546
G0 F12000 X175.11 Y147.10
G1 F1800 X173.53 Y145.53 E92.37798
G0 F12000 X173.53 Y146.10
G1 F1800 X175.08 Y147.64 E92.46873
G0 F12000 X175.26 Y148.39
G1 F1800 X173.53 Y146.66 E92.57027
G0 F12000 X173.53 Y147.23
G1 F1800 X181.29 Y154.98 E93.02615
G0 F12000 X181.29 Y155.55
G1 F1800 X173.53 Y147.79 E93.48199
G0 F12000 X173.53 Y148.36
G1 F1800 X181.29 Y156.11 E93.93784
G0 F12000 X181.29 Y156.68
G1 F1800 X173.53 Y148.93 E94.39372
G0 F12000 X173.53 Y149.49
G1 F1800 X181.29 Y157.24 E94.84956
G0 F12000 X181.29 Y157.81
G1 F1800 X173.53 Y150.06 E95.30541
G0 F12000 X173.53 Y150.62
G1 F1800 X178.30 Y155.39 E95.58548
G0 F12000 X177.55 Y155.20
G1 F1800 X173.53 Y151.19 E95.82143
G0 F12000 X173.53 Y151.75
G1 F1800 X177.01 Y155.23 E96.02587
G0 F12000 X176.56 Y155.35
G1 F1800 X173.53 Y152.32 E96.20417
G0 F12000 X173.53 Y152.88
G1 F1800 X176.18 Y155.53 E96.35965
G0 F12000 X175.86 Y155.77
G1 F1800 X173.53 Y153.45 E96.49624
G0 F12000 X173.53 Y154.02
G1 F1800 X175.58 Y156.07 E96.61683
G0 F12000 X175.35 Y156.40
G1 F1800 X173.53 Y154.58 E96.72360
G0 F12000 X173.53 Y155.15
G1 F1800 X175.18 Y156.80 E96.82059
G0 F12000 X175.09 Y157.27
G1 F1800 X173.53 Y155.71 E96.91201
G0 F12000 X173.53 Y156.28
G1 F1800 X175.10 Y157.85 E97.00415
G0 F12000 X175.37 Y158.68
G1 F1800 X173.53 Y156.84 E97.11195
G0 F12000 X173.53 Y157.41
G1 F1800 X181.29 Y165.16 E97.56780
G0 F12000 X181.29 Y165.73
G1 F1800 X173.53 Y157.98 E98.02367
G0 F12000 X173.53 Y158.54
G1 F1800 X181.29 Y166.29 E98.47952
G0 F12000 X181.29 Y166.86
G1 F1800 X173.53 Y159.11 E98.93537
G0 F12000 X173.53 Y159.67
G1 F1800 X181.29 Y167.43 E99.39124
G0 F12000 X181.29 Y167.99
G1 F1800 X173.53 Y160.24 E99.84712
G0 F12000 X173.53 Y160.81
G1 F1800 X181.29 Y168.56 E100.30297
G0 F12000 X180.75 Y168.59
G1 F1800 X173.53 Y161.37 E100.72721
G0 F12000 X173.53 Y161.94
G1 F1800 X180.18 Y168.59 E101.11817
G0 F12000 X179.62 Y168.59
G1 F1800 X173.53 Y162.50 E101.47589
G0 F12000 X173.53 Y163.07
G1 F1800 X179.05 Y168.59 E101.80033
G0 F12000 X178.49 Y168.59
G1 F1800 X173.20 Y163.30 E102.11121
G0 F12000 X172.63 Y163.30
G1 F1800 X177.92 Y168.59 E102.42213
G0 F12000 X177.35 Y168.59
G1 F1800 X172.07 Y163.30 E102.73304
G0 F12000 X171.50 Y163.30
G1 F1800 X176.79 Y168.59 E103.04395
G0 F12000 X176.22 Y168.59
G1 F1800 X170.94 Y163.30 E103.35487
G0 F12000 X170.37 Y163.30
G1 F1800 X175.66 Y168.59 E103.66578
G0 F12000 X175.09 Y168.59
G1 F1800 X169.80 Y163.30 E103.97670
G0 F12000 X169.24 Y163.30
G1 F1800 X174.53 Y168.59 E104.28758
G0 F12000 X173.96 Y168.59
G1 F1800 X168.67 Y163.30 E104.59850
G0 F12000 X168.11 Y163.30
G1 F1800 X173.39 Y168.59 E104.90941
G0 F12000 X172.83 Y168.59
G1 F1800 X167.54 Y163.30 E105.22029
G0 F12000 X166.97 Y163.30
G1 F1800 X172.26 Y168.59 E105.53121
G0 F12000 X171.70 Y168.59
G1 F1800 X166.41 Y163.30 E105.84212
G0 F12000 X165.84 Y163.30
G1 F1800 X171.13 Y168.59 E106.15301
G0 F12000 X170.57 Y168.59
G1 F1800 X165.28 Y163.30 E106.46392
G0 F12000 X164.71 Y163.30
G1 F1800 X170.00 Y168.59 E106.77484
G0 F12000 X169.43 Y168.59
G1 F1800 X164.15 Y163.30 E107.08572
G0 F12000 X163.58 Y163.30
G1 F1800 X168.87 Y168.59 E107.39663
G0 F12000 X168.30 Y168.59
G1 F1800 X163.01 Y163.30 E107.70755
G0 F12000 X162.45 Y163.30
G1 F1800 X167.74 Y168.59 E108.01843
G0 F12000 X167.17 Y168.59
G1 F1800 X161.88 Y163.30 E108.32935
G0 F12000 X161.32 Y163.30
G1 F1800 X166.61 Y168.59 E108.64026
G0 F12000 X166.04 Y168.59
G1 F1800 X160.75 Y163.30 E108.95118
G0 F12000 X160.19 Y163.30
G1 F1800 X165.47 Y168.59 E109.26209
G0 F12000 X164.91 Y168.59
G1 F1800 X159.62 Y163.30 E109.57300
G0 F12000 X159.06 Y163.30
G1 F1800 X164.34 Y168.59 E109.88392
G0 F12000 X163.78 Y168.59
G1 F1800 X158.49 Y163.30 E110.19480
G0 F12000 X157.92 Y163.30
G1 F1800 X163.21 Y168.59 E110.50572
G0 F12000 X162.65 Y168.59
G1 F1800 X157.36 Y163.30 E110.81663
G0 F12000 X156.79 Y163.30
G1 F1800 X162.08 Y168.59 E111.12752
G0 F12000 X161.51 Y168.59
G1 F1800 X156.23 Y163.30 E111.43843
G0 F12000 X155.66 Y163.30
G1 F1800 X160.95 Y168.59 E111.74934
G0 F12000 X160.38 Y168.59
G1 F1800 X155.10 Y163.30 E112.06023
G0 F12000 X154.53 Y163.30
G1 F1800 X159.82 Y168.59 E112.37114
G0 F12000 X159.25 Y168.59
G1 F1800 X153.96 Y163.30 E112.68206
G0 F12000 X153.40 Y163.30
G1 F1800 X158.69 Y168.59 E112.99294
G0 F12000 X158.12 Y168.59
G1 F1800 X152.83 Y163.30 E113.30386
G0 F12000 X152.27 Y163.30
G1 F1800 X157.56 Y168.59 E113.61483
G0 F12000 X156.99 Y168.59
G1 F1800 X151.70 Y163.30 E113.92577
G0 F12000 X151.13 Y163.30
G1 F1800 X156.42 Y168.59 E114.23675
G0 F12000 X155.86 Y168.59
G1 F1800 X150.57 Y163.30 E114.54772
G0 F12000 X150.00 Y163.30
G1 F1800 X155.29 Y168.59 E114.85866
G0 F12000 X154.73 Y168.59
G1 F1800 X149.44 Y163.30 E115.16961
G0 F12000 X148.87 Y163.30
G1 F1800 X154.16 Y168.59 E115.48058
G0 F12000 X153.59 Y168.59
G1 F1800 X148.31 Y163.30 E115.79152
G0 F12000 X147.74 Y163.30
G1 F1800 X153.03 Y168.59 E116.10247
G0 F12000 X152.46 Y168.59
G1 F1800 X147.18 Y163.30 E116.41344
G0 F12000 X146.61 Y163.30
G1 F1800 X151.90 Y168.59 E116.72438
G0 F12000 X151.33 Y168.59
G1 F1800 X146.04 Y163.30 E117.03533
G0 F12000 X145.48 Y163.30
G1 F1800 X150.77 Y168.59 E117.34630
G0 F12000 X150.20 Y168.59
G1 F1800 X144.91 Y163.30 E117.65724
G0 F12000 X144.35 Y163.30
G1 F1800 X149.63 Y168.59 E117.96819
G0 F12000 X149.07 Y168.59
G1 F1800 X143.78 Y163.30 E118.27916
G0 F12000 X143.22 Y163.30
G1 F1800 X148.50 Y168.59 E118.59013
G0 F12000 X147.94 Y168.59
G1 F1800 X142.65 Y163.30 E118.90108
G0 F12000 X142.08 Y163.30
G1 F1800 X147.37 Y168.59 E119.21205
G0 F12000 X146.81 Y168.59
G1 F1800 X141.52 Y163.30 E119.52302
G0 F12000 X140.95 Y163.30
G1 F1800 X146.24 Y168.59 E119.83396
G0 F12000 X145.68 Y168.59
G1 F1800 X140.39 Y163.30 E120.14494
G0 F12000 X139.82 Y163.30
G1 F1800 X145.11 Y168.59 E120.45591
G0 F12000 X144.54 Y168.59
G1 F1800 X139.26 Y163.30 E120.76685
G0 F12000 X138.69 Y163.30
G1 F1800 X143.98 Y168.59 E121.07780
G0 F12000 X143.41 Y168.59
G1 F1800 X138.12 Y163.30 E121.38877
G0 F12000 X137.56 Y163.30
G1 F1800 X142.85 Y168.59 E121.69971
G0 F12000 X142.28 Y168.59
G1 F1800 X136.99 Y163.30 E122.01066
G0 F12000 X136.43 Y163.30
G1 F1800 X141.72 Y168.59 E122.32163
G0 F12000 X141.15 Y168.59
G1 F1800 X135.86 Y163.30 E122.63257
G0 F12000 X135.30 Y163.30
G1 F1800 X140.58 Y168.59 E122.94352
G0 F12000 X140.02 Y168.59
G1 F1800 X134.73 Y163.30 E123.25449
G0 F12000 X134.16 Y163.30
G1 F1800 X139.45 Y168.59 E123.56543
G0 F12000 X138.89 Y168.59
G1 F1800 X133.60 Y163.30 E123.87638
G0 F12000 X133.03 Y163.30
G1 F1800 X138.32 Y168.59 E124.18735
G0 F12000 X137.76 Y168.59
G1 F1800 X132.47 Y163.30 E124.49832
G0 F12000 X131.90 Y163.30
G1 F1800 X137.19 Y168.59 E124.80927
G0 F12000 X136.62 Y168.59
G1 F1800 X127.86 Y159.82 E125.32485
G0 F12000 X127.28 Y159.81
G1 F1800 X136.06 Y168.59 E125.84108
G0 F12000 X173.34 Y163.10
G0 X176.22 Y159.54
G1 F1800 X181.29 Y164.60 E126.13862
G0 F12000 X181.29 Y164.03
G1 F1800 X177.06 Y159.81 E126.38712
G0 F12000 X177.64 Y159.82
G1 F1800 X181.29 Y163.47 E126.60167
G0 F12000 X181.29 Y162.90
G1 F1800 X178.11 Y159.72 E126.78852
G0 F12000 X178.51 Y159.56
G1 F1800 X181.29 Y162.34 E126.95189
G0 F12000 X181.29 Y161.77
G1 F1800 X178.84 Y159.32 E127.09582
G0 F12000 X179.13 Y159.05
G1 F1800 X181.29 Y161.20 E127.22258
G0 F12000 X181.29 Y160.64
G1 F1800 X179.38 Y158.73 E127.33489
G0 F12000 X179.55 Y158.34
G1 F1800 X181.29 Y160.07 E127.43672
G0 F12000 X181.29 Y159.51
G1 F1800 X179.68 Y157.90 E127.53144
G0 F12000 X179.70 Y157.36
G1 F1800 X181.29 Y158.94 E127.62446
G0 F12000 X181.29 Y158.38
G1 F1800 X179.52 Y156.61 E127.72817
G0 F12000 X181.29 Y154.42
G1 F1800 X176.48 Y149.61 E128.01063
G0 F12000 X177.23 Y149.80
G1 F1800 X181.29 Y153.85 E128.24893
G0 F12000 X181.29 Y153.28
G1 F1800 X177.77 Y149.77 E128.45569
G0 F12000 X178.21 Y149.65
G1 F1800 X181.29 Y152.72 E128.63631
G0 F12000 X181.29 Y152.15
G1 F1800 X178.60 Y149.47 E128.79406
G0 F12000 X178.92 Y149.22
G1 F1800 X181.29 Y151.59 E128.93297
G0 F12000 X181.29 Y151.02
G1 F1800 X179.20 Y148.93 E129.05585
G0 F12000 X179.43 Y148.60
G1 F1800 X181.29 Y150.46 E129.16486
G0 F12000 X181.29 Y149.89
G1 F1800 X179.60 Y148.20 E129.26413
G0 F12000 X179.69 Y147.73
G1 F1800 X181.29 Y149.32 E129.35786
G0 F12000 X181.29 Y148.76
G1 F1800 X179.68 Y147.16 E129.45216
G0 F12000 X179.42 Y146.32
G1 F1800 X181.29 Y148.19 E129.56214
G0 F12000 X181.29 Y147.63
G1 F1800 X170.07 Y136.41 E130.22157
G0 F12000 X170.64 Y136.41
G1 F1800 X181.29 Y147.06 E130.84775
G0 F12000 X181.29 Y146.50
G1 F1800 X171.20 Y136.41 E131.44065
G0 F12000 X171.77 Y136.41
G1 F1800 X181.29 Y145.93 E132.00030
G0 F12000 X181.29 Y145.37
G1 F1800 X172.33 Y136.41 E132.52670
G0 F12000 X172.90 Y136.41
G1 F1800 X181.29 Y144.80 E133.01983
G0 F12000 X181.29 Y144.23
G1 F1800 X173.47 Y136.41 E133.47970
G0 F12000 X174.03 Y136.41
G1 F1800 X181.29 Y143.67 E133.90633
G0 F12000 X181.29 Y143.10
G1 F1800 X174.60 Y136.41 E134.29967
G0 F12000 X175.16 Y136.41
G1 F1800 X181.29 Y142.54 E134.65977
G0 F12000 X181.29 Y141.97
G1 F1800 X175.73 Y136.41 E134.98659
G0 F12000 X176.29 Y136.41
G1 F1800 X181.29 Y141.41 E135.28016
G0 F12000 X181.29 Y140.84
G1 F1800 X176.86 Y136.41 E135.54048
G0 F12000 X177.43 Y136.41
G1 F1800 X181.29 Y140.27 E135.76752
G0 F12000 X181.29 Y139.71
G1 F1800 X177.99 Y136.41 E135.96131
G0 F12000 X178.56 Y136.41
G1 F1800 X181.29 Y139.14 E136.12186
G0 F12000 X181.29 Y138.58
G1 F1800 X179.12 Y136.41 E136.24912
G0 F12000 X179.69 Y136.41
G1 F1800 X181.29 Y138.01 E136.34313
G0 F12000 X181.31 Y137.47
G1 F1800 X180.25 Y136.41 E136.40546
G0 F12000 X180.82 Y136.41
G1 F1800 X181.88 Y137.47 E136.46778
G0 F12000 X182.44 Y137.47
G1 F1800 X181.38 Y136.41 E136.53011
G0 F12000 X181.95 Y136.41
G1 F1800 X183.01 Y137.47 E136.59243
G0 F12000 X183.58 Y137.47
G1 F1800 X182.52 Y136.41 E136.65475
G0 F12000 X183.08 Y136.41
G1 F1800 X184.14 Y137.47 E136.71708
G0 F12000 X184.71 Y137.47
G1 F1800 X183.65 Y136.41 E136.77940
G0 F12000 X184.21 Y136.41
G1 F1800 X185.27 Y137.47 E136.84173
G0 F12000 X185.84 Y137.47
G1 F1800 X184.78 Y136.41 E136.90402
G0 F12000 X185.34 Y136.41
G1 F1800 X186.40 Y137.47 E136.96634
G0 F12000 X186.97 Y137.47
G1 F1800 X185.91 Y136.41 E137.02867
G0 F12000 X186.48 Y136.41
G1 F1800 X187.54 Y137.47 E137.09099
G0 F12000 X187.64 Y137.01
G1 F1800 X187.04 Y136.41 E137.12598
G0 F12000 X181.49 Y137.67
G0 X178.55 Y145.46
G1 F1800 X169.50 Y136.41 E137.65799
G0 F12000 X168.94 Y136.41
G1 F1800 X177.72 Y145.19 E138.17422
G1 F2400 E136.97422
G0 F12000 X181.43 Y175.27
;TYPE:WALL-INNER
G1 F2400 E138.17422
G1 F1800 X181.43 Y206.38 E139.46784
G1 X123.57 Y206.38 E141.87312
G1 X123.57 Y175.27 E143.16674
G1 X117.22 Y175.27 E143.43074
G1 X117.22 Y173.93 E143.48645
G1 X187.78 Y173.93 E146.41974
G1 X187.78 Y175.27 E146.47545
G1 X181.43 Y175.27 E146.73946
G0 F12000 X177.96 Y183.02
G1 F1800 X177.39 Y182.94 E146.76324
G1 X176.82 Y183.02 E146.78707
G1 X176.30 Y183.24 E146.81081
G1 X175.84 Y183.59 E146.83463
G1 X175.49 Y184.04 E146.85841
G1 X175.27 Y184.57 E146.88223
G1 X175.20 Y185.14 E146.90605
G1 X175.27 Y185.71 E146.92986
G1 X175.49 Y186.24 E146.95368
G1 X175.84 Y186.69 E146.97746
G1 X176.30 Y187.04 E147.00128
G1 X176.82 Y187.26 E147.02508
G1 X177.39 Y187.33 E147.04885
G1 X177.96 Y187.26 E147.07259
G1 X178.49 Y187.04 E147.09639
G1 X178.94 Y186.69 E147.12020
G1 X179.29 Y186.24 E147.14399
G1 X179.51 Y185.71 E147.16781
G1 X179.58 Y185.14 E147.19162
G1 X179.51 Y184.57 E147.21543
G1 X179.29 Y184.04 E147.23925
G1 X178.94 Y183.59 E147.26304
G1 X178.49 Y183.24 E147.28685
G1 X177.96 Y183.02 E147.31060
G0 F12000 X173.39 Y179.50
G1 F1800 X131.61 Y179.50 E149.04794
G1 X131.61 Y200.81 E149.93420
G1 X173.39 Y200.81 E151.67155
G1 X173.39 Y179.50 E152.55780
G0 F12000 X176.82 Y193.05
G1 F1800 X176.30 Y193.27 E152.58155
G1 X175.84 Y193.62 E152.60537
G1 X175.49 Y194.07 E152.62915
G1 X175.27 Y194.60 E152.65297
G1 X175.20 Y195.17 E152.67678
G1 X175.27 Y195.74 E152.70060
G1 X175.49 Y196.27 E152.72442
G1 X175.84 Y196.72 E152.74820
G1 X176.30 Y197.07 E152.77201
G1 X176.82 Y197.29 E152.79582
G1 X177.39 Y197.36 E152.81959
G1 X177.96 Y197.29 E152.84332
G1 X178.49 Y197.07 E152.86713
G1 X178.94 Y196.72 E152.89094
G1 X179.29 Y196.27 E152.91472
G1 X179.51 Y195.74 E152.93854
G1 X179.58 Y195.17 E152.96236
G1 X179.51 Y194.60 E152.98617
G1 X179.29 Y194.07 E153.00999
G1 X178.94 Y193.62 E153.03377
G1 X178.49 Y193.27 E153.05759
G1 X177.96 Y193.05 E153.08134
G1 X177.39 Y192.98 E153.10512
G1 X176.82 Y193.05 E153.12895
G0 F12000 X173.39 Y193.21
G0 X173.34 Y200.75
G0 X131.66 Y200.75
G0 X129.80 Y195.17
G1 F1800 X129.73 Y194.60 E153.15276
G1 X129.51 Y194.07 E153.17658
G1 X129.16 Y193.62 E153.20036
G1 X128.70 Y193.27 E153.22418
G1 X128.18 Y193.05 E153.24793
G1 X127.61 Y192.98 E153.27175
G1 X127.04 Y193.05 E153.29554
G1 X126.51 Y193.27 E153.31929
G1 X126.06 Y193.62 E153.34310
G1 X125.71 Y194.07 E153.36688
G1 X125.49 Y194.60 E153.39070
G1 X125.42 Y195.17 E153.41452
G1 X125.49 Y195.74 E153.43833
G1 X125.71 Y196.27 E153.46215
G1 X126.06 Y196.72 E153.48593
G1 X126.51 Y197.07 E153.50975
G1 X127.04 Y197.29 E153.53355
G1 X127.61 Y197.36 E153.55728
G1 X128.18 Y197.29 E153.58106
G1 X128.70 Y197.07 E153.60486
G1 X129.16 Y196.72 E153.62868
G1 X129.51 Y196.27 E153.65246
G1 X129.73 Y195.74 E153.67628
G1 X129.80 Y195.17 E153.70009
G0 F12000 X128.18 Y187.26
G1 F1800 X128.70 Y187.04 E153.72389
G1 X129.16 Y186.69 E153.74771
G1 X129.51 Y186.24 E153.77149
G1 X129.73 Y185.71 E153.79531
G1 X129.80 Y185.14 E153.81913
G1 X129.73 Y184.57 E153.84294
G1 X129.51 Y184.04 E153.86676
G1 X129.16 Y183.59 E153.89054
G1 X128.70 Y183.24 E153.91436
G1 X128.18 Y183.02 E153.93811
G1 X127.61 Y182.94 E153.96193
G1 X127.04 Y183.02 E153.98572
G1 X126.51 Y183.24 E154.00946
G1 X126.06 Y183.59 E154.03328
G1 X125.71 Y184.04 E154.05706
G1 X125.49 Y184.57 E154.08088
G1 X125.42 Y185.14 E154.10470
G1 X125.49 Y185.71 E154.12851
G1 X125.71 Y186.24 E154.15233
G1 X126.06 Y186.69 E154.17611
G1 X126.51 Y187.04 E154.19993
G1 X127.04 Y187.26 E154.22373
G1 X127.61 Y187.33 E154.24746
G1 X128.18 Y187.26 E154.27124
G0 F12000 X128.07 Y186.87
;TYPE:WALL-OUTER
G1 F1800 X128.50 Y186.69 E154.29066
G1 X128.87 Y186.40 E154.31009
G1 X129.16 Y186.03 E154.32951
G1 X129.34 Y185.60 E154.34895
G1 X129.40 Y185.14 E154.36837
G1 X129.34 Y184.68 E154.38778
G1 X129.16 Y184.24 E154.40722
G1 X128.87 Y183.87 E154.42665
G1 X128.50 Y183.59 E154.44607
G1 X128.07 Y183.41 E154.46550
G1 X127.61 Y183.35 E154.48492
G1 X127.15 Y183.41 E154.50430
G1 X126.71 Y183.59 E154.52373
G1 X126.34 Y183.87 E154.54315
G1 X126.06 Y184.24 E154.56258
G1 X125.88 Y184.68 E154.58202
G1 X125.82 Y185.14 E154.60143
G1 X125.88 Y185.60 E154.62085
G1 X126.06 Y186.03 E154.64029
G1 X126.34 Y186.40 E154.65971
G1 X126.71 Y186.69 E154.67914
G1 X127.15 Y186.87 E154.69856
G1 X127.61 Y186.93 E154.71794
G1 X128.07 Y186.87 E154.73735
G0 F12000 X128.11 Y187.16
G0 X127.65 Y193.08
G0 X127.61 Y193.38
G1 F1800 X127.15 Y193.44 E154.75673
G1 X126.71 Y193.62 E154.77616
G1 X126.34 Y193.91 E154.79558
G1 X126.06 Y194.28 E154.81501
G1 X125.88 Y194.71 E154.83445
G1 X125.82 Y195.17 E154.85387
G1 X125.88 Y195.63 E154.87328
G1 X126.06 Y196.07 E154.89272
G1 X126.34 Y196.44 E154.91215
G1 X126.71 Y196.72 E154.93157
G1 X127.15 Y196.90 E154.95100
G1 X127.61 Y196.96 E154.97037
G1 X128.07 Y196.90 E154.98979
G1 X128.50 Y196.72 E155.00921
G1 X128.87 Y196.44 E155.02864
G1 X129.16 Y196.07 E155.04806
G1 X129.34 Y195.63 E155.06750
G1 X129.40 Y195.17 E155.08692
G1 X129.34 Y194.71 E155.10634
G1 X129.16 Y194.28 E155.12578
G1 X128.87 Y193.91 E155.14520
G1 X128.50 Y193.62 E155.16463
G1 X128.07 Y193.44 E155.18405
G1 X127.61 Y193.38 E155.20347
G0 F12000 X127.65 Y193.08
G0 X128.70 Y193.27
G0 X129.72 Y194.60
G0 X131.71 Y200.41
G0 X132.01 Y200.41
G1 F1800 X172.99 Y200.41 E156.90756
G1 X172.99 Y179.90 E157.76055
G1 X132.01 Y179.90 E159.46464
G1 X132.01 Y200.41 E160.31763
G0 F12000 X131.71 Y200.41
G0 X123.38 Y206.48
G0 X123.17 Y206.78
G1 F1800 X123.17 Y175.67 E161.61125
G1 X116.82 Y175.67 E161.87525
G1 X116.82 Y173.53 E161.96422
G1 X188.18 Y173.53 E164.93077
G1 X188.18 Y175.67 E165.01974
G1 X181.83 Y175.67 E165.28375
G1 X181.83 Y206.78 E166.57736
G1 X123.17 Y206.78 E169.01591
G0 F12000 X123.38 Y206.48
G0 X173.34 Y200.75
G0 X175.39 Y185.72
G0 X175.66 Y185.60
G1 F1800 X175.84 Y186.03 E169.03535
G1 X176.13 Y186.40 E169.05477
G1 X176.50 Y186.69 E169.07420
G1 X176.93 Y186.87 E169.09362
G1 X177.39 Y186.93 E169.11304
G1 X177.85 Y186.87 E169.13241
G1 X178.29 Y186.69 E169.15184
G1 X178.66 Y186.40 E169.17126
G1 X178.94 Y186.03 E169.19069
G1 X179.12 Y185.60 E169.21013
G1 X179.18 Y185.14 E169.22955
G1 X179.12 Y184.68 E169.24896
G1 X178.94 Y184.24 E169.26840
G1 X178.66 Y183.87 E169.28783
G1 X178.29 Y183.59 E169.30725
G1 X177.85 Y183.41 E169.32668
G1 X177.39 Y183.35 E169.34606
G1 X176.93 Y183.41 E169.36548
G1 X176.50 Y183.59 E169.38491
G1 X176.13 Y183.87 E169.40433
G1 X175.84 Y184.24 E169.42375
G1 X175.66 Y184.68 E169.44320
G1 X175.60 Y185.14 E169.46261
G1 X175.66 Y185.60 E169.48203
G0 F12000 X175.39 Y185.72
G0 X176.89 Y193.15
G0 X176.93 Y193.44
G1 F1800 X176.50 Y193.62 E169.50145
G1 X176.13 Y193.91 E169.52088
G1 X175.84 Y194.28 E169.54030
G1 X175.66 Y194.71 E169.55974
G1 X175.60 Y195.17 E169.57916
G1 X175.66 Y195.63 E169.59857
G1 X175.84 Y196.07 E169.61802
G1 X176.13 Y196.44 E169.63744
G1 X176.50 Y196.72 E169.65687
G1 X176.93 Y196.90 E169.67629
G1 X177.39 Y196.96 E169.69571
G1 X177.85 Y196.90 E169.71508
G1 X178.29 Y196.72 E169.73451
G1 X178.66 Y196.44 E169.75393
G1 X178.94 Y196.07 E169.77336
G1 X179.12 Y195.63 E169.79280
G1 X179.18 Y195.17 E169.81221
G1 X179.12 Y194.71 E169.83163
G1 X178.94 Y194.28 E169.85107
G1 X178.66 Y193.91 E169.87049
G1 X178.29 Y193.62 E169.88992
G1 X177.85 Y193.44 E169.90935
G1 X177.39 Y193.38 E169.92873
G1 X176.93 Y193.44 E169.94815
G0 F12000 X176.79 Y192.91
;TYPE:FILL
G1 F1800 X173.53 Y189.66 E170.13976
G0 F12000 X173.53 Y189.09
G1 F1800 X177.29 Y192.85 E170.36069
G0 F12000 X177.91 Y192.91
G1 F1800 X173.53 Y188.52 E170.61828
G0 F12000 X173.53 Y187.96
G1 F1800 X181.29 Y195.71 E171.07418
G0 F12000 X181.29 Y196.28
G1 F1800 X179.66 Y194.65 E171.16999
G0 F12000 X179.71 Y195.27
G1 F1800 X181.29 Y196.84 E171.26259
G0 F12000 X181.29 Y197.41
G1 F1800 X179.65 Y195.77 E171.35908
G0 F12000 X179.48 Y196.17
G1 F1800 X181.29 Y197.97 E171.46523
G0 F12000 X181.29 Y198.54
G1 F1800 X179.27 Y196.52 E171.58386
G0 F12000 X179.02 Y196.84
G1 F1800 X181.29 Y199.11 E171.71721
G0 F12000 X181.29 Y199.67
G1 F1800 X178.70 Y197.08 E171.86937
G0 F12000 X178.33 Y197.28
G1 F1800 X181.29 Y200.24 E172.04299
G0 F12000 X181.29 Y200.80
G1 F1800 X177.92 Y197.44 E172.24102
G0 F12000 X177.42 Y197.50
G1 F1800 X181.29 Y201.37 E172.46844
G0 F12000 X181.29 Y201.93
G1 F1800 X176.77 Y197.42 E172.73406
G0 F12000 X175.14 Y195.79
G1 F1800 X173.53 Y194.18 E172.82869
G0 F12000 X173.53 Y194.75
G1 F1800 X181.29 Y202.50 E173.28456
G0 F12000 X181.29 Y203.07
G1 F1800 X173.53 Y195.31 E173.74047
G0 F12000 X173.53 Y195.88
G1 F1800 X181.29 Y203.63 E174.19635
G0 F12000 X181.29 Y204.20
G1 F1800 X173.53 Y196.44 E174.65222
G0 F12000 X173.53 Y197.01
G1 F1800 X181.29 Y204.76 E175.10813
G0 F12000 X181.29 Y205.33
G1 F1800 X173.53 Y197.57 E175.56400
G0 F12000 X173.53 Y198.14
G1 F1800 X181.29 Y205.89 E176.01988
G0 F12000 X181.07 Y206.24
G1 F1800 X173.53 Y198.71 E176.46291
G0 F12000 X173.53 Y199.27
G1 F1800 X180.50 Y206.24 E176.87266
G0 F12000 X179.94 Y206.24
G1 F1800 X173.53 Y199.84 E177.24913
G0 F12000 X173.53 Y200.40
G1 F1800 X179.37 Y206.24 E177.59238
G0 F12000 X178.81 Y206.24
G1 F1800 X173.52 Y200.95 E177.90336
G0 F12000 X172.95 Y200.95
G1 F1800 X178.24 Y206.24 E178.21430
G0 F12000 X177.67 Y206.24
G1 F1800 X172.38 Y200.95 E178.52527
G0 F12000 X171.82 Y200.95
G1 F1800 X177.11 Y206.24 E178.83625
G0 F12000 X176.54 Y206.24
G1 F1800 X171.25 Y200.95 E179.14719
G0 F12000 X170.69 Y200.95
G1 F1800 X175.98 Y206.24 E179.45813
G0 F12000 X175.41 Y206.24
G1 F1800 X170.12 Y200.95 E179.76911
G0 F12000 X169.56 Y200.95
G1 F1800 X174.84 Y206.24 E180.08005
G0 F12000 X174.28 Y206.24
G1 F1800 X168.99 Y200.95 E180.39099
G0 F12000 X168.43 Y200.95
G1 F1800 X173.71 Y206.24 E180.70197
G0 F12000 X173.15 Y206.24
G1 F1800 X167.86 Y200.95 E181.01291
G0 F12000 X167.29 Y200.95
G1 F1800 X172.58 Y206.24 E181.32385
G0 F12000 X172.02 Y206.24
G1 F1800 X166.73 Y200.95 E181.63483
G0 F12000 X166.16 Y200.95
G1 F1800 X171.45 Y206.24 E181.94577
G0 F12000 X170.88 Y206.24
G1 F1800 X165.60 Y200.95 E182.25671
G0 F12000 X165.03 Y200.95
G1 F1800 X170.32 Y206.24 E182.56769
G0 F12000 X169.75 Y206.24
G1 F1800 X164.47 Y200.95 E182.87866
G0 F12000 X163.90 Y200.95
G1 F1800 X169.19 Y206.24 E183.18960
G0 F12000 X168.62 Y206.24
G1 F1800 X163.33 Y200.95 E183.50057
G0 F12000 X162.77 Y200.95
G1 F1800 X168.06 Y206.24 E183.81155
G0 F12000 X167.49 Y206.24
G1 F1800 X162.20 Y200.95 E184.12249
G0 F12000 X161.64 Y200.95
G1 F1800 X166.93 Y206.24 E184.43343
G0 F12000 X166.36 Y206.24
G1 F1800 X161.07 Y200.95 E184.74441
G0 F12000 X160.51 Y200.95
G1 F1800 X165.79 Y206.24 E185.05535
G0 F12000 X165.23 Y206.24
G1 F1800 X159.94 Y200.95 E185.36629
G0 F12000 X159.37 Y200.95
G1 F1800 X164.66 Y206.24 E185.67727
G0 F12000 X164.10 Y206.24
G1 F1800 X158.81 Y200.95 E185.98821
G0 F12000 X158.24 Y200.95
G1 F1800 X163.53 Y206.24 E186.29915
G0 F12000 X162.97 Y206.24
G1 F1800 X157.68 Y200.95 E186.61013
G0 F12000 X157.11 Y200.95
G1 F1800 X162.40 Y206.24 E186.92107
G0 F12000 X161.83 Y206.24
G1 F1800 X156.55 Y200.95 E187.23201
G0 F12000 X155.98 Y200.95
G1 F1800 X161.27 Y206.24 E187.54299
G0 F12000 X160.70 Y206.24
G1 F1800 X155.41 Y200.95 E187.85396
G0 F12000 X154.85 Y200.95
G1 F1800 X160.14 Y206.24 E188.16490
G0 F12000 X159.57 Y206.24
G1 F1800 X154.28 Y200.95 E188.47588
G0 F12000 X153.72 Y200.95
G1 F1800 X159.01 Y206.24 E188.78685
G0 F12000 X158.44 Y206.24
G1 F1800 X153.15 Y200.95 E189.09779
G0 F12000 X152.59 Y200.95
G1 F1800 X157.88 Y206.24 E189.40877
G0 F12000 X157.31 Y206.24
G1 F1800 X152.02 Y200.95 E189.71974
G0 F12000 X151.46 Y200.95
G1 F1800 X156.74 Y206.24 E190.03068
G0 F12000 X156.18 Y206.24
G1 F1800 X150.89 Y200.95 E190.34163
G0 F12000 X150.32 Y200.95
G1 F1800 X155.61 Y206.24 E190.65260
G0 F12000 X155.05 Y206.24
G1 F1800 X149.76 Y200.95 E190.96354
G0 F12000 X149.19 Y200.95
G1 F1800 X154.48 Y206.24 E191.27449
G0 F12000 X153.91 Y206.24
G1 F1800 X148.63 Y200.95 E191.58546
G0 F12000 X148.06 Y200.95
G1 F1800 X153.35 Y206.24 E191.89640
G0 F12000 X152.78 Y206.24
G1 F1800 X147.50 Y200.95 E192.20735
G0 F12000 X146.93 Y200.95
G1 F1800 X152.22 Y206.24 E192.51832
G0 F12000 X151.65 Y206.24
G1 F1800 X146.36 Y200.95 E192.82926
G0 F12000 X145.80 Y200.95
G1 F1800 X151.09 Y206.24 E193.14021
G0 F12000 X150.52 Y206.24
G1 F1800 X145.23 Y200.95 E193.45118
G0 F12000 X144.67 Y200.95
G1 F1800 X149.96 Y206.24 E193.76215
G0 F12000 X149.39 Y206.24
G1 F1800 X144.10 Y200.95 E194.07310
G0 F12000 X143.53 Y200.95
G1 F1800 X148.82 Y206.24 E194.38407
G0 F12000 X148.26 Y206.24
G1 F1800 X142.97 Y200.95 E194.69504
G0 F12000 X142.40 Y200.95
G1 F1800 X147.69 Y206.24 E195.00599
G0 F12000 X147.13 Y206.24
G1 F1800 X141.84 Y200.95 E195.31696
G0 F12000 X141.27 Y200.95
G1 F1800 X146.56 Y206.24 E195.62793
G0 F12000 X146.00 Y206.24
G1 F1800 X140.71 Y200.95 E195.93887
G0 F12000 X140.14 Y200.95
G1 F1800 X145.43 Y206.24 E196.24982
G0 F12000 X144.86 Y206.24
G1 F1800 X139.57 Y200.95 E196.56079
G0 F12000 X139.01 Y200.95
G1 F1800 X144.30 Y206.24 E196.87173
G0 F12000 X143.73 Y206.24
G1 F1800 X138.44 Y200.95 E197.18268
G0 F12000 X137.88 Y200.95
G1 F1800 X143.17 Y206.24 E197.49365
G0 F12000 X142.60 Y206.24
G1 F1800 X137.31 Y200.95 E197.80459
G0 F12000 X136.75 Y200.95
G1 F1800 X142.03 Y206.24 E198.11554
G0 F12000 X141.47 Y206.24
G1 F1800 X136.18 Y200.95 E198.42651
G0 F12000 X135.62 Y200.95
G1 F1800 X140.90 Y206.24 E198.73745
G0 F12000 X140.34 Y206.24
G1 F1800 X135.05 Y200.95 E199.04840
G0 F12000 X134.48 Y200.95
G1 F1800 X139.77 Y206.24 E199.35937
G0 F12000 X139.21 Y206.24
G1 F1800 X133.92 Y200.95 E199.67034
G0 F12000 X133.35 Y200.95
G1 F1800 X138.64 Y206.24 E199.98129
G0 F12000 X138.08 Y206.24
G1 F1800 X132.79 Y200.95 E200.29226
G0 F12000 X132.22 Y200.95
G1 F1800 X137.51 Y206.24 E200.60323
G0 F12000 X136.94 Y206.24
G1 F1800 X131.66 Y200.95 E200.91418
G0 F12000 X131.47 Y200.76
G1 F1800 X128.14 Y197.44 E201.10976
G0 F12000 X128.55 Y197.28
G1 F1800 X131.47 Y200.20 E201.28098
G0 F12000 X131.47 Y199.63
G1 F1800 X128.92 Y197.08 E201.43082
G0 F12000 X129.24 Y196.84
G1 F1800 X131.47 Y199.06 E201.56176
G0 F12000 X131.47 Y198.50
G1 F1800 X129.49 Y196.52 E201.67803
G0 F12000 X129.70 Y196.17
G1 F1800 X131.47 Y197.93 E201.78183
G0 F12000 X131.47 Y197.37
G1 F1800 X129.86 Y195.77 E201.87599
G0 F12000 X129.93 Y195.27
G1 F1800 X131.47 Y196.80 E201.96628
G0 F12000 X131.47 Y196.24
G1 F1800 X129.87 Y194.65 E202.05982
G0 F12000 X131.47 Y194.54
G1 F1800 X123.71 Y186.79 E202.51567
G0 F12000 X123.71 Y187.35
G1 F1800 X131.47 Y195.10 E202.97151
G0 F12000 X131.47 Y195.67
G1 F1800 X123.71 Y187.92 E203.42739
G0 F12000 X123.71 Y188.48
G1 F1800 X128.13 Y192.91 E203.68739
G0 F12000 X127.51 Y192.85
G1 F1800 X123.71 Y189.05 E203.91075
G0 F12000 X123.71 Y189.61
G1 F1800 X127.01 Y192.91 E204.10478
G0 F12000 X126.61 Y193.08
G1 F1800 X123.71 Y190.18 E204.27517
G0 F12000 X123.71 Y190.75
G1 F1800 X126.26 Y193.29 E204.42475
G0 F12000 X125.94 Y193.54
G1 F1800 X123.71 Y191.31 E204.55586
G0 F12000 X123.71 Y191.88
G1 F1800 X125.70 Y193.86 E204.67252
G0 F12000 X125.49 Y194.22
G1 F1800 X123.71 Y192.44 E204.77729
G0 F12000 X123.71 Y193.01
G1 F1800 X125.34 Y194.64 E204.87319
G0 F12000 X125.28 Y195.14
G1 F1800 X123.71 Y193.57 E204.96526
G0 F12000 X123.71 Y194.14
G1 F1800 X125.36 Y195.79 E205.06204
G0 F12000 X123.71 Y195.84
G1 F1800 X134.12 Y206.24 E205.67376
G0 F12000 X134.68 Y206.24
G1 F1800 X123.71 Y195.27 E206.31872
G0 F12000 X123.71 Y194.71
G1 F1800 X135.25 Y206.24 E206.99693
G0 F12000 X135.81 Y206.24
G1 F1800 X126.99 Y197.42 E207.51560
G0 F12000 X127.64 Y197.50
G1 F1800 X136.38 Y206.24 E208.02951
G0 F12000 X133.55 Y206.24
G1 F1800 X123.71 Y196.40 E208.60795
G0 F12000 X123.71 Y196.97
G1 F1800 X132.98 Y206.24 E209.15314
G0 F12000 X132.42 Y206.24
G1 F1800 X123.71 Y197.53 E209.66508
G0 F12000 X123.71 Y198.10
G1 F1800 X131.85 Y206.24 E210.14373
G0 F12000 X131.29 Y206.24
G1 F1800 X123.71 Y198.66 E210.58915
G0 F12000 X123.71 Y199.23
G1 F1800 X130.72 Y206.24 E211.00131
G0 F12000 X130.16 Y206.24
G1 F1800 X123.71 Y199.80 E211.38019
G0 F12000 X123.71 Y200.36
G1 F1800 X129.59 Y206.24 E211.72582
G0 F12000 X129.03 Y206.24
G1 F1800 X123.71 Y200.93 E212.03821
G0 F12000 X123.71 Y201.49
G1 F1800 X128.46 Y206.24 E212.31731
G0 F12000 X127.89 Y206.24
G1 F1800 X123.71 Y202.06 E212.56314
G0 F12000 X123.71 Y202.62
G1 F1800 X127.33 Y206.24 E212.77575
G0 F12000 X126.76 Y206.24
G1 F1800 X123.71 Y203.19 E212.95507
G0 F12000 X123.71 Y203.76
G1 F1800 X126.20 Y206.24 E213.10112
G0 F12000 X125.63 Y206.24
G1 F1800 X123.71 Y204.32 E213.21392
G0 F12000 X123.71 Y204.89
G1 F1800 X125.06 Y206.24 E213.29347
G0 F12000 X124.50 Y206.24
G1 F1800 X123.71 Y205.45 E213.33975
G0 F12000 X123.71 Y206.02
G1 F1800 X123.93 Y206.24 E213.35277
G0 F12000 X131.47 Y193.97
G1 F1800 X123.71 Y186.22 E213.80865
G0 F12000 X123.71 Y185.66
G1 F1800 X131.47 Y193.41 E214.26449
G0 F12000 X131.47 Y192.84
G1 F1800 X123.71 Y185.09 E214.72034
G0 F12000 X123.71 Y184.52
G1 F1800 X125.89 Y186.70 E214.84857
G0 F12000 X126.04 Y186.85
G1 F1800 X131.47 Y192.28 E215.16751
G0 F12000 X131.47 Y191.71
G1 F1800 X127.17 Y187.41 E215.42016
G0 F12000 X127.77 Y187.45
G1 F1800 X131.47 Y191.15 E215.63741
G0 F12000 X131.47 Y190.58
G1 F1800 X128.26 Y187.37 E215.82600
G0 F12000 X128.66 Y187.21
G1 F1800 X131.47 Y190.01 E215.99101
G0 F12000 X131.47 Y189.45
G1 F1800 X129.00 Y186.99 E216.13583
G0 F12000 X129.31 Y186.72
G1 F1800 X131.47 Y188.88 E216.26274
G0 F12000 X131.47 Y188.32
G1 F1800 X129.55 Y186.40 E216.37519
G0 F12000 X129.74 Y186.03
G1 F1800 X131.47 Y187.75 E216.47641
G0 F12000 X131.47 Y187.19
G1 F1800 X129.88 Y185.60 E216.56951
G0 F12000 X129.94 Y185.09
G1 F1800 X131.47 Y186.62 E216.65944
G0 F12000 X131.47 Y186.05
G1 F1800 X129.81 Y184.40 E216.75698
G0 F12000 X131.47 Y184.36
G1 F1800 X123.71 Y176.60 E217.21283
G0 F12000 X123.71 Y177.17
G1 F1800 X131.47 Y184.92 E217.66870
G0 F12000 X131.47 Y185.49
G1 F1800 X123.71 Y177.74 E218.12455
G0 F12000 X123.71 Y178.30
G1 F1800 X128.35 Y182.94 E218.39731
G0 F12000 X127.65 Y182.81
G1 F1800 X123.71 Y178.87 E218.62902
G0 F12000 X123.71 Y179.43
G1 F1800 X127.14 Y182.86 E218.83081
G0 F12000 X126.72 Y183.00
G1 F1800 X123.71 Y180.00 E219.00743
G0 F12000 X123.71 Y180.56
G1 F1800 X126.34 Y183.19 E219.16201
G0 F12000 X126.02 Y183.44
G1 F1800 X123.71 Y181.13 E219.29771
G0 F12000 X123.71 Y181.69
G1 F1800 X125.76 Y183.74 E219.41812
G0 F12000 X125.54 Y184.09
G1 F1800 X123.71 Y182.26 E219.52546
G0 F12000 X123.71 Y182.83
G1 F1800 X125.37 Y184.49 E219.62306
G0 F12000 X125.30 Y184.97
G1 F1800 X123.71 Y183.39 E219.71613
G0 F12000 X123.71 Y183.96
G1 F1800 X125.33 Y185.58 E219.81132
G0 F12000 X126.06 Y183.59
G0 X127.61 Y182.95
G0 X129.16 Y183.59
G0 X131.47 Y183.79
G1 F1800 X123.71 Y176.04 E220.26717
G0 F12000 X123.71 Y175.47
G1 F1800 X131.47 Y183.23 E220.72305
G0 F12000 X131.47 Y182.66
G1 F1800 X122.87 Y174.07 E221.22828
G0 F12000 X123.44 Y174.07
G1 F1800 X131.47 Y182.09 E221.70024
G0 F12000 X131.47 Y181.53
G1 F1800 X124.00 Y174.07 E222.13898
G0 F12000 X124.57 Y174.07
G1 F1800 X131.47 Y180.96 E222.54443
G0 F12000 X131.47 Y180.40
G1 F1800 X125.14 Y174.07 E222.91661
G0 F12000 X125.70 Y174.07
G1 F1800 X131.47 Y179.83 E223.25557
G0 F12000 X131.55 Y179.35
G1 F1800 X126.27 Y174.07 E223.56646
G0 F12000 X126.83 Y174.07
G1 F1800 X132.12 Y179.35 E223.87734
G0 F12000 X132.69 Y179.35
G1 F1800 X127.40 Y174.07 E224.18820
G0 F12000 X127.96 Y174.07
G1 F1800 X133.25 Y179.35 E224.49908
G0 F12000 X133.82 Y179.35
G1 F1800 X128.53 Y174.07 E224.80997
G0 F12000 X129.09 Y174.07
G1 F1800 X134.38 Y179.35 E225.12082
G0 F12000 X134.95 Y179.35
G1 F1800 X129.66 Y174.07 E225.43171
G0 F12000 X130.23 Y174.07
G1 F1800 X135.51 Y179.35 E225.74259
G0 F12000 X136.08 Y179.35
G1 F1800 X130.79 Y174.07 E226.05345
G0 F12000 X131.36 Y174.07
G1 F1800 X136.65 Y179.35 E226.36433
G0 F12000 X137.21 Y179.35
G1 F1800 X131.92 Y174.07 E226.67522
G0 F12000 X132.49 Y174.07
G1 F1800 X137.78 Y179.35 E226.98607
G0 F12000 X138.34 Y179.35
G1 F1800 X133.05 Y174.07 E227.29696
G0 F12000 X133.62 Y174.07
G1 F1800 X138.91 Y179.35 E227.60784
G0 F12000 X139.47 Y179.35
G1 F1800 X134.19 Y174.07 E227.91870
G0 F12000 X134.75 Y174.07
G1 F1800 X140.04 Y179.35 E228.22958
G0 F12000 X140.60 Y179.35
G1 F1800 X135.32 Y174.07 E228.54047
G0 F12000 X135.88 Y174.07
G1 F1800 X141.17 Y179.35 E228.85135
G0 F12000 X141.74 Y179.35
G1 F1800 X136.45 Y174.07 E229.16224
G0 F12000 X137.01 Y174.07
G1 F1800 X142.30 Y179.35 E229.47312
G0 F12000 X142.87 Y179.35
G1 F1800 X137.58 Y174.07 E229.78401
G0 F12000 X138.15 Y174.07
G1 F1800 X143.43 Y179.35 E230.09486
G0 F12000 X144.00 Y179.35
G1 F1800 X138.71 Y174.07 E230.40575
G0 F12000 X139.28 Y174.07
G1 F1800 X144.56 Y179.35 E230.71663
G0 F12000 X145.13 Y179.35
G1 F1800 X139.84 Y174.07 E231.02749
G0 F12000 X140.41 Y174.07
G1 F1800 X145.70 Y179.35 E231.33837
G0 F12000 X146.26 Y179.35
G1 F1800 X140.97 Y174.07 E231.64926
G0 F12000 X141.54 Y174.07
G1 F1800 X146.83 Y179.35 E231.96011
G0 F12000 X147.39 Y179.35
G1 F1800 X142.10 Y174.07 E232.27100
G0 F12000 X142.67 Y174.07
G1 F1800 X147.96 Y179.35 E232.58188
G0 F12000 X148.52 Y179.35
G1 F1800 X143.24 Y174.07 E232.89274
G0 F12000 X143.80 Y174.07
G1 F1800 X149.09 Y179.35 E233.20362
G0 F12000 X149.66 Y179.35
G1 F1800 X144.37 Y174.07 E233.51451
G0 F12000 X144.93 Y174.07
G1 F1800 X150.22 Y179.35 E233.82539
G0 F12000 X150.79 Y179.35
G1 F1800 X145.50 Y174.07 E234.13628
G0 F12000 X146.06 Y174.07
G1 F1800 X151.35 Y179.35 E234.44716
G0 F12000 X151.92 Y179.35
G1 F1800 X146.63 Y174.07 E234.75804
G0 F12000 X147.20 Y174.07
G1 F1800 X152.48 Y179.35 E235.06890
G0 F12000 X153.05 Y179.35
G1 F1800 X147.76 Y174.07 E235.37978
G0 F12000 X148.33 Y174.07
G1 F1800 X153.62 Y179.35 E235.69067
G0 F12000 X154.18 Y179.35
G1 F1800 X148.89 Y174.07 E236.00152
G0 F12000 X149.46 Y174.07
G1 F1800 X154.75 Y179.35 E236.31241
G0 F12000 X155.31 Y179.35
G1 F1800 X150.03 Y174.07 E236.62329
G0 F12000 X150.59 Y174.07
G1 F1800 X155.88 Y179.35 E236.93415
G0 F12000 X156.44 Y179.35
G1 F1800 X151.16 Y174.07 E237.24503
G0 F12000 X151.72 Y174.07
G1 F1800 X157.01 Y179.35 E237.55592
G0 F12000 X157.57 Y179.35
G1 F1800 X152.29 Y174.07 E237.86677
G0 F12000 X152.85 Y174.07
G1 F1800 X158.14 Y179.35 E238.17766
G0 F12000 X158.71 Y179.35
G1 F1800 X153.42 Y174.07 E238.48854
G0 F12000 X153.99 Y174.07
G1 F1800 X159.27 Y179.35 E238.79940
G0 F12000 X159.84 Y179.35
G1 F1800 X154.55 Y174.07 E239.11028
G0 F12000 X155.12 Y174.07
G1 F1800 X160.40 Y179.35 E239.42117
G0 F12000 X160.97 Y179.35
G1 F1800 X155.68 Y174.07 E239.73205
G0 F12000 X156.25 Y174.07
G1 F1800 X161.53 Y179.35 E240.04294
G0 F12000 X162.10 Y179.35
G1 F1800 X156.81 Y174.07 E240.35382
G0 F12000 X157.38 Y174.07
G1 F1800 X162.67 Y179.35 E240.66471
G0 F12000 X163.23 Y179.35
G1 F1800 X157.94 Y174.07 E240.97556
G0 F12000 X158.51 Y174.07
G1 F1800 X163.80 Y179.35 E241.28645
G0 F12000 X164.36 Y179.35
G1 F1800 X159.08 Y174.07 E241.59733
G0 F12000 X159.64 Y174.07
G1 F1800 X164.93 Y179.35 E241.90819
G0 F12000 X165.50 Y179.35
G1 F1800 X160.21 Y174.07 E242.21907
G0 F12000 X160.77 Y174.07
G1 F1800 X166.06 Y179.35 E242.52996
G0 F12000 X166.63 Y179.35
G1 F1800 X161.34 Y174.07 E242.84081
G0 F12000 X161.90 Y174.07
G1 F1800 X167.19 Y179.35 E243.15170
G0 F12000 X167.76 Y179.35
G1 F1800 X162.47 Y174.07 E243.46258
G0 F12000 X163.04 Y174.07
G1 F1800 X168.32 Y179.35 E243.77344
G0 F12000 X168.89 Y179.35
G1 F1800 X163.60 Y174.07 E244.08432
G0 F12000 X164.17 Y174.07
G1 F1800 X169.46 Y179.35 E244.39521
G0 F12000 X170.02 Y179.35
G1 F1800 X164.73 Y174.07 E244.70606
G0 F12000 X165.30 Y174.07
G1 F1800 X170.59 Y179.35 E245.01695
G0 F12000 X171.15 Y179.35
G1 F1800 X165.86 Y174.07 E245.32783
G0 F12000 X166.43 Y174.07
G1 F1800 X171.72 Y179.35 E245.63872
G0 F12000 X172.28 Y179.35
G1 F1800 X167.00 Y174.07 E245.94960
G0 F12000 X167.56 Y174.07
G1 F1800 X172.85 Y179.35 E246.26049
G0 F12000 X173.41 Y179.35
G1 F1800 X168.13 Y174.07 E246.57137
G0 F12000 X168.69 Y174.07
G1 F1800 X177.43 Y182.81 E247.08531
G0 F12000 X176.93 Y182.86
G1 F1800 X173.53 Y179.47 E247.28472
G0 F12000 X173.53 Y180.04
G1 F1800 X176.50 Y183.00 E247.45896
G0 F12000 X176.12 Y183.19
G1 F1800 X173.53 Y180.60 E247.61118
G0 F12000 X173.53 Y181.17
G1 F1800 X175.80 Y183.44 E247.74459
G0 F12000 X175.54 Y183.75
G1 F1800 X173.53 Y181.74 E247.86271
G0 F12000 X173.53 Y182.30
G1 F1800 X175.32 Y184.09 E247.96775
G0 F12000 X175.16 Y184.49
G1 F1800 X173.53 Y182.87 E248.06312
G0 F12000 X173.53 Y183.43
G1 F1800 X175.08 Y184.98 E248.15393
G0 F12000 X175.12 Y185.58
G1 F1800 X173.53 Y184.00 E248.24691
G0 F12000 X173.53 Y184.56
G1 F1800 X175.69 Y186.72 E248.37344
G0 F12000 X175.81 Y186.84
G1 F1800 X181.29 Y192.32 E248.69535
G0 F12000 X181.29 Y192.88
G1 F1800 X173.53 Y185.13 E249.15123
G0 F12000 X173.53 Y185.70
G1 F1800 X181.29 Y193.45 E249.60711
G0 F12000 X181.29 Y194.01
G1 F1800 X173.53 Y186.26 E250.06301
G0 F12000 X173.53 Y186.83
G1 F1800 X181.29 Y194.58 E250.51889
G0 F12000 X181.29 Y195.15
G1 F1800 X173.53 Y187.39 E250.97476
G0 F12000 X173.53 Y190.22
G1 F1800 X176.39 Y193.08 E251.14280
G0 F12000 X176.04 Y193.29
G1 F1800 X173.53 Y190.79 E251.29003
G0 F12000 X173.53 Y191.35
G1 F1800 X175.72 Y193.54 E251.41879
G0 F12000 X175.48 Y193.86
G1 F1800 X173.53 Y191.92 E251.53309
G0 F12000 X173.53 Y192.48
G1 F1800 X175.28 Y194.23 E251.63557
G0 F12000 X175.13 Y194.64
G1 F1800 X173.53 Y193.05 E251.72921
G0 F12000 X173.53 Y193.62
G1 F1800 X175.06 Y195.14 E251.81905
G0 F12000 X175.84 Y193.62
G0 X177.39 Y192.98
G0 X181.29 Y191.75
G1 F1800 X176.95 Y187.41 E252.07416
G0 F12000 X177.55 Y187.45
G1 F1800 X181.29 Y191.19 E252.29385
G0 F12000 X181.29 Y190.62
G1 F1800 X178.04 Y187.37 E252.48471
G0 F12000 X178.44 Y187.21
G1 F1800 X181.29 Y190.05 E252.65210
G0 F12000 X181.29 Y189.49
G1 F1800 X178.78 Y186.99 E252.79930
G0 F12000 X179.09 Y186.72
G1 F1800 X181.29 Y188.92 E252.92853
G0 F12000 X181.29 Y188.36
G1 F1800 X179.34 Y186.41 E253.04324
G0 F12000 X179.53 Y186.03
G1 F1800 X181.29 Y187.79 E253.14672
G0 F12000 X181.29 Y187.23
G1 F1800 X179.66 Y185.60 E253.24206
G0 F12000 X179.72 Y185.09
G1 F1800 X181.29 Y186.66 E253.33414
G0 F12000 X181.29 Y186.09
G1 F1800 X179.59 Y184.40 E253.43377
G0 F12000 X181.29 Y184.40
G1 F1800 X170.96 Y174.07 E254.04116
G0 F12000 X170.39 Y174.07
G1 F1800 X181.29 Y184.96 E254.68180
G0 F12000 X181.29 Y185.53
G1 F1800 X169.82 Y174.07 E255.35572
G0 F12000 X169.26 Y174.07
G1 F1800 X178.13 Y182.94 E255.87736
G0 F12000 X181.29 Y182.70
G1 F1800 X172.65 Y174.07 E256.38498
G0 F12000 X172.09 Y174.07
G1 F1800 X181.29 Y183.27 E256.92585
G0 F12000 X181.29 Y183.83
G1 F1800 X171.52 Y174.07 E257.49999
G0 F12000 X173.22 Y174.07
G1 F1800 X181.29 Y182.13 E257.97436
G0 F12000 X181.29 Y181.57
G1 F1800 X173.78 Y174.07 E258.41545
G0 F12000 X174.35 Y174.07
G1 F1800 X181.29 Y181.00 E258.82329
G0 F12000 X181.29 Y180.44
G1 F1800 X174.91 Y174.07 E259.19788
G0 F12000 X175.48 Y174.07
G1 F1800 X181.29 Y179.87 E259.53919
G0 F12000 X181.29 Y179.31
G1 F1800 X176.05 Y174.07 E259.84725
G0 F12000 X176.61 Y174.07
G1 F1800 X181.29 Y178.74 E260.12206
G0 F12000 X181.29 Y178.18
G1 F1800 X177.18 Y174.07 E260.36360
G0 F12000 X177.74 Y174.07
G1 F1800 X181.29 Y177.61 E260.57186
G0 F12000 X181.29 Y177.04
G1 F1800 X178.31 Y174.07 E260.74686
G0 F12000 X178.88 Y174.07
G1 F1800 X181.29 Y176.48 E260.88862
G0 F12000 X181.29 Y175.91
G1 F1800 X179.44 Y174.07 E260.99710
G0 F12000 X180.01 Y174.07
G1 F1800 X181.29 Y175.35 E261.07233
G0 F12000 X181.63 Y175.13
G1 F1800 X180.57 Y174.07 E261.13465
G0 F12000 X181.14 Y174.07
G1 F1800 X182.20 Y175.13 E261.19698
G0 F12000 X182.76 Y175.13
G1 F1800 X181.70 Y174.07 E261.25930
G0 F12000 X182.27 Y174.07
G1 F1800 X183.33 Y175.13 E261.32162
G0 F12000 X183.90 Y175.13
G1 F1800 X182.84 Y174.07 E261.38395
G0 F12000 X183.40 Y174.07
G1 F1800 X184.46 Y175.13 E261.44627
G0 F12000 X185.03 Y175.13
G1 F1800 X183.97 Y174.07 E261.50860
G0 F12000 X184.53 Y174.07
G1 F1800 X185.59 Y175.13 E261.57092
G0 F12000 X186.16 Y175.13
G1 F1800 X185.10 Y174.07 E261.63324
G0 F12000 X185.66 Y174.07
G1 F1800 X186.72 Y175.13 E261.69557
G0 F12000 X187.29 Y175.13
G1 F1800 X186.23 Y174.07 E261.75789
G0 F12000 X186.79 Y174.07
G1 F1800 X187.64 Y174.91 E261.80737
G0 F12000 X187.64 Y174.34
G1 F1800 X187.36 Y174.07 E261.82357
G0 F12000 X123.37 Y175.13
G1 F1800 X122.31 Y174.07 E261.88586
G0 F12000 X121.74 Y174.07
G1 F1800 X122.80 Y175.13 E261.94813
G0 F12000 X122.23 Y175.13
G1 F1800 X121.17 Y174.07 E262.01039
G0 F12000 X120.61 Y174.07
G1 F1800 X121.67 Y175.13 E262.07269
G0 F12000 X121.10 Y175.13
G1 F1800 X120.04 Y174.07 E262.13495
G0 F12000 X119.48 Y174.07
G1 F1800 X120.54 Y175.13 E262.19722
G0 F12000 X119.97 Y175.13
G1 F1800 X118.91 Y174.07 E262.25948
G0 F12000 X118.35 Y174.07
G1 F1800 X119.41 Y175.13 E262.32175
G0 F12000 X118.84 Y175.13
G1 F1800 X117.78 Y174.07 E262.38401
G0 F12000 X117.36 Y174.21
G1 F1800 X118.27 Y175.13 E262.43763
G0 F12000 X117.71 Y175.13
G1 F1800 X117.36 Y174.78 E262.45804
;LAYER:1
G0 F12000 X117.22 Y175.27 Z0.40
;TYPE:WALL-INNER
G1 F2820 X117.22 Y173.93 E262.49146
G1 X187.78 Y173.93 E264.25144
G1 X187.78 Y175.27 E264.28487
G1 X181.43 Y175.27 E264.44327
G1 X181.43 Y206.38 E265.21943
G1 X123.57 Y206.38 E266.66261
G1 X123.57 Y175.27 E267.43878
G1 X117.22 Y175.27 E267.59718
G0 F12000 X123.51 Y175.33
G0 X126.06 Y183.59
G1 F2820 X125.71 Y184.04 E267.61145
G1 X125.49 Y184.57 E267.62574
G1 X125.42 Y185.14 E267.64003
G1 X125.49 Y185.71 E267.65431
G1 X125.71 Y186.24 E267.66861
G1 X126.06 Y186.69 E267.68288
G1 X126.51 Y187.04 E267.69716
G1 X127.04 Y187.26 E267.71145
G1 X127.61 Y187.33 E267.72569
G1 X128.18 Y187.26 E267.73995
G1 X128.70 Y187.04 E267.75423
G1 X129.16 Y186.69 E267.76852
G1 X129.51 Y186.24 E267.78279
G1 X129.73 Y185.71 E267.79708
G1 X129.80 Y185.14 E267.81137
G1 X129.73 Y184.57 E267.82566
G1 X129.51 Y184.04 E267.83995
G1 X129.16 Y183.59 E267.85422
G1 X128.70 Y183.24 E267.86851
G1 X128.18 Y183.02 E267.88276
G1 X127.61 Y182.94 E267.89705
G1 X127.04 Y183.02 E267.91132
G1 X126.51 Y183.24 E267.92557
G1 X126.06 Y183.59 E267.93986
G0 F12000 X131.61 Y179.50
G1 F2820 X131.61 Y200.81 E268.47162
G1 X173.39 Y200.81 E269.51402
G1 X173.39 Y179.50 E270.04578
G1 X131.61 Y179.50 E271.08818
G0 F12000 X128.18 Y193.05
G1 F2820 X127.61 Y192.98 E271.10248
G1 X127.04 Y193.05 E271.11675
G1 X126.51 Y193.27 E271.13100
G1 X126.06 Y193.62 E271.14529
G1 X125.71 Y194.07 E271.15956
G1 X125.49 Y194.60 E271.17385
G1 X125.42 Y195.17 E271.18814
G1 X125.49 Y195.74 E271.20243
G1 X125.71 Y196.27 E271.21672
G1 X126.06 Y196.72 E271.23099
G1 X126.51 Y197.07 E271.24528
G1 X127.04 Y197.29 E271.25956
G1 X127.61 Y197.36 E271.27380
G1 X128.18 Y197.29 E271.28806
G1 X128.70 Y197.07 E271.30234
G1 X129.16 Y196.72 E271.31663
G1 X129.51 Y196.27 E271.33090
G1 X129.73 Y195.74 E271.34519
G1 X129.80 Y195.17 E271.35948
G1 X129.73 Y194.60 E271.37377
G1 X129.51 Y194.07 E271.38806
G1 X129.16 Y193.62 E271.40233
G1 X128.70 Y193.27 E271.41662
G1 X128.18 Y193.05 E271.43087
G0 F12000 X131.66 Y179.56
G0 X173.34 Y179.56
G0 X175.20 Y195.17
G1 F2820 X175.27 Y195.74 E271.44516
G1 X175.49 Y196.27 E271.45945
G1 X175.84 Y196.72 E271.47372
G1 X176.30 Y197.07 E271.48801
G1 X176.82 Y197.29 E271.50229
G1 X177.39 Y197.36 E271.51656
G1 X177.96 Y197.29 E271.53079
G1 X178.49 Y197.07 E271.54508
G1 X178.94 Y196.72 E271.55937
G1 X179.29 Y196.27 E271.57364
G1 X179.51 Y195.74 E271.58793
G1 X179.58 Y195.17 E271.60222
G1 X179.51 Y194.60 E271.61650
G1 X179.29 Y194.07 E271.63080
G1 X178.94 Y193.62 E271.64506
G1 X178.49 Y193.27 E271.65935
G1 X177.96 Y193.05 E271.67360
G1 X177.39 Y192.98 E271.68787
G1 X176.82 Y193.05 E271.70217
G1 X176.30 Y193.27 E271.71642
G1 X175.84 Y193.62 E271.73071
G1 X175.49 Y194.07 E271.74498
G1 X175.27 Y194.60 E271.75927
G1 X175.20 Y195.17 E271.77356
G0 F12000 X176.82 Y187.26
G1 F2820 X177.39 Y187.33 E271.78782
G1 X177.96 Y187.26 E271.80206
G1 X178.49 Y187.04 E271.81634
G1 X178.94 Y186.69 E271.83063
G1 X179.29 Y186.24 E271.84490
G1 X179.51 Y185.71 E271.85919
G1 X179.58 Y185.14 E271.87348
G1 X179.51 Y184.57 E271.88777
G1 X179.29 Y184.04 E271.90206
G1 X178.94 Y183.59 E271.91633
G1 X178.49 Y183.24 E271.93062
G1 X177.96 Y183.02 E271.94487
G1 X177.39 Y182.94 E271.95914
G1 X176.82 Y183.02 E271.97343
G1 X176.30 Y183.24 E271.98768
G1 X175.84 Y183.59 E272.00197
G1 X175.49 Y184.04 E272.01624
G1 X175.27 Y184.57 E272.03053
G1 X175.20 Y185.14 E272.04482
G1 X175.27 Y185.71 E272.05911
G1 X175.49 Y186.24 E272.07340
G1 X175.84 Y186.69 E272.08767
G1 X176.30 Y187.04 E272.10196
G1 X176.82 Y187.26 E272.11624
G0 F12000 X176.93 Y186.87
;TYPE:WALL-OUTER
G1 F2820 X177.39 Y186.93 E272.12789
G1 X177.85 Y186.87 E272.13952
G1 X178.29 Y186.69 E272.15117
G1 X178.66 Y186.40 E272.16283
G1 X178.94 Y186.03 E272.17448
G1 X179.12 Y185.60 E272.18615
G1 X179.18 Y185.14 E272.19780
G1 X179.12 Y184.68 E272.20945
G1 X178.94 Y184.24 E272.22111
G1 X178.66 Y183.87 E272.23277
G1 X178.29 Y183.59 E272.24442
G1 X177.85 Y183.41 E272.25608
G1 X177.39 Y183.35 E272.26770
G1 X176.93 Y183.41 E272.27936
G1 X176.50 Y183.59 E272.29101
G1 X176.13 Y183.87 E272.30267
G1 X175.84 Y184.24 E272.31432
G1 X175.66 Y184.68 E272.32599
G1 X175.60 Y185.14 E272.33764
G1 X175.66 Y185.60 E272.34929
G1 X175.84 Y186.03 E272.36095
G1 X176.13 Y186.40 E272.37260
G1 X176.50 Y186.69 E272.38426
G1 X176.93 Y186.87 E272.39592
G0 F12000 X176.89 Y187.16
G0 X177.43 Y193.08
G0 X177.39 Y193.38
G1 F2820 X176.93 Y193.44 E272.40757
G1 X176.50 Y193.62 E272.41922
G1 X176.13 Y193.91 E272.43088
G1 X175.84 Y194.28 E272.44253
G1 X175.66 Y194.71 E272.45420
G1 X175.60 Y195.17 E272.46585
G1 X175.66 Y195.63 E272.47750
G1 X175.84 Y196.07 E272.48916
G1 X176.13 Y196.44 E272.50082
G1 X176.50 Y196.72 E272.51247
G1 X176.93 Y196.90 E272.52413
G1 X177.39 Y196.96 E272.53578
G1 X177.85 Y196.90 E272.54740
G1 X178.29 Y196.72 E272.55906
G1 X178.66 Y196.44 E272.57071
G1 X178.94 Y196.07 E272.58237
G1 X179.12 Y195.63 E272.59403
G1 X179.18 Y195.17 E272.60568
G1 X179.12 Y194.71 E272.61733
G1 X178.94 Y194.28 E272.62899
G1 X178.66 Y193.91 E272.64065
G1 X178.29 Y193.62 E272.65230
G1 X177.85 Y193.44 E272.66396
G1 X177.39 Y193.38 E272.67559
G0 F12000 X177.43 Y193.08
G0 X176.30 Y193.27
G0 X175.28 Y194.60
G0 X173.34 Y200.75
G0 X172.99 Y200.71
G0 X172.99 Y200.41
G1 F2820 X172.99 Y179.90 E273.18739
G1 X132.01 Y179.90 E274.20983
G1 X132.01 Y200.41 E274.72163
G1 X172.99 Y200.41 E275.74408
G0 F12000 X172.99 Y200.71
G0 X181.53 Y206.57
G0 X181.83 Y206.78
G1 F2820 X123.17 Y206.78 E277.20721
G1 X123.17 Y175.67 E277.98338
G1 X116.82 Y175.67 E278.14178
G1 X116.82 Y173.53 E278.19516
G1 X188.18 Y173.53 E279.97510
G1 X188.18 Y175.67 E280.02848
G1 X181.83 Y175.67 E280.18688
G1 X181.83 Y206.78 E280.96305
G0 F12000 X181.53 Y206.57
G0 X131.66 Y200.75
G0 X129.63 Y185.64
G0 X129.34 Y185.60
G1 F2820 X129.40 Y185.14 E280.97470
G1 X129.34 Y184.68 E280.98635
G1 X129.16 Y184.24 E280.99801
G1 X128.87 Y183.87 E281.00967
G1 X128.50 Y183.59 E281.02132
G1 X128.07 Y183.41 E281.03298
G1 X127.61 Y183.35 E281.04463
G1 X127.15 Y183.41 E281.05626
G1 X126.71 Y183.59 E281.06791
G1 X126.34 Y183.87 E281.07957
G1 X126.06 Y184.24 E281.09122
G1 X125.88 Y184.68 E281.10289
G1 X125.82 Y185.14 E281.11454
G1 X125.88 Y185.60 E281.12619
G1 X126.06 Y186.03 E281.13785
G1 X126.34 Y186.40 E281.14950
G1 X126.71 Y186.69 E281.16116
G1 X127.15 Y186.87 E281.17282
G1 X127.61 Y186.93 E281.18444
G1 X128.07 Y186.87 E281.19609
G1 X128.50 Y186.69 E281.20774
G1 X128.87 Y186.40 E281.21940
G1 X129.16 Y186.03 E281.23105
G1 X129.34 Y185.60 E281.24272
G0 F12000 X129.63 Y185.64
G0 X128.11 Y193.15
G0 X128.07 Y193.44
G1 F2820 X127.61 Y193.38 E281.25437
G1 X127.15 Y193.44 E281.26600
G1 X126.71 Y193.62 E281.27765
G1 X126.34 Y193.91 E281.28931
G1 X126.06 Y194.28 E281.30096
G1 X125.88 Y194.71 E281.31263
G1 X125.82 Y195.17 E281.32428
G1 X125.88 Y195.63 E281.33593
G1 X126.06 Y196.07 E281.34759
G1 X126.34 Y196.44 E281.35925
G1 X126.71 Y196.72 E281.37090
G1 X127.15 Y196.90 E281.38256
G1 X127.61 Y196.96 E281.39418
G1 X128.07 Y196.90 E281.40583
G1 X128.50 Y196.72 E281.41749
G1 X128.87 Y196.44 E281.42914
G1 X129.16 Y196.07 E281.44080
G1 X129.34 Y195.63 E281.45246
G1 X129.40 Y195.17 E281.46411
G1 X129.34 Y194.71 E281.47576
G1 X129.16 Y194.28 E281.48743
G1 X128.87 Y193.91 E281.49908
G1 X128.50 Y193.62 E281.51073
G1 X128.07 Y193.44 E281.52239
G0 F12000 X128.12 Y192.91
;TYPE:FILL
G1 F2820 X131.47 Y189.56 E281.64038
G0 F12000 X131.47 Y190.13
G1 F2820 X128.54 Y193.05 E281.74360
G0 F12000 X128.91 Y193.25
G1 F2820 X131.47 Y190.69 E281.83386
G0 F12000 X131.47 Y191.26
G1 F2820 X129.23 Y193.50 E281.91283
G0 F12000 X129.48 Y193.81
G1 F2820 X131.47 Y191.82 E281.98283
G0 F12000 X131.47 Y192.39
G1 F2820 X129.70 Y194.16 E282.04526
G0 F12000 X129.86 Y194.56
G1 F2820 X131.47 Y192.95 E282.10186
G0 F12000 X131.47 Y193.52
G1 F2820 X129.93 Y195.06 E282.15608
G0 F12000 X129.88 Y195.67
G1 F2820 X131.47 Y194.09 E282.21212
G0 F12000 X131.47 Y194.65
G1 F2820 X123.71 Y202.40 E282.48561
G0 F12000 X123.71 Y202.97
G1 F2820 X131.47 Y195.22 E282.75910
G0 F12000 X131.47 Y195.78
G1 F2820 X123.71 Y203.53 E283.03258
G0 F12000 X123.71 Y204.10
G1 F2820 X131.47 Y196.35 E283.30607
G0 F12000 X131.47 Y196.91
G1 F2820 X123.71 Y204.67 E283.57956
G0 F12000 X123.71 Y205.23
G1 F2820 X131.47 Y197.48 E283.85303
G0 F12000 X131.47 Y198.04
G1 F2820 X123.71 Y205.80 E284.12652
G0 F12000 X123.84 Y206.24
G1 F2820 X131.47 Y198.61 E284.39567
G0 F12000 X131.47 Y199.18
G1 F2820 X124.40 Y206.24 E284.64485
G0 F12000 X124.97 Y206.24
G1 F2820 X131.47 Y199.74 E284.87411
G0 F12000 X131.47 Y200.31
G1 F2820 X125.53 Y206.24 E285.08339
G0 F12000 X126.10 Y206.24
G1 F2820 X131.47 Y200.87 E285.27271
G0 F12000 X131.95 Y200.95
G1 F2820 X126.66 Y206.24 E285.45931
G0 F12000 X127.23 Y206.24
G1 F2820 X132.52 Y200.95 E285.64591
G0 F12000 X133.09 Y200.95
G1 F2820 X127.80 Y206.24 E285.83251
G0 F12000 X128.36 Y206.24
G1 F2820 X133.65 Y200.95 E286.01912
G0 F12000 X134.22 Y200.95
G1 F2820 X128.93 Y206.24 E286.20572
G0 F12000 X129.49 Y206.24
G1 F2820 X134.78 Y200.95 E286.39232
G0 F12000 X135.35 Y200.95
G1 F2820 X130.06 Y206.24 E286.57894
G0 F12000 X130.62 Y206.24
G1 F2820 X135.91 Y200.95 E286.76554
G0 F12000 X136.48 Y200.95
G1 F2820 X131.19 Y206.24 E286.95214
G0 F12000 X131.75 Y206.24
G1 F2820 X137.04 Y200.95 E287.13876
G0 F12000 X137.61 Y200.95
G1 F2820 X132.32 Y206.24 E287.32536
G0 F12000 X132.89 Y206.24
G1 F2820 X138.18 Y200.95 E287.51196
G0 F12000 X138.74 Y200.95
G1 F2820 X133.45 Y206.24 E287.69858
G0 F12000 X134.02 Y206.24
G1 F2820 X139.31 Y200.95 E287.88518
G0 F12000 X139.87 Y200.95
G1 F2820 X134.58 Y206.24 E288.07178
G0 F12000 X135.15 Y206.24
G1 F2820 X140.44 Y200.95 E288.25838
G0 F12000 X141.00 Y200.95
G1 F2820 X135.72 Y206.24 E288.44499
G0 F12000 X136.28 Y206.24
G1 F2820 X141.57 Y200.95 E288.63159
G0 F12000 X142.14 Y200.95
G1 F2820 X136.85 Y206.24 E288.81819
G0 F12000 X137.41 Y206.24
G1 F2820 X142.70 Y200.95 E289.00479
G0 F12000 X143.27 Y200.95
G1 F2820 X137.98 Y206.24 E289.19139
G0 F12000 X138.54 Y206.24
G1 F2820 X143.83 Y200.95 E289.37799
G0 F12000 X144.40 Y200.95
G1 F2820 X139.11 Y206.24 E289.56459
G0 F12000 X139.68 Y206.24
G1 F2820 X144.96 Y200.95 E289.75120
G0 F12000 X145.53 Y200.95
G1 F2820 X140.24 Y206.24 E289.93780
G0 F12000 X140.81 Y206.24
G1 F2820 X146.10 Y200.95 E290.12442
G0 F12000 X146.66 Y200.95
G1 F2820 X141.37 Y206.24 E290.31102
G0 F12000 X141.94 Y206.24
G1 F2820 X147.23 Y200.95 E290.49762
G0 F12000 X147.79 Y200.95
G1 F2820 X142.50 Y206.24 E290.68424
G0 F12000 X143.07 Y206.24
G1 F2820 X148.36 Y200.95 E290.87084
G0 F12000 X148.92 Y200.95
G1 F2820 X143.63 Y206.24 E291.05744
G0 F12000 X144.20 Y206.24
G1 F2820 X149.49 Y200.95 E291.24406
G0 F12000 X150.06 Y200.95
G1 F2820 X144.77 Y206.24 E291.43066
G0 F12000 X145.33 Y206.24
G1 F2820 X150.62 Y200.95 E291.61726
G0 F12000 X151.19 Y200.95
G1 F2820 X145.90 Y206.24 E291.80386
G0 F12000 X146.46 Y206.24
G1 F2820 X151.75 Y200.95 E291.99047
G0 F12000 X152.32 Y200.95
G1 F2820 X147.03 Y206.24 E292.17707
G0 F12000 X147.59 Y206.24
G1 F2820 X152.88 Y200.95 E292.36367
G0 F12000 X153.45 Y200.95
G1 F2820 X148.16 Y206.24 E292.55027
G0 F12000 X148.73 Y206.24
G1 F2820 X154.01 Y200.95 E292.73687
G0 F12000 X154.58 Y200.95
G1 F2820 X149.29 Y206.24 E292.92347
G0 F12000 X149.86 Y206.24
G1 F2820 X155.15 Y200.95 E293.11009
G0 F12000 X155.71 Y200.95
G1 F2820 X150.42 Y206.24 E293.29669
G0 F12000 X150.99 Y206.24
G1 F2820 X156.28 Y200.95 E293.48329
G0 F12000 X156.84 Y200.95
G1 F2820 X151.55 Y206.24 E293.66991
G0 F12000 X152.12 Y206.24
G1 F2820 X157.41 Y200.95 E293.85652
G0 F12000 X157.97 Y200.95
G1 F2820 X152.69 Y206.24 E294.04312
G0 F12000 X153.25 Y206.24
G1 F2820 X158.54 Y200.95 E294.22974
G0 F12000 X159.11 Y200.95
G1 F2820 X153.82 Y206.24 E294.41634
G0 F12000 X154.38 Y206.24
G1 F2820 X159.67 Y200.95 E294.60294
G0 F12000 X160.24 Y200.95
G1 F2820 X154.95 Y206.24 E294.78954
G0 F12000 X155.51 Y206.24
G1 F2820 X160.80 Y200.95 E294.97614
G0 F12000 X161.37 Y200.95
G1 F2820 X156.08 Y206.24 E295.16274
G0 F12000 X156.65 Y206.24
G1 F2820 X161.94 Y200.95 E295.34934
G0 F12000 X162.50 Y200.95
G1 F2820 X157.21 Y206.24 E295.53595
G0 F12000 X157.78 Y206.24
G1 F2820 X163.07 Y200.95 E295.72255
G0 F12000 X163.63 Y200.95
G1 F2820 X158.34 Y206.24 E295.90915
G0 F12000 X158.91 Y206.24
G1 F2820 X164.20 Y200.95 E296.09575
G0 F12000 X164.76 Y200.95
G1 F2820 X159.47 Y206.24 E296.28235
G0 F12000 X160.04 Y206.24
G1 F2820 X165.33 Y200.95 E296.46895
G0 F12000 X165.90 Y200.95
G1 F2820 X160.60 Y206.24 E296.65557
G0 F12000 X161.17 Y206.24
G1 F2820 X166.46 Y200.95 E296.84217
G0 F12000 X167.03 Y200.95
G1 F2820 X161.74 Y206.24 E297.02877
G0 F12000 X162.30 Y206.24
G1 F2820 X167.59 Y200.95 E297.21539
G0 F12000 X168.16 Y200.95
G1 F2820 X162.87 Y206.24 E297.40199
G0 F12000 X163.43 Y206.24
G1 F2820 X168.72 Y200.95 E297.58860
G0 F12000 X169.29 Y200.95
G1 F2820 X164.00 Y206.24 E297.77521
G0 F12000 X164.56 Y206.24
G1 F2820 X169.85 Y200.95 E297.96182
G0 F12000 X170.42 Y200.95
G1 F2820 X165.13 Y206.24 E298.14842
G0 F12000 X165.70 Y206.24
G1 F2820 X170.99 Y200.95 E298.33502
G0 F12000 X171.55 Y200.95
G1 F2820 X166.26 Y206.24 E298.52162
G0 F12000 X166.83 Y206.24
G1 F2820 X172.12 Y200.95 E298.70822
G0 F12000 X172.68 Y200.95
G1 F2820 X167.39 Y206.24 E298.89482
G0 F12000 X167.96 Y206.24
G1 F2820 X173.25 Y200.95 E299.08142
G0 F12000 X173.53 Y200.67
G1 F2820 X176.78 Y197.42 E299.19597
G0 F12000 X176.38 Y197.25
G1 F2820 X173.53 Y200.10 E299.29639
G0 F12000 X173.53 Y199.53
G1 F2820 X176.03 Y197.04 E299.38441
G0 F12000 X175.72 Y196.79
G1 F2820 X173.53 Y198.97 E299.46137
G0 F12000 X173.53 Y198.40
G1 F2820 X175.47 Y196.47 E299.52966
G0 F12000 X175.27 Y196.10
G1 F2820 X173.53 Y197.84 E299.59096
G0 F12000 X173.53 Y197.27
G1 F2820 X175.12 Y195.68 E299.64707
G0 F12000 X175.06 Y195.18
G1 F2820 X173.53 Y196.71 E299.70087
G0 F12000 X173.53 Y196.14
G1 F2820 X175.15 Y194.52 E299.75805
G0 F12000 X173.53 Y194.44
G1 F2820 X181.28 Y186.69 E300.03152
G0 F12000 X181.28 Y187.26
G1 F2820 X173.53 Y195.01 E300.30500
G0 F12000 X173.53 Y195.57
G1 F2820 X181.28 Y187.82 E300.57847
G0 F12000 X181.28 Y188.39
G1 F2820 X176.74 Y192.94 E300.73886
G0 F12000 X177.40 Y192.84
G1 F2820 X181.28 Y188.96 E300.87581
G0 F12000 X181.28 Y189.52
G1 F2820 X177.90 Y192.90 E300.99517
G0 F12000 X178.32 Y193.05
G1 F2820 X181.28 Y190.09 E301.09975
G0 F12000 X181.28 Y190.65
G1 F2820 X178.69 Y193.25 E301.19137
G0 F12000 X179.01 Y193.49
G1 F2820 X181.29 Y191.22 E301.27169
G0 F12000 X181.29 Y191.78
G1 F2820 X179.26 Y193.81 E301.34306
G0 F12000 X179.48 Y194.16
G1 F2820 X181.29 Y192.35 E301.40688
G0 F12000 X181.29 Y192.91
G1 F2820 X179.64 Y194.56 E301.46484
G0 F12000 X179.71 Y195.06
G1 F2820 X181.29 Y193.48 E301.52042
G0 F12000 X181.29 Y194.04
G1 F2820 X179.66 Y195.67 E301.57778
G0 F12000 X181.29 Y195.74
G1 F2820 X170.79 Y206.24 E301.94814
G0 F12000 X171.35 Y206.24
G1 F2820 X181.29 Y196.31 E302.29856
G0 F12000 X181.29 Y196.87
G1 F2820 X171.92 Y206.24 E302.62900
G0 F12000 X172.49 Y206.24
G1 F2820 X181.29 Y197.44 E302.93950
G0 F12000 X181.29 Y198.00
G1 F2820 X173.05 Y206.24 E303.23005
G0 F12000 X173.62 Y206.24
G1 F2820 X181.29 Y198.57 E303.50063
G0 F12000 X181.29 Y199.14
G1 F2820 X174.18 Y206.24 E303.75126
G0 F12000 X174.75 Y206.24
G1 F2820 X181.29 Y199.70 E303.98192
G0 F12000 X181.29 Y200.27
G1 F2820 X175.31 Y206.24 E304.19263
G0 F12000 X175.88 Y206.24
G1 F2820 X181.29 Y200.83 E304.38340
G0 F12000 X181.29 Y201.40
G1 F2820 X176.44 Y206.24 E304.55420
G0 F12000 X177.01 Y206.24
G1 F2820 X181.29 Y201.97 E304.70504
G0 F12000 X181.29 Y202.53
G1 F2820 X177.58 Y206.24 E304.83594
G0 F12000 X178.14 Y206.24
G1 F2820 X181.29 Y203.10 E304.94687
G0 F12000 X181.29 Y203.66
G1 F2820 X178.71 Y206.24 E305.03785
G0 F12000 X179.27 Y206.24
G1 F2820 X181.29 Y204.23 E305.10888
G0 F12000 X181.29 Y204.79
G1 F2820 X179.84 Y206.24 E305.15995
G0 F12000 X180.40 Y206.24
G1 F2820 X181.29 Y205.36 E305.19106
G0 F12000 X181.29 Y205.93
G1 F2820 X180.97 Y206.24 E305.20221
G0 F12000 X177.89 Y197.44
G1 F2820 X169.09 Y206.24 E305.51274
G0 F12000 X169.66 Y206.24
G1 F2820 X181.29 Y194.61 E305.92302
G0 F12000 X181.29 Y195.18
G1 F2820 X170.22 Y206.24 E306.31334
G0 F12000 X168.53 Y206.24
G1 F2820 X177.28 Y197.49 E306.62209
G0 F12000 X175.84 Y196.72
G0 X173.53 Y193.88
G1 F2820 X181.28 Y186.13 E306.89556
G0 F12000 X181.28 Y185.56
G1 F2820 X173.53 Y193.31 E307.16903
G0 F12000 X173.53 Y192.75
G1 F2820 X181.28 Y185.00 E307.44250
G0 F12000 X181.28 Y184.43
G1 F2820 X179.42 Y186.30 E307.50846
G0 F12000 X179.68 Y185.47
G1 F2820 X181.28 Y183.86 E307.56497
G0 F12000 X181.28 Y183.30
G1 F2820 X179.69 Y184.89 E307.62112
G0 F12000 X179.60 Y184.42
G1 F2820 X181.28 Y182.73 E307.68058
G0 F12000 X181.28 Y182.17
G1 F2820 X179.43 Y184.02 E307.74589
G0 F12000 X179.20 Y183.69
G1 F2820 X181.28 Y181.60 E307.81955
G0 F12000 X181.28 Y181.03
G1 F2820 X178.92 Y183.40 E307.90286
G0 F12000 X178.60 Y183.15
G1 F2820 X181.28 Y180.47 E307.99748
G0 F12000 X181.28 Y179.90
G1 F2820 X178.22 Y182.97 E308.10578
G0 F12000 X177.77 Y182.85
G1 F2820 X181.28 Y179.34 E308.22978
G0 F12000 X181.28 Y178.77
G1 F2820 X177.23 Y182.82 E308.37269
G0 F12000 X176.48 Y183.01
G1 F2820 X181.28 Y178.21 E308.54209
G0 F12000 X181.28 Y177.64
G1 F2820 X173.53 Y185.39 E308.81557
G0 F12000 X173.53 Y185.96
G1 F2820 X175.26 Y184.23 E308.87645
G0 F12000 X175.08 Y184.98
G1 F2820 X173.53 Y186.52 E308.93089
G0 F12000 X173.53 Y187.09
G1 F2820 X175.11 Y185.52 E308.98638
G0 F12000 X175.23 Y185.96
G1 F2820 X173.53 Y187.66 E309.04614
G0 F12000 X173.53 Y188.22
G1 F2820 X175.40 Y186.35 E309.11215
G0 F12000 X175.65 Y186.67
G1 F2820 X173.53 Y188.79 E309.18681
G0 F12000 X173.53 Y189.35
G1 F2820 X175.94 Y186.94 E309.27183
G0 F12000 X176.27 Y187.18
G1 F2820 X173.53 Y189.92 E309.36849
G0 F12000 X173.53 Y190.48
G1 F2820 X176.67 Y187.34 E309.47928
G0 F12000 X177.15 Y187.44
G1 F2820 X173.53 Y191.05 E309.60670
G0 F12000 X173.53 Y191.62
G1 F2820 X177.72 Y187.43 E309.75448
G0 F12000 X178.56 Y187.16
G1 F2820 X173.53 Y192.18 E309.93166
G0 F12000 X173.53 Y184.83
G1 F2820 X181.28 Y177.07 E310.20514
G0 F12000 X181.28 Y176.51
G1 F2820 X173.53 Y184.26 E310.47861
G0 F12000 X173.53 Y183.70
G1 F2820 X181.28 Y175.94 E310.75208
G0 F12000 X181.28 Y175.38
G1 F2820 X173.53 Y183.13 E311.02555
G0 F12000 X173.53 Y182.56
G1 F2820 X182.03 Y174.07 E311.32538
G0 F12000 X182.60 Y174.07
G1 F2820 X181.54 Y175.13 E311.36281
G0 F12000 X182.10 Y175.13
G1 F2820 X183.16 Y174.07 E311.40022
G0 F12000 X183.73 Y174.07
G1 F2820 X182.67 Y175.13 E311.43763
G0 F12000 X183.23 Y175.13
G1 F2820 X184.29 Y174.07 E311.47506
G0 F12000 X184.86 Y174.07
G1 F2820 X183.80 Y175.13 E311.51249
G0 F12000 X184.37 Y175.13
G1 F2820 X185.43 Y174.07 E311.54990
G0 F12000 X185.99 Y174.07
G1 F2820 X184.93 Y175.13 E311.58733
G0 F12000 X185.50 Y175.13
G1 F2820 X186.56 Y174.07 E311.62476
G0 F12000 X187.12 Y174.07
G1 F2820 X186.06 Y175.13 E311.66218
G0 F12000 X186.63 Y175.13
G1 F2820 X187.63 Y174.12 E311.69770
G0 F12000 X187.63 Y174.69
G1 F2820 X187.19 Y175.13 E311.71328
G0 F12000 X181.47 Y174.07
G1 F2820 X173.53 Y182.00 E311.99313
G0 F12000 X173.53 Y181.43
G1 F2820 X180.90 Y174.07 E312.25304
G0 F12000 X180.34 Y174.07
G1 F2820 X173.53 Y180.87 E312.49300
G0 F12000 X173.53 Y180.30
G1 F2820 X179.77 Y174.07 E312.71299
G0 F12000 X179.20 Y174.07
G1 F2820 X173.53 Y179.74 E312.91304
G0 F12000 X173.35 Y179.35
G1 F2820 X178.64 Y174.07 E313.09962
G0 F12000 X178.07 Y174.07
G1 F2820 X172.78 Y179.35 E313.28620
G0 F12000 X172.22 Y179.35
G1 F2820 X177.51 Y174.07 E313.47280
G0 F12000 X176.94 Y174.07
G1 F2820 X171.65 Y179.35 E313.65939
G0 F12000 X171.09 Y179.35
G1 F2820 X176.38 Y174.07 E313.84597
G0 F12000 X175.81 Y174.07
G1 F2820 X170.52 Y179.35 E314.03257
G0 F12000 X169.96 Y179.35
G1 F2820 X175.24 Y174.07 E314.21916
G0 F12000 X174.68 Y174.07
G1 F2820 X169.39 Y179.35 E314.40574
G0 F12000 X168.82 Y179.35
G1 F2820 X174.11 Y174.07 E314.59234
G0 F12000 X173.55 Y174.07
G1 F2820 X168.26 Y179.35 E314.77893
G0 F12000 X167.69 Y179.35
G1 F2820 X172.98 Y174.07 E314.96551
G0 F12000 X172.41 Y174.07
G1 F2820 X167.13 Y179.35 E315.15209
G0 F12000 X166.56 Y179.35
G1 F2820 X171.85 Y174.07 E315.33868
G0 F12000 X171.28 Y174.07
G1 F2820 X166.00 Y179.35 E315.52526
G0 F12000 X165.43 Y179.35
G1 F2820 X170.72 Y174.07 E315.71184
G0 F12000 X170.15 Y174.07
G1 F2820 X164.86 Y179.35 E315.89843
G0 F12000 X164.30 Y179.35
G1 F2820 X169.59 Y174.07 E316.08501
G0 F12000 X169.02 Y174.07
G1 F2820 X163.73 Y179.35 E316.27160
G0 F12000 X163.17 Y179.35
G1 F2820 X168.46 Y174.07 E316.45818
G0 F12000 X167.89 Y174.07
G1 F2820 X162.60 Y179.35 E316.64476
G0 F12000 X162.03 Y179.35
G1 F2820 X167.32 Y174.07 E316.83135
G0 F12000 X166.76 Y174.07
G1 F2820 X161.47 Y179.35 E317.01795
G0 F12000 X160.90 Y179.35
G1 F2820 X166.19 Y174.07 E317.20453
G0 F12000 X165.63 Y174.07
G1 F2820 X160.34 Y179.35 E317.39112
G0 F12000 X159.77 Y179.35
G1 F2820 X165.06 Y174.07 E317.57772
G0 F12000 X164.50 Y174.07
G1 F2820 X159.21 Y179.35 E317.76430
G0 F12000 X158.64 Y179.35
G1 F2820 X163.93 Y174.07 E317.95088
G0 F12000 X163.37 Y174.07
G1 F2820 X158.07 Y179.35 E318.13749
G0 F12000 X157.51 Y179.35
G1 F2820 X162.80 Y174.07 E318.32407
G0 F12000 X162.23 Y174.07
G1 F2820 X156.94 Y179.35 E318.51065
G0 F12000 X156.38 Y179.35
G1 F2820 X161.67 Y174.07 E318.69724
G0 F12000 X161.10 Y174.07
G1 F2820 X155.81 Y179.35 E318.88382
G0 F12000 X155.25 Y179.35
G1 F2820 X160.54 Y174.07 E319.07040
G0 F12000 X159.97 Y174.07
G1 F2820 X154.68 Y179.35 E319.25699
G0 F12000 X154.12 Y179.35
G1 F2820 X159.41 Y174.07 E319.44357
G0 F12000 X158.84 Y174.07
G1 F2820 X153.55 Y179.35 E319.63016
G0 F12000 X152.98 Y179.35
G1 F2820 X158.27 Y174.07 E319.81674
G0 F12000 X157.71 Y174.07
G1 F2820 X152.42 Y179.35 E320.00334
G0 F12000 X151.85 Y179.35
G1 F2820 X157.14 Y174.07 E320.18993
G0 F12000 X156.58 Y174.07
G1 F2820 X151.29 Y179.35 E320.37651
G0 F12000 X150.72 Y179.35
G1 F2820 X156.01 Y174.07 E320.56311
G0 F12000 X155.44 Y174.07
G1 F2820 X150.16 Y179.35 E320.74969
G0 F12000 X149.59 Y179.35
G1 F2820 X154.88 Y174.07 E320.93628
G0 F12000 X154.31 Y174.07
G1 F2820 X149.02 Y179.35 E321.12288
G0 F12000 X148.46 Y179.35
G1 F2820 X153.75 Y174.07 E321.30946
G0 F12000 X153.18 Y174.07
G1 F2820 X147.89 Y179.35 E321.49605
G0 F12000 X147.33 Y179.35
G1 F2820 X152.62 Y174.07 E321.68263
G0 F12000 X152.05 Y174.07
G1 F2820 X146.76 Y179.35 E321.86921
G0 F12000 X146.20 Y179.35
G1 F2820 X151.49 Y174.07 E322.05580
G0 F12000 X150.92 Y174.07
G1 F2820 X145.63 Y179.35 E322.24238
G0 F12000 X145.06 Y179.35
G1 F2820 X150.35 Y174.07 E322.42897
G0 F12000 X149.79 Y174.07
G1 F2820 X144.50 Y179.35 E322.61555
G0 F12000 X143.93 Y179.35
G1 F2820 X149.22 Y174.07 E322.80213
G0 F12000 X148.66 Y174.07
G1 F2820 X143.37 Y179.35 E322.98872
G0 F12000 X142.80 Y179.35
G1 F2820 X148.09 Y174.07 E323.17530
G0 F12000 X147.53 Y174.07
G1 F2820 X142.24 Y179.35 E323.36188
G0 F12000 X141.67 Y179.35
G1 F2820 X146.96 Y174.07 E323.54849
G0 F12000 X146.39 Y174.07
G1 F2820 X141.10 Y179.35 E323.73507
G0 F12000 X140.54 Y179.35
G1 F2820 X145.83 Y174.07 E323.92165
G0 F12000 X145.26 Y174.07
G1 F2820 X139.97 Y179.35 E324.10825
G0 F12000 X139.41 Y179.35
G1 F2820 X144.70 Y174.07 E324.29484
G0 F12000 X144.13 Y174.07
G1 F2820 X138.84 Y179.35 E324.48142
G0 F12000 X138.28 Y179.35
G1 F2820 X143.57 Y174.07 E324.66802
G0 F12000 X143.00 Y174.07
G1 F2820 X137.71 Y179.35 E324.85461
G0 F12000 X137.15 Y179.35
G1 F2820 X142.43 Y174.07 E325.04119
G0 F12000 X141.87 Y174.07
G1 F2820 X136.58 Y179.35 E325.22777
G0 F12000 X136.01 Y179.35
G1 F2820 X141.30 Y174.07 E325.41436
G0 F12000 X140.74 Y174.07
G1 F2820 X135.45 Y179.35 E325.60094
G0 F12000 X134.88 Y179.35
G1 F2820 X140.17 Y174.07 E325.78753
G0 F12000 X139.61 Y174.07
G1 F2820 X134.32 Y179.35 E325.97411
G0 F12000 X133.75 Y179.35
G1 F2820 X139.04 Y174.07 E326.16069
G0 F12000 X138.47 Y174.07
G1 F2820 X133.19 Y179.35 E326.34728
G0 F12000 X132.62 Y179.35
G1 F2820 X137.91 Y174.07 E326.53388
G0 F12000 X137.34 Y174.07
G1 F2820 X132.05 Y179.35 E326.72046
G0 F12000 X131.49 Y179.35
G1 F2820 X136.78 Y174.07 E326.90705
G0 F12000 X136.21 Y174.07
G1 F2820 X127.45 Y182.82 E327.21596
G0 F12000 X127.99 Y182.85
G1 F2820 X131.47 Y179.38 E327.33855
G0 F12000 X131.47 Y179.94
G1 F2820 X128.43 Y182.97 E327.44549
G0 F12000 X128.82 Y183.15
G1 F2820 X131.47 Y180.51 E327.53873
G0 F12000 X131.47 Y181.07
G1 F2820 X129.14 Y183.40 E327.62066
G0 F12000 X129.42 Y183.69
G1 F2820 X131.47 Y181.64 E327.69296
G0 F12000 X131.47 Y182.21
G1 F2820 X129.65 Y184.02 E327.75694
G0 F12000 X129.82 Y184.42
G1 F2820 X131.47 Y182.77 E327.81508
G0 F12000 X131.47 Y183.34
G1 F2820 X129.91 Y184.89 E327.86992
G0 F12000 X129.90 Y185.47
G1 F2820 X131.47 Y183.90 E327.92516
G0 F12000 X131.47 Y184.47
G1 F2820 X129.63 Y186.30 E327.98988
G0 F12000 X128.78 Y187.15
G1 F2820 X123.71 Y192.22 E328.16865
G0 F12000 X123.71 Y192.79
G1 F2820 X131.47 Y185.03 E328.44214
G0 F12000 X131.47 Y185.60
G1 F2820 X123.71 Y193.35 E328.71563
G0 F12000 X123.71 Y193.92
G1 F2820 X131.47 Y186.17 E328.98912
G0 F12000 X131.47 Y186.73
G1 F2820 X123.71 Y194.48 E329.26259
G0 F12000 X123.71 Y195.05
G1 F2820 X131.47 Y187.30 E329.53608
G0 F12000 X131.47 Y187.86
G1 F2820 X123.71 Y195.62 E329.80957
G0 F12000 X123.71 Y196.18
G1 F2820 X125.37 Y194.53 E329.86801
G0 F12000 X125.28 Y195.19
G1 F2820 X123.71 Y196.75 E329.92311
G0 F12000 X123.71 Y197.31
G1 F2820 X125.34 Y195.69 E329.98055
G0 F12000 X125.49 Y196.10
G1 F2820 X123.71 Y197.88 E330.04316
G0 F12000 X123.71 Y198.44
G1 F2820 X125.69 Y196.47 E330.11280
G0 F12000 X125.93 Y196.79
G1 F2820 X123.71 Y199.01 E330.19114
G0 F12000 X123.71 Y199.57
G1 F2820 X126.25 Y197.04 E330.28053
G0 F12000 X126.60 Y197.25
G1 F2820 X123.71 Y200.14 E330.38232
G0 F12000 X123.71 Y200.71
G1 F2820 X127.00 Y197.42 E330.49821
G0 F12000 X127.50 Y197.49
G1 F2820 X123.71 Y201.27 E330.63168
G0 F12000 X123.71 Y201.84
G1 F2820 X128.11 Y197.44 E330.78694
G0 F12000 X129.50 Y196.27
G0 X129.72 Y194.60
G0 X128.70 Y193.27
G0 X127.62 Y192.84
G1 F2820 X131.47 Y188.99 E330.92251
G0 F12000 X131.47 Y188.43
G1 F2820 X126.96 Y192.94 E331.08147
G0 F12000 X123.71 Y191.66
G1 F2820 X127.94 Y187.43 E331.23066
G0 F12000 X127.36 Y187.44
G1 F2820 X123.71 Y191.09 E331.35946
G0 F12000 X123.71 Y190.52
G1 F2820 X126.89 Y187.34 E331.47163
G0 F12000 X126.49 Y187.18
G1 F2820 X123.71 Y189.96 E331.56968
G0 F12000 X123.71 Y189.39
G1 F2820 X126.16 Y186.94 E331.65608
G0 F12000 X125.87 Y186.67
G1 F2820 X123.71 Y188.83 E331.73210
G0 F12000 X123.71 Y188.26
G1 F2820 X125.62 Y186.35 E331.79948
G0 F12000 X125.44 Y185.96
G1 F2820 X123.71 Y187.70 E331.86056
G0 F12000 X123.71 Y187.13
G1 F2820 X125.32 Y185.52 E331.91736
G0 F12000 X125.29 Y184.98
G1 F2820 X123.71 Y186.56 E331.97312
G0 F12000 X123.71 Y186.00
G1 F2820 X125.47 Y184.24 E332.03524
G0 F12000 X126.70 Y183.01
G1 F2820 X135.65 Y174.07 E332.35066
G0 F12000 X135.08 Y174.07
G1 F2820 X123.71 Y185.43 E332.75166
G0 F12000 X123.71 Y184.87
G1 F2820 X134.51 Y174.07 E333.13273
G0 F12000 X133.95 Y174.07
G1 F2820 X123.71 Y184.30 E333.49383
G0 F12000 X123.71 Y183.74
G1 F2820 X133.38 Y174.07 E333.83497
G0 F12000 X132.82 Y174.07
G1 F2820 X123.71 Y183.17 E334.15616
G0 F12000 X123.71 Y182.60
G1 F2820 X132.25 Y174.07 E334.45739
G0 F12000 X131.69 Y174.07
G1 F2820 X123.71 Y182.04 E334.73866
G0 F12000 X123.71 Y181.47
G1 F2820 X131.12 Y174.07 E334.99998
G0 F12000 X130.56 Y174.07
G1 F2820 X123.71 Y180.91 E335.24135
G0 F12000 X123.71 Y180.34
G1 F2820 X129.99 Y174.07 E335.46275
G0 F12000 X129.42 Y174.07
G1 F2820 X123.71 Y179.78 E335.66419
G0 F12000 X123.71 Y179.21
G1 F2820 X128.86 Y174.07 E335.84569
G0 F12000 X128.29 Y174.07
G1 F2820 X123.71 Y178.65 E336.00723
G0 F12000 X123.71 Y178.08
G1 F2820 X127.73 Y174.07 E336.14880
G0 F12000 X127.16 Y174.07
G1 F2820 X123.71 Y177.51 E336.27044
G0 F12000 X123.71 Y176.95
G1 F2820 X126.59 Y174.07 E336.37211
G0 F12000 X126.03 Y174.07
G1 F2820 X123.71 Y176.38 E336.45381
G0 F12000 X123.71 Y175.82
G1 F2820 X125.46 Y174.07 E336.51558
G0 F12000 X124.90 Y174.07
G1 F2820 X123.71 Y175.25 E336.55738
G0 F12000 X123.27 Y175.13
G1 F2820 X124.33 Y174.07 E336.59478
G0 F12000 X123.77 Y174.07
G1 F2820 X122.71 Y175.13 E336.63217
G0 F12000 X122.14 Y175.13
G1 F2820 X123.20 Y174.07 E336.66957
G0 F12000 X122.64 Y174.07
G1 F2820 X121.58 Y175.13 E336.70696
G0 F12000 X121.01 Y175.13
G1 F2820 X122.07 Y174.07 E336.74434
G0 F12000 X121.50 Y174.07
G1 F2820 X120.44 Y175.13 E336.78173
G0 F12000 X119.88 Y175.13
G1 F2820 X120.94 Y174.07 E336.81913
G0 F12000 X120.37 Y174.07
G1 F2820 X119.31 Y175.13 E336.85652
G0 F12000 X118.75 Y175.13
G1 F2820 X119.81 Y174.07 E336.89392
G0 F12000 X119.24 Y174.07
G1 F2820 X118.18 Y175.13 E336.93131
G0 F12000 X117.61 Y175.13
G1 F2820 X118.67 Y174.07 E336.96871
G0 F12000 X118.11 Y174.07
G1 F2820 X117.36 Y174.81 E336.99506
G0 F12000 X117.36 Y174.25
G1 F2820 X117.54 Y174.07 E337.00144
G1 F2400 E335.80144
G0 F12000 X123.57 Y168.73
;TYPE:WALL-INNER
G1 F2400 E337.00144
G1 F2820 X123.57 Y137.61 E337.77758
G1 X117.22 Y137.61 E337.93599
G1 X117.22 Y136.27 E337.96941
G1 X187.78 Y136.27 E339.72939
G1 X187.78 Y137.61 E339.76282
G1 X181.43 Y137.61 E339.92122
G1 X181.43 Y168.73 E340.69736
G1 X123.57 Y168.73 E342.14053
G0 F12000 X127.04 Y159.63
G1 F2820 X127.61 Y159.71 E342.15480
G1 X128.18 Y159.63 E342.16910
G1 X128.70 Y159.41 E342.18335
G1 X129.16 Y159.07 E342.19764
G1 X129.51 Y158.61 E342.21191
G1 X129.73 Y158.08 E342.22620
G1 X129.80 Y157.52 E342.24049
G1 X129.73 Y156.95 E342.25478
G1 X129.51 Y156.42 E342.26907
G1 X129.16 Y155.97 E342.28334
G1 X128.70 Y155.62 E342.29763
G1 X128.18 Y155.40 E342.31187
G1 X127.61 Y155.32 E342.32617
G1 X127.04 Y155.40 E342.34044
G1 X126.51 Y155.62 E342.35469
G1 X126.06 Y155.97 E342.36898
G1 X125.71 Y156.42 E342.38325
G1 X125.49 Y156.95 E342.39754
G1 X125.42 Y157.52 E342.41183
G1 X125.49 Y158.08 E342.42612
G1 X125.71 Y158.61 E342.44041
G1 X126.06 Y159.07 E342.45468
G1 X126.51 Y159.41 E342.46897
G1 X127.04 Y159.63 E342.48322
G0 F12000 X131.61 Y163.16
G1 F2820 X173.39 Y163.16 E343.52562
G1 X173.39 Y141.84 E344.05735
G1 X131.61 Y141.84 E345.09976
G1 X131.61 Y163.16 E345.63149
G0 F12000 X128.18 Y149.60
G1 F2820 X128.70 Y149.38 E345.64574
G1 X129.16 Y149.03 E345.66003
G1 X129.51 Y148.58 E345.67430
G1 X129.73 Y148.05 E345.68859
G1 X129.80 Y147.48 E345.70288
G1 X129.73 Y146.92 E345.71716
G1 X129.51 Y146.39 E345.73146
G1 X129.16 Y145.93 E345.74573
G1 X128.70 Y145.59 E345.76001
G1 X128.18 Y145.37 E345.77426
G1 X127.61 Y145.29 E345.78856
G1 X127.04 Y145.37 E345.80283
G1 X126.51 Y145.59 E345.81708
G1 X126.06 Y145.93 E345.83137
G1 X125.71 Y146.39 E345.84564
G1 X125.49 Y146.92 E345.85993
G1 X125.42 Y147.48 E345.87422
G1 X125.49 Y148.05 E345.88851
G1 X125.71 Y148.58 E345.90280
G1 X126.06 Y149.03 E345.91707
G1 X126.51 Y149.38 E345.93136
G1 X127.04 Y149.60 E345.94561
G1 X127.61 Y149.68 E345.95988
G1 X128.18 Y149.60 E345.97417
G0 F12000 X131.61 Y149.45
G0 X131.66 Y141.90
G0 X173.34 Y141.90
G0 X175.20 Y147.48
G1 F2820 X175.27 Y148.05 E345.98846
G1 X175.49 Y148.58 E346.00275
G1 X175.84 Y149.03 E346.01702
G1 X176.30 Y149.38 E346.03131
G1 X176.82 Y149.60 E346.04556
G1 X177.39 Y149.68 E346.05986
G1 X177.96 Y149.60 E346.07413
G1 X178.49 Y149.38 E346.08838
G1 X178.94 Y149.03 E346.10266
G1 X179.29 Y148.58 E346.11693
G1 X179.51 Y148.05 E346.13123
G1 X179.58 Y147.48 E346.14551
G1 X179.51 Y146.92 E346.15980
G1 X179.29 Y146.39 E346.17409
G1 X178.94 Y145.93 E346.18836
G1 X178.49 Y145.59 E346.20265
G1 X177.96 Y145.37 E346.21690
G1 X177.39 Y145.29 E346.23117
G1 X176.82 Y145.37 E346.24547
G1 X176.30 Y145.59 E346.25972
G1 X175.84 Y145.93 E346.27401
G1 X175.49 Y146.39 E346.28828
G1 X175.27 Y146.92 E346.30257
G1 X175.20 Y147.48 E346.31686
G0 F12000 X176.82 Y155.40
G1 F2820 X176.30 Y155.62 E346.33111
G1 X175.84 Y155.97 E346.34539
G1 X175.49 Y156.42 E346.35966
G1 X175.27 Y156.95 E346.37396
G1 X175.20 Y157.52 E346.38824
G1 X175.27 Y158.08 E346.40253
G1 X175.49 Y158.61 E346.41682
G1 X175.84 Y159.07 E346.43109
G1 X176.30 Y159.41 E346.44538
G1 X176.82 Y159.63 E346.45963
G1 X177.39 Y159.71 E346.47393
G1 X177.96 Y159.63 E346.48820
G1 X178.49 Y159.41 E346.50245
G1 X178.94 Y159.07 E346.51674
G1 X179.29 Y158.61 E346.53101
G1 X179.51 Y158.08 E346.54530
G1 X179.58 Y157.52 E346.55959
G1 X179.51 Y156.95 E346.57387
G1 X179.29 Y156.42 E346.58817
G1 X178.94 Y155.97 E346.60244
G1 X178.49 Y155.62 E346.61672
G1 X177.96 Y155.40 E346.63097
G1 X177.39 Y155.32 E346.64524
G1 X176.82 Y155.40 E346.65954
G0 F12000 X176.93 Y155.79
;TYPE:WALL-OUTER
G1 F2820 X176.50 Y155.97 E346.67119
G1 X176.13 Y156.25 E346.68285
G1 X175.84 Y156.62 E346.69450
G1 X175.66 Y157.05 E346.70617
G1 X175.60 Y157.52 E346.71782
G1 X175.66 Y157.98 E346.72947
G1 X175.84 Y158.41 E346.74113
G1 X176.13 Y158.78 E346.75279
G1 X176.50 Y159.07 E346.76444
G1 X176.93 Y159.24 E346.77610
G1 X177.39 Y159.31 E346.78775
G1 X177.85 Y159.24 E346.79938
G1 X178.29 Y159.07 E346.81103
G1 X178.66 Y158.78 E346.82269
G1 X178.94 Y158.41 E346.83434
G1 X179.12 Y157.98 E346.84601
G1 X179.18 Y157.52 E346.85766
G1 X179.12 Y157.05 E346.86931
G1 X178.94 Y156.62 E346.88097
G1 X178.66 Y156.25 E346.89263
G1 X178.29 Y155.97 E346.90428
G1 X177.85 Y155.79 E346.91594
G1 X177.39 Y155.73 E346.92756
G1 X176.93 Y155.79 E346.93922
G0 F12000 X176.89 Y155.49
G0 X177.35 Y149.57
G0 X177.39 Y149.27
G1 F2820 X177.85 Y149.21 E346.95085
G1 X178.29 Y149.03 E346.96250
G1 X178.66 Y148.75 E346.97416
G1 X178.94 Y148.38 E346.98581
G1 X179.12 Y147.95 E346.99748
G1 X179.18 Y147.48 E347.00912
G1 X179.12 Y147.02 E347.02077
G1 X178.94 Y146.59 E347.03244
G1 X178.66 Y146.22 E347.04409
G1 X178.29 Y145.93 E347.05575
G1 X177.85 Y145.76 E347.06740
G1 X177.39 Y145.69 E347.07903
G1 X176.93 Y145.76 E347.09068
G1 X176.50 Y145.93 E347.10234
G1 X176.13 Y146.22 E347.11399
G1 X175.84 Y146.59 E347.12565
G1 X175.66 Y147.02 E347.13731
G1 X175.60 Y147.48 E347.14896
G1 X175.66 Y147.95 E347.16061
G1 X175.84 Y148.38 E347.17228
G1 X176.13 Y148.75 E347.18393
G1 X176.50 Y149.03 E347.19559
G1 X176.93 Y149.21 E347.20724
G1 X177.39 Y149.27 E347.21890
G0 F12000 X177.35 Y149.57
G0 X176.30 Y149.38
G0 X175.28 Y148.05
G0 X173.34 Y141.90
G0 X172.99 Y141.94
G0 X172.99 Y142.24
G1 F2820 X132.01 Y142.24 E348.24135
G1 X132.01 Y162.76 E348.75312
G1 X172.99 Y162.76 E349.77557
G1 X172.99 Y142.24 E350.28734
G0 F12000 X172.99 Y141.94
G0 X181.83 Y137.71
G0 X181.83 Y138.01
G1 F2820 X181.83 Y169.13 E351.06348
G1 X123.17 Y169.13 E352.52661
G1 X123.17 Y138.01 E353.30276
G1 X116.82 Y138.01 E353.46116
G1 X116.82 Y135.87 E353.51454
G1 X188.18 Y135.87 E355.29447
G1 X188.18 Y138.01 E355.34786
G1 X181.83 Y138.01 E355.50626
G0 F12000 X181.83 Y137.71
G0 X131.66 Y141.90
G0 X129.61 Y156.94
G0 X129.34 Y157.05
G1 F2820 X129.16 Y156.62 E355.51792
G1 X128.87 Y156.25 E355.52958
G1 X128.50 Y155.97 E355.54123
G1 X128.07 Y155.79 E355.55289
G1 X127.61 Y155.73 E355.56454
G1 X127.15 Y155.79 E355.57617
G1 X126.71 Y155.97 E355.58782
G1 X126.34 Y156.25 E355.59948
G1 X126.06 Y156.62 E355.61113
G1 X125.88 Y157.05 E355.62280
G1 X125.82 Y157.52 E355.63445
G1 X125.88 Y157.98 E355.64610
G1 X126.06 Y158.41 E355.65776
G1 X126.34 Y158.78 E355.66942
G1 X126.71 Y159.07 E355.68107
G1 X127.15 Y159.24 E355.69273
G1 X127.61 Y159.31 E355.70435
G1 X128.07 Y159.24 E355.71601
G1 X128.50 Y159.07 E355.72766
G1 X128.87 Y158.78 E355.73932
G1 X129.16 Y158.41 E355.75097
G1 X129.34 Y157.98 E355.76264
G1 X129.40 Y157.52 E355.77429
G1 X129.34 Y157.05 E355.78593
G0 F12000 X129.61 Y156.94
G0 X128.11 Y149.51
G0 X128.07 Y149.21
G1 F2820 X128.50 Y149.03 E355.79759
G1 X128.87 Y148.75 E355.80924
G1 X129.16 Y148.38 E355.82090
G1 X129.34 Y147.95 E355.83256
G1 X129.40 Y147.48 E355.84421
G1 X129.34 Y147.02 E355.85586
G1 X129.16 Y146.59 E355.86753
G1 X128.87 Y146.22 E355.87918
G1 X128.50 Y145.93 E355.89084
G1 X128.07 Y145.76 E355.90249
G1 X127.61 Y145.69 E355.91415
G1 X127.15 Y145.76 E355.92577
G1 X126.71 Y145.93 E355.93743
G1 X126.34 Y146.22 E355.94908
G1 X126.06 Y146.59 E355.96074
G1 X125.88 Y147.02 E355.97240
G1 X125.82 Y147.48 E355.98405
G1 X125.88 Y147.95 E355.99570
G1 X126.06 Y148.38 E356.00737
G1 X126.34 Y148.75 E356.01902
G1 X126.71 Y149.03 E356.03068
G1 X127.15 Y149.21 E356.04233
G1 X127.61 Y149.27 E356.05396
G1 X128.07 Y149.21 E356.06561
G0 F12000 X128.36 Y149.68
;TYPE:FILL
G1 F2820 X123.71 Y154.32 E356.22942
G0 F12000 X123.71 Y154.89
G1 F2820 X131.47 Y147.13 E356.50290
G0 F12000 X131.47 Y147.70
G1 F2820 X123.71 Y155.45 E356.77639
G0 F12000 X123.71 Y156.02
G1 F2820 X131.47 Y148.26 E357.04988
G0 F12000 X131.47 Y148.83
G1 F2820 X123.71 Y156.58 E357.32335
G0 F12000 X123.71 Y157.15
G1 F2820 X131.47 Y149.40 E357.59684
G0 F12000 X131.47 Y149.96
G1 F2820 X123.71 Y157.72 E357.87033
G0 F12000 X123.71 Y158.28
G1 F2820 X125.54 Y156.45 E357.93489
G0 F12000 X125.31 Y157.25
G1 F2820 X123.71 Y158.85 E357.99112
G0 F12000 X123.71 Y159.41
G1 F2820 X125.31 Y157.81 E358.04755
G0 F12000 X125.42 Y158.27
G1 F2820 X123.71 Y159.98 E358.10763
G0 F12000 X123.71 Y160.54
G1 F2820 X125.58 Y158.67 E358.17356
G0 F12000 X125.83 Y159.00
G1 F2820 X123.71 Y161.11 E358.24810
G0 F12000 X123.71 Y161.68
G1 F2820 X126.11 Y159.28 E358.33258
G0 F12000 X126.43 Y159.53
G1 F2820 X123.71 Y162.24 E358.42835
G0 F12000 X123.71 Y162.81
G1 F2820 X126.83 Y159.69 E358.53814
G0 F12000 X127.28 Y159.81
G1 F2820 X123.71 Y163.37 E358.66394
G0 F12000 X123.71 Y163.94
G1 F2820 X127.83 Y159.82 E358.80918
G0 F12000 X128.61 Y159.60
G1 F2820 X123.71 Y164.50 E358.98202
G0 F12000 X123.71 Y165.07
G1 F2820 X131.47 Y157.32 E359.25551
G0 F12000 X131.47 Y157.88
G1 F2820 X123.71 Y165.63 E359.52898
G0 F12000 X123.71 Y166.20
G1 F2820 X131.47 Y158.45 E359.80247
G0 F12000 X131.47 Y159.01
G1 F2820 X123.71 Y166.77 E360.07596
G0 F12000 X123.71 Y167.33
G1 F2820 X131.47 Y159.58 E360.34944
G0 F12000 X131.47 Y160.14
G1 F2820 X123.71 Y167.90 E360.62293
G0 F12000 X123.71 Y168.46
G1 F2820 X131.47 Y160.71 E360.89642
G0 F12000 X131.47 Y161.28
G1 F2820 X124.16 Y168.59 E361.15430
G0 F12000 X124.72 Y168.59
G1 F2820 X131.47 Y161.84 E361.39225
G0 F12000 X131.47 Y162.41
G1 F2820 X125.29 Y168.59 E361.61023
G0 F12000 X125.85 Y168.59
G1 F2820 X131.47 Y162.97 E361.80824
G0 F12000 X131.71 Y163.30
G1 F2820 X126.42 Y168.59 E361.99484
G0 F12000 X126.98 Y168.59
G1 F2820 X132.27 Y163.30 E362.18144
G0 F12000 X132.84 Y163.30
G1 F2820 X127.55 Y168.59 E362.36804
G0 F12000 X128.12 Y168.59
G1 F2820 X133.40 Y163.30 E362.55463
G0 F12000 X133.97 Y163.30
G1 F2820 X128.68 Y168.59 E362.74123
G0 F12000 X129.25 Y168.59
G1 F2820 X134.54 Y163.30 E362.92783
G0 F12000 X135.10 Y163.30
G1 F2820 X129.81 Y168.59 E363.11441
G0 F12000 X130.38 Y168.59
G1 F2820 X135.67 Y163.30 E363.30102
G0 F12000 X136.23 Y163.30
G1 F2820 X130.94 Y168.59 E363.48762
G0 F12000 X131.51 Y168.59
G1 F2820 X136.80 Y163.30 E363.67420
G0 F12000 X137.36 Y163.30
G1 F2820 X132.07 Y168.59 E363.86080
G0 F12000 X132.64 Y168.59
G1 F2820 X137.93 Y163.30 E364.04740
G0 F12000 X138.50 Y163.30
G1 F2820 X133.21 Y168.59 E364.23401
G0 F12000 X133.77 Y168.59
G1 F2820 X139.06 Y163.30 E364.42061
G0 F12000 X139.63 Y163.30
G1 F2820 X134.34 Y168.59 E364.60721
G0 F12000 X134.90 Y168.59
G1 F2820 X140.19 Y163.30 E364.79381
G0 F12000 X140.76 Y163.30
G1 F2820 X135.47 Y168.59 E364.98041
G0 F12000 X136.03 Y168.59
G1 F2820 X141.32 Y163.30 E365.16701
G0 F12000 X141.89 Y163.30
G1 F2820 X136.60 Y168.59 E365.35361
G0 F12000 X137.16 Y168.59
G1 F2820 X142.46 Y163.30 E365.54022
G0 F12000 X143.02 Y163.30
G1 F2820 X137.73 Y168.59 E365.72682
G0 F12000 X138.30 Y168.59
G1 F2820 X143.59 Y163.30 E365.91342
G0 F12000 X144.15 Y163.30
G1 F2820 X138.86 Y168.59 E366.10000
G0 F12000 X139.43 Y168.59
G1 F2820 X144.72 Y163.30 E366.28660
G0 F12000 X145.28 Y163.30
G1 F2820 X139.99 Y168.59 E366.47320
G0 F12000 X140.56 Y168.59
G1 F2820 X145.85 Y163.30 E366.65979
G0 F12000 X146.41 Y163.30
G1 F2820 X141.12 Y168.59 E366.84639
G0 F12000 X141.69 Y168.59
G1 F2820 X146.98 Y163.30 E367.03299
G0 F12000 X147.55 Y163.30
G1 F2820 X142.26 Y168.59 E367.21959
G0 F12000 X142.82 Y168.59
G1 F2820 X148.11 Y163.30 E367.40619
G0 F12000 X148.68 Y163.30
G1 F2820 X143.39 Y168.59 E367.59280
G0 F12000 X143.95 Y168.59
G1 F2820 X149.24 Y163.30 E367.77940
G0 F12000 X149.81 Y163.30
G1 F2820 X144.52 Y168.59 E367.96600
G0 F12000 X145.09 Y168.59
G1 F2820 X150.38 Y163.30 E368.15260
G0 F12000 X150.94 Y163.30
G1 F2820 X145.65 Y168.59 E368.33920
G0 F12000 X146.22 Y168.59
G1 F2820 X151.51 Y163.30 E368.52580
G0 F12000 X152.07 Y163.30
G1 F2820 X146.78 Y168.59 E368.71240
G0 F12000 X147.35 Y168.59
G1 F2820 X152.64 Y163.30 E368.89899
G0 F12000 X153.20 Y163.30
G1 F2820 X147.91 Y168.59 E369.08557
G0 F12000 X148.48 Y168.59
G1 F2820 X153.77 Y163.30 E369.27215
G0 F12000 X154.33 Y163.30
G1 F2820 X149.04 Y168.59 E369.45874
G0 F12000 X149.61 Y168.59
G1 F2820 X154.90 Y163.30 E369.64532
G0 F12000 X155.47 Y163.30
G1 F2820 X150.18 Y168.59 E369.83191
G0 F12000 X150.74 Y168.59
G1 F2820 X156.03 Y163.30 E370.01849
G0 F12000 X156.60 Y163.30
G1 F2820 X151.31 Y168.59 E370.20507
G0 F12000 X151.87 Y168.59
G1 F2820 X157.16 Y163.30 E370.39166
G0 F12000 X157.73 Y163.30
G1 F2820 X152.44 Y168.59 E370.57824
G0 F12000 X153.00 Y168.59
G1 F2820 X158.29 Y163.30 E370.76483
G0 F12000 X158.86 Y163.30
G1 F2820 X153.57 Y168.59 E370.95143
G0 F12000 X154.14 Y168.59
G1 F2820 X159.43 Y163.30 E371.13801
G0 F12000 X159.99 Y163.30
G1 F2820 X154.70 Y168.59 E371.32459
G0 F12000 X155.27 Y168.59
G1 F2820 X160.56 Y163.30 E371.51120
G0 F12000 X161.12 Y163.30
G1 F2820 X155.83 Y168.59 E371.69778
G0 F12000 X156.40 Y168.59
G1 F2820 X161.69 Y163.30 E371.88436
G0 F12000 X162.25 Y163.30
G1 F2820 X156.96 Y168.59 E372.07096
G0 F12000 X157.53 Y168.59
G1 F2820 X162.82 Y163.30 E372.25755
G0 F12000 X163.38 Y163.30
G1 F2820 X158.10 Y168.59 E372.44413
G0 F12000 X158.66 Y168.59
G1 F2820 X163.95 Y163.30 E372.63072
G0 F12000 X164.52 Y163.30
G1 F2820 X159.23 Y168.59 E372.81730
G0 F12000 X159.79 Y168.59
G1 F2820 X165.08 Y163.30 E373.00388
G0 F12000 X165.65 Y163.30
G1 F2820 X160.36 Y168.59 E373.19047
G0 F12000 X160.92 Y168.59
G1 F2820 X166.21 Y163.30 E373.37705
G0 F12000 X166.78 Y163.30
G1 F2820 X161.49 Y168.59 E373.56363
G0 F12000 X162.06 Y168.59
G1 F2820 X167.34 Y163.30 E373.75022
G0 F12000 X167.91 Y163.30
G1 F2820 X162.62 Y168.59 E373.93680
G0 F12000 X163.19 Y168.59
G1 F2820 X168.48 Y163.30 E374.12339
G0 F12000 X169.04 Y163.30
G1 F2820 X163.75 Y168.59 E374.30997
G0 F12000 X164.32 Y168.59
G1 F2820 X169.61 Y163.30 E374.49657
G0 F12000 X170.17 Y163.30
G1 F2820 X164.88 Y168.59 E374.68315
G0 F12000 X165.45 Y168.59
G1 F2820 X170.74 Y163.30 E374.86974
G0 F12000 X171.31 Y163.30
G1 F2820 X166.01 Y168.59 E375.05634
G0 F12000 X166.58 Y168.59
G1 F2820 X171.87 Y163.30 E375.24292
G0 F12000 X172.44 Y163.30
G1 F2820 X167.15 Y168.59 E375.42951
G0 F12000 X167.71 Y168.59
G1 F2820 X173.00 Y163.30 E375.61609
G0 F12000 X173.53 Y162.77
G1 F2820 X176.60 Y159.69 E375.72446
