;-- START GCODE --
;Sliced for Type A Machines Series 1
;Sliced at: Sat 14-03-2015 16:18:17
;Basic settings: Layer height: 0.15 Walls: 0.8 Fill: 12
;Print Speed: 100 Support: 0 
;Retraction Speed: 40 Retraction Distance: 1.2
;Print time: #P_TIME#
;Filament used: #F_AMNT#m #F_WGHT#g
;Filament cost: #F_COST#
M106 S255	 ;start with the fan on
G21        ;metric values
G90        ;absolute positioning
M106 S255    ;start with the fan on
G28     ;move to endstops
G29		;allows for auto-levelling
G1 X150 Y5  Z15.0 F12000 ;center and move the platform down 15mm
M109 S220 ;Heat To temp
G92 E0                  ;zero the extruded length
G1 F200 E30              ;extrude 30mm of feed stock
G92 E0                  ;zero the extruded length again
G1 X175 Y25  Z0 F12000 ;remove bugger
G1 X220 F12000 ;remove bugger
G1 X150 Y150  Z15 F12000 ;recenter and begin
G1 F12000

;Layer count: 116
;LAYER:0
M106 S255
G0 F12000 X142.11 Y175.57 Z0.25
;TYPE:SKIRT
G1 F1800 X142.92 Y174.94 E0.04261
G1 X143.76 Y174.37 E0.08508
G1 X144.65 Y173.85 E0.12771
G1 X145.56 Y173.38 E0.17035
G1 X146.50 Y172.98 E0.21290
G1 X147.47 Y172.63 E0.25557
G1 X148.45 Y172.34 E0.29803
G1 X149.45 Y172.12 E0.34064
G1 X150.46 Y171.96 E0.38328
G1 X151.48 Y171.86 E0.42579
G1 X152.50 Y171.83 E0.46835
G1 X153.52 Y171.86 E0.51090
G1 X154.54 Y171.96 E0.55341
G1 X155.55 Y172.12 E0.59605
G1 X156.55 Y172.34 E0.63866
G1 X157.53 Y172.63 E0.68112
G1 X158.50 Y172.98 E0.72380
G1 X159.44 Y173.38 E0.76634
G1 X160.35 Y173.85 E0.80898
G1 X161.24 Y174.37 E0.85161
G1 X162.08 Y174.94 E0.89408
G1 X162.89 Y175.57 E0.93669
G1 X163.66 Y176.25 E0.97931
G1 X164.38 Y176.97 E1.02177
G1 X165.06 Y177.74 E1.06439
G1 X165.69 Y178.55 E1.10706
G1 X166.26 Y179.40 E1.14951
G1 X166.78 Y180.28 E1.19204
G1 X167.25 Y181.19 E1.23473
G1 X167.66 Y182.13 E1.27728
G1 X168.00 Y183.10 E1.31986
G1 X168.29 Y184.08 E1.36243
G1 X168.51 Y185.08 E1.40511
G1 X168.67 Y186.09 E1.44767
G1 X168.77 Y187.11 E1.49018
G1 X168.80 Y188.13 E1.53278
G1 X168.77 Y189.16 E1.57533
G1 X168.67 Y190.18 E1.61784
G1 X168.51 Y191.19 E1.66039
G1 X168.29 Y192.19 E1.70308
G1 X168.00 Y193.17 E1.74564
G1 X167.66 Y194.13 E1.78823
G1 X167.25 Y195.07 E1.83077
G1 X166.78 Y195.99 E1.87341
G1 X166.26 Y196.87 E1.91604
G1 X165.69 Y197.72 E1.95851
G1 X165.06 Y198.53 E2.00112
G1 X164.38 Y199.29 E2.04374
G1 X163.66 Y200.02 E2.08620
G1 X162.89 Y200.69 E2.12882
G1 X162.08 Y201.32 E2.17137
G1 X161.24 Y201.90 E2.21392
G1 X160.35 Y202.42 E2.25663
G1 X159.44 Y202.88 E2.29917
G1 X158.50 Y203.29 E2.34172
G1 X157.54 Y203.64 E2.38430
G1 X156.55 Y203.92 E2.42686
G1 X155.55 Y204.15 E2.46955
G1 X154.54 Y204.31 E2.51210
G1 X153.53 Y204.40 E2.55453
G1 X152.50 Y204.44 E2.59717
G1 X151.47 Y204.40 E2.63980
G1 X150.46 Y204.31 E2.68223
G1 X149.45 Y204.15 E2.72478
G1 X148.45 Y203.92 E2.76747
G1 X147.46 Y203.64 E2.81003
G1 X146.50 Y203.29 E2.85262
G1 X145.56 Y202.88 E2.89516
G1 X144.65 Y202.42 E2.93771
G1 X143.76 Y201.90 E2.98041
G1 X142.92 Y201.32 E3.02296
G1 X142.11 Y200.69 E3.06551
G1 X141.34 Y200.02 E3.10814
G1 X140.62 Y199.29 E3.15059
G1 X139.94 Y198.53 E3.19321
G1 X139.31 Y197.72 E3.23582
G1 X138.74 Y196.87 E3.27829
G1 X138.22 Y195.99 E3.32092
G1 X137.75 Y195.07 E3.36356
G1 X137.34 Y194.13 E3.40611
G1 X137.00 Y193.17 E3.44869
G1 X136.71 Y192.19 E3.49125
G1 X136.49 Y191.19 E3.53394
G1 X136.33 Y190.18 E3.57649
G1 X136.23 Y189.16 E3.61900
G1 X136.20 Y188.13 E3.66156
G1 X136.23 Y187.11 E3.70415
G1 X136.33 Y186.09 E3.74666
G1 X136.49 Y185.08 E3.78922
G1 X136.71 Y184.08 E3.83190
G1 X137.00 Y183.10 E3.87447
G1 X137.34 Y182.13 E3.91705
G1 X137.75 Y181.19 E3.95960
G1 X138.22 Y180.28 E4.00229
G1 X138.74 Y179.40 E4.04483
G1 X139.31 Y178.55 E4.08727
G1 X139.94 Y177.74 E4.12994
G1 X140.62 Y176.97 E4.17257
G1 X141.34 Y176.25 E4.21502
G1 X142.11 Y175.57 E4.25764
G0 F12000 X142.36 Y175.88
G1 F1800 X143.16 Y175.27 E4.29922
G1 X143.98 Y174.71 E4.34061
G1 X144.84 Y174.20 E4.38221
G1 X145.73 Y173.75 E4.42379
G1 X146.65 Y173.35 E4.46533
G1 X147.59 Y173.01 E4.50690
G1 X148.54 Y172.73 E4.54833
G1 X149.52 Y172.51 E4.58992
G1 X150.51 Y172.36 E4.63150
G1 X151.50 Y172.26 E4.67297
G1 X152.50 Y172.23 E4.71448
G1 X153.50 Y172.26 E4.75599
G1 X154.49 Y172.36 E4.79746
G1 X155.48 Y172.51 E4.83904
G1 X156.46 Y172.73 E4.88063
G1 X157.41 Y173.01 E4.92206
G1 X158.35 Y173.35 E4.96363
G1 X159.27 Y173.75 E5.00518
G1 X160.16 Y174.20 E5.04675
G1 X161.02 Y174.71 E5.08836
G1 X161.84 Y175.27 E5.12974
G1 X162.64 Y175.88 E5.17132
G1 X163.38 Y176.54 E5.21288
G1 X164.09 Y177.25 E5.25433
G1 X164.75 Y178.00 E5.29589
G1 X165.37 Y178.79 E5.33750
G1 X165.92 Y179.61 E5.37889
G1 X166.43 Y180.47 E5.42043
G1 X166.89 Y181.36 E5.46204
G1 X167.28 Y182.28 E5.50358
G1 X167.62 Y183.22 E5.54511
G1 X167.90 Y184.18 E5.58660
G1 X168.12 Y185.16 E5.62826
G1 X168.28 Y186.14 E5.66976
G1 X168.37 Y187.13 E5.71122
G1 X168.40 Y188.13 E5.75278
G1 X168.37 Y189.13 E5.79429
G1 X168.28 Y190.12 E5.83576
G1 X168.12 Y191.11 E5.87726
G1 X167.90 Y192.09 E5.91892
G1 X167.62 Y193.05 E5.96040
G1 X167.28 Y193.99 E6.00193
G1 X166.89 Y194.90 E6.04348
G1 X166.43 Y195.79 E6.08505
G1 X165.92 Y196.66 E6.12666
G1 X165.36 Y197.48 E6.16804
G1 X164.75 Y198.27 E6.20962
G1 X164.09 Y199.02 E6.25118
G1 X163.38 Y199.72 E6.29263
G1 X162.64 Y200.39 E6.33419
G1 X161.85 Y201.00 E6.37568
G1 X161.02 Y201.56 E6.41718
G1 X160.16 Y202.07 E6.45882
G1 X159.27 Y202.52 E6.50034
G1 X158.35 Y202.92 E6.54189
G1 X157.41 Y203.26 E6.58342
G1 X156.46 Y203.54 E6.62490
G1 X155.48 Y203.75 E6.66656
G1 X154.49 Y203.91 E6.70806
G1 X153.50 Y204.00 E6.74944
G1 X152.50 Y204.04 E6.79104
G1 X151.50 Y204.00 E6.83264
G1 X150.51 Y203.91 E6.87402
G1 X149.52 Y203.75 E6.91552
G1 X148.54 Y203.54 E6.95718
G1 X147.59 Y203.26 E6.99867
G1 X146.65 Y202.92 E7.04020
G1 X145.73 Y202.52 E7.08174
G1 X144.84 Y202.07 E7.12326
G1 X143.98 Y201.56 E7.16490
G1 X143.15 Y201.00 E7.20640
G1 X142.36 Y200.39 E7.24789
G1 X141.62 Y199.72 E7.28945
G1 X140.91 Y199.02 E7.33090
G1 X140.25 Y198.27 E7.37246
G1 X139.64 Y197.48 E7.41404
G1 X139.08 Y196.66 E7.45543
G1 X138.57 Y195.79 E7.49703
G1 X138.11 Y194.90 E7.53861
G1 X137.72 Y193.99 E7.58015
G1 X137.38 Y193.05 E7.62168
G1 X137.10 Y192.09 E7.66317
G1 X136.88 Y191.11 E7.70482
G1 X136.72 Y190.12 E7.74633
G1 X136.63 Y189.13 E7.78779
G1 X136.60 Y188.13 E7.82930
G1 X136.63 Y187.13 E7.87086
G1 X136.72 Y186.14 E7.91232
G1 X136.88 Y185.16 E7.95383
G1 X137.10 Y184.18 E7.99549
G1 X137.38 Y183.22 E8.03697
G1 X137.72 Y182.28 E8.07850
G1 X138.11 Y181.36 E8.12004
G1 X138.57 Y180.47 E8.16166
G1 X139.08 Y179.61 E8.20319
G1 X139.63 Y178.79 E8.24459
G1 X140.25 Y178.00 E8.28619
G1 X140.91 Y177.25 E8.32775
G1 X141.62 Y176.54 E8.36920
G1 X142.36 Y175.88 E8.41076
G1 F2400 E7.21076
G0 F12000 X144.79 Y178.81
;TYPE:WALL-INNER
G1 F2400 E8.41076
G1 F1800 X145.39 Y178.34 E8.44262
G1 X146.01 Y177.92 E8.47374
G1 X146.67 Y177.53 E8.50539
G1 X147.35 Y177.19 E8.53711
G1 X148.04 Y176.88 E8.56866
G1 X148.77 Y176.62 E8.60077
G1 X149.49 Y176.41 E8.63198
G1 X150.22 Y176.25 E8.66322
G1 X150.99 Y176.13 E8.69558
G1 X151.73 Y176.06 E8.72632
G1 X152.50 Y176.03 E8.75835
G1 X153.27 Y176.06 E8.79037
G1 X154.01 Y176.13 E8.82111
G1 X154.78 Y176.25 E8.85347
G1 X155.51 Y176.41 E8.88471
G1 X156.23 Y176.62 E8.91592
G1 X156.96 Y176.88 E8.94803
G1 X157.65 Y177.19 E8.97958
G1 X158.33 Y177.53 E9.01130
G1 X158.99 Y177.92 E9.04295
G1 X159.61 Y178.34 E9.07407
G1 X160.21 Y178.81 E9.10593
G1 X160.79 Y179.32 E9.13783
G1 X161.31 Y179.85 E9.16887
G1 X161.82 Y180.42 E9.20077
G1 X162.29 Y181.03 E9.23263
G1 X162.71 Y181.65 E9.26379
G1 X163.10 Y182.30 E9.29540
G1 X163.45 Y182.98 E9.32712
G1 X163.75 Y183.68 E9.35867
G1 X164.01 Y184.40 E9.39061
G1 X164.22 Y185.12 E9.42166
G1 X164.39 Y185.87 E9.45373
G1 X164.50 Y186.63 E9.48559
G1 X164.57 Y187.35 E9.51600
G1 X164.60 Y188.13 E9.54840
G1 X164.57 Y188.90 E9.58043
G1 X164.50 Y189.64 E9.61116
G1 X164.39 Y190.40 E9.64302
G1 X164.22 Y191.15 E9.67510
G1 X164.01 Y191.87 E9.70615
G1 X163.75 Y192.59 E9.73809
G1 X163.45 Y193.29 E9.76963
G1 X163.10 Y193.97 E9.80135
G1 X162.71 Y194.62 E9.83300
G1 X162.29 Y195.24 E9.86413
G1 X161.82 Y195.85 E9.89598
G1 X161.31 Y196.42 E9.92788
G1 X160.79 Y196.95 E9.95893
G1 X160.21 Y197.46 E9.99083
G1 X159.61 Y197.92 E10.02233
G1 X158.98 Y198.35 E10.05398
G1 X158.33 Y198.74 E10.08565
G1 X157.65 Y199.08 E10.11718
G1 X156.96 Y199.38 E10.14872
G1 X156.23 Y199.64 E10.18067
G1 X155.52 Y199.85 E10.21172
G1 X154.76 Y200.02 E10.24379
G1 X154.01 Y200.14 E10.27565
G1 X153.27 Y200.21 E10.30635
G1 X152.50 Y200.23 E10.33842
G1 X151.73 Y200.21 E10.37049
G1 X150.99 Y200.14 E10.40118
G1 X150.24 Y200.02 E10.43304
G1 X149.48 Y199.85 E10.46511
G1 X148.77 Y199.64 E10.49616
G1 X148.04 Y199.38 E10.52811
G1 X147.35 Y199.08 E10.55965
G1 X146.67 Y198.74 E10.59119
G1 X146.02 Y198.35 E10.62285
G1 X145.39 Y197.92 E10.65450
G1 X144.79 Y197.46 E10.68601
G1 X144.21 Y196.95 E10.71791
G1 X143.69 Y196.42 E10.74895
G1 X143.18 Y195.85 E10.78085
G1 X142.71 Y195.24 E10.81271
G1 X142.29 Y194.62 E10.84383
G1 X141.90 Y193.97 E10.87548
G1 X141.55 Y193.29 E10.90720
G1 X141.25 Y192.59 E10.93874
G1 X140.99 Y191.87 E10.97069
G1 X140.78 Y191.15 E11.00174
G1 X140.61 Y190.40 E11.03381
G1 X140.50 Y189.64 E11.06567
G1 X140.43 Y188.90 E11.09641
G1 X140.40 Y188.13 E11.12843
G1 X140.43 Y187.35 E11.16084
G1 X140.50 Y186.63 E11.19124
G1 X140.61 Y185.87 E11.22310
G1 X140.78 Y185.12 E11.25517
G1 X140.99 Y184.40 E11.28622
G1 X141.25 Y183.68 E11.31817
G1 X141.55 Y182.98 E11.34971
G1 X141.90 Y182.30 E11.38143
G1 X142.29 Y181.65 E11.41305
G1 X142.71 Y181.03 E11.44420
G1 X143.18 Y180.42 E11.47606
G1 X143.69 Y179.85 E11.50796
G1 X144.21 Y179.32 E11.53901
G1 X144.79 Y178.81 E11.57090
G0 F12000 X144.53 Y178.51
;TYPE:WALL-OUTER
G1 F1800 X145.16 Y178.02 E11.60409
G1 X145.80 Y177.58 E11.63617
G1 X146.48 Y177.18 E11.66913
G1 X147.17 Y176.83 E11.70146
G1 X147.90 Y176.51 E11.73463
G1 X148.64 Y176.25 E11.76700
G1 X149.39 Y176.03 E11.79974
G1 X150.15 Y175.86 E11.83208
G1 X150.94 Y175.73 E11.86524
G1 X151.71 Y175.66 E11.89752
G1 X152.50 Y175.63 E11.93026
G1 X153.29 Y175.66 E11.96299
G1 X154.06 Y175.73 E11.99527
G1 X154.85 Y175.86 E12.02844
G1 X155.61 Y176.03 E12.06078
G1 X156.36 Y176.25 E12.09351
G1 X157.10 Y176.51 E12.12589
G1 X157.83 Y176.83 E12.15905
G1 X158.52 Y177.18 E12.19139
G1 X159.20 Y177.58 E12.22434
G1 X159.84 Y178.02 E12.25642
G1 X160.47 Y178.51 E12.28961
G1 X161.06 Y179.03 E12.32228
G1 X161.61 Y179.57 E12.35438
G1 X162.13 Y180.16 E12.38705
G1 X162.62 Y180.79 E12.42024
G1 X163.05 Y181.43 E12.45235
G1 X163.46 Y182.12 E12.48551
G1 X163.81 Y182.81 E12.51760
G1 X164.12 Y183.54 E12.55077
G1 X164.39 Y184.26 E12.58294
G1 X164.61 Y185.02 E12.61559
G1 X164.78 Y185.78 E12.64822
G1 X164.90 Y186.57 E12.68139
G1 X164.97 Y187.34 E12.71350
G1 X165.00 Y188.13 E12.74620
G1 X164.97 Y188.92 E12.77918
G1 X164.90 Y189.69 E12.81146
G1 X164.78 Y190.48 E12.84463
G1 X164.61 Y191.24 E12.87674
G1 X164.39 Y192.00 E12.90970
G1 X164.12 Y192.73 E12.94208
G1 X163.81 Y193.46 E12.97519
G1 X163.46 Y194.15 E13.00733
G1 X163.05 Y194.84 E13.04053
G1 X162.62 Y195.47 E13.07261
G1 X162.13 Y196.11 E13.10580
G1 X161.61 Y196.69 E13.13847
G1 X161.06 Y197.24 E13.17057
G1 X160.47 Y197.76 E13.20324
G1 X159.84 Y198.25 E13.23631
G1 X159.20 Y198.69 E13.26877
G1 X158.52 Y199.09 E13.30146
G1 X157.83 Y199.44 E13.33380
G1 X157.10 Y199.76 E13.36692
G1 X156.36 Y200.02 E13.39934
G1 X155.61 Y200.24 E13.43208
G1 X154.85 Y200.41 E13.46441
G1 X154.06 Y200.53 E13.49758
G1 X153.29 Y200.61 E13.52982
G1 X152.50 Y200.63 E13.56260
G1 X151.71 Y200.61 E13.59537
G1 X150.94 Y200.53 E13.62761
G1 X150.15 Y200.41 E13.66078
G1 X149.39 Y200.24 E13.69311
G1 X148.64 Y200.02 E13.72585
G1 X147.90 Y199.76 E13.75827
G1 X147.17 Y199.44 E13.79139
G1 X146.48 Y199.09 E13.82373
G1 X145.80 Y198.69 E13.85642
G1 X145.16 Y198.25 E13.88888
G1 X144.53 Y197.76 E13.92195
G1 X143.94 Y197.24 E13.95462
G1 X143.39 Y196.69 E13.98672
G1 X142.87 Y196.11 E14.01939
G1 X142.38 Y195.47 E14.05258
G1 X141.95 Y194.84 E14.08466
G1 X141.54 Y194.15 E14.11786
G1 X141.19 Y193.46 E14.15000
G1 X140.88 Y192.73 E14.18311
G1 X140.61 Y192.00 E14.21549
G1 X140.39 Y191.24 E14.24845
G1 X140.22 Y190.48 E14.28056
G1 X140.10 Y189.69 E14.31373
G1 X140.03 Y188.92 E14.34601
G1 X140.00 Y188.14 E14.37850
G1 X140.03 Y187.34 E14.41169
G1 X140.10 Y186.57 E14.44380
G1 X140.22 Y185.78 E14.47697
G1 X140.39 Y185.03 E14.50909
G1 X140.61 Y184.26 E14.54225
G1 X140.88 Y183.54 E14.57442
G1 X141.19 Y182.81 E14.60759
G1 X141.54 Y182.12 E14.63968
G1 X141.95 Y181.43 E14.67284
G1 X142.38 Y180.79 E14.70495
G1 X142.87 Y180.16 E14.73814
G1 X143.39 Y179.57 E14.77081
G1 X143.94 Y179.03 E14.80291
G1 X144.53 Y178.51 E14.83558
G0 F12000 X144.78 Y179.00
;TYPE:FILL
G1 F1800 X161.63 Y195.85 E15.82623
G0 F12000 X161.36 Y196.15
G1 F1800 X144.48 Y179.27 E16.81901
G0 F12000 X144.19 Y179.54
G1 F1800 X161.09 Y196.45 E17.81296
G0 F12000 X160.81 Y196.73
G1 F1800 X143.90 Y179.82 E18.80691
G0 F12000 X143.63 Y180.12
G1 F1800 X160.51 Y197.00 E19.79959
G0 F12000 X160.21 Y197.27
G1 F1800 X143.37 Y180.42 E20.79022
G0 F12000 X143.11 Y180.73
G1 F1800 X159.90 Y197.52 E21.77735
G0 F12000 X159.58 Y197.77
G1 F1800 X142.87 Y181.05 E22.76024
G0 F12000 X142.63 Y181.38
G1 F1800 X159.25 Y198.00 E23.73717
G0 F12000 X158.91 Y198.23
G1 F1800 X142.40 Y181.72 E24.70775
G0 F12000 X142.19 Y182.07
G1 F1800 X158.56 Y198.44 E25.66983
G0 F12000 X158.20 Y198.64
G1 F1800 X141.99 Y182.43 E26.62303
G0 F12000 X141.80 Y182.81
G1 F1800 X157.82 Y198.84 E27.56536
G0 F12000 X157.44 Y199.02
G1 F1800 X141.61 Y183.19 E28.49599
G0 F12000 X141.44 Y183.59
G1 F1800 X157.05 Y199.19 E29.41347
G0 F12000 X156.64 Y199.35
G1 F1800 X141.28 Y183.99 E30.31614
G0 F12000 X141.13 Y184.41
G1 F1800 X156.22 Y199.50 E31.20320
G0 F12000 X155.78 Y199.63
G1 F1800 X141.01 Y184.85 E32.07217
G0 F12000 X140.89 Y185.29
G1 F1800 X155.34 Y199.75 E32.92204
G0 F12000 X154.88 Y199.85
G1 F1800 X140.78 Y185.75 E33.75083
G0 F12000 X140.70 Y186.24
G1 F1800 X154.40 Y199.93 E34.55628
G0 F12000 X153.90 Y200.01
G1 F1800 X140.62 Y186.73 E35.33698
G0 F12000 X140.58 Y187.25
G1 F1800 X153.39 Y200.06 E36.09016
G0 F12000 X152.85 Y200.08
G1 F1800 X140.55 Y187.79 E36.81297
G0 F12000 X140.55 Y188.35
G1 F1800 X152.28 Y200.09 E37.50300
G0 F12000 X151.70 Y200.06
G1 F1800 X140.57 Y188.93 E38.15734
G0 F12000 X140.63 Y189.56
G1 F1800 X151.07 Y200.00 E38.77153
G0 F12000 X150.41 Y199.90
G1 F1800 X140.73 Y190.23 E39.34047
G0 F12000 X140.88 Y190.94
G1 F1800 X149.69 Y199.75 E39.85852
G0 F12000 X148.91 Y199.54
G1 F1800 X141.09 Y191.72 E40.31790
G0 F12000 X141.41 Y192.60
G1 F1800 X148.03 Y199.22 E40.70707
G0 F12000 X146.97 Y198.73
G1 F1800 X141.90 Y193.66 E41.00528
G0 F12000 X142.79 Y195.12
G1 F1800 X145.50 Y197.83 E41.16456
G0 F12000 X161.88 Y195.54
G1 F1800 X145.09 Y178.75 E42.15178
G0 F12000 X145.41 Y178.50
G1 F1800 X162.13 Y195.22 E43.13479
G0 F12000 X162.36 Y194.89
G1 F1800 X145.74 Y178.27 E44.11192
G0 F12000 X146.08 Y178.04
G1 F1800 X162.59 Y194.55 E45.08265
G0 F12000 X162.80 Y194.20
G1 F1800 X146.44 Y177.83 E46.04485
G0 F12000 X146.79 Y177.62
G1 F1800 X163.01 Y193.84 E46.99823
G0 F12000 X163.20 Y193.46
G1 F1800 X147.17 Y177.43 E47.94067
G0 F12000 X147.55 Y177.25
G1 F1800 X163.38 Y193.08 E48.87150
G0 F12000 X163.55 Y192.69
G1 F1800 X147.94 Y177.08 E49.78925
G0 F12000 X148.35 Y176.92
G1 F1800 X163.71 Y192.28 E50.69230
G0 F12000 X163.86 Y191.86
G1 F1800 X148.77 Y176.77 E51.57954
G0 F12000 X149.21 Y176.64
G1 F1800 X163.99 Y191.43 E52.44884
G0 F12000 X164.11 Y190.98
G1 F1800 X149.65 Y176.52 E53.29909
G0 F12000 X150.11 Y176.42
G1 F1800 X164.22 Y190.52 E54.12826
G0 F12000 X164.30 Y190.04
G1 F1800 X150.59 Y176.33 E54.93418
G0 F12000 X151.09 Y176.26
G1 F1800 X164.37 Y189.55 E55.71547
G0 F12000 X164.42 Y189.03
G1 F1800 X151.60 Y176.21 E56.46914
G0 F12000 X152.14 Y176.19
G1 F1800 X164.45 Y188.49 E57.19251
G0 F12000 X164.45 Y187.93
G1 F1800 X152.71 Y176.18 E57.88313
G0 F12000 X153.29 Y176.20
G1 F1800 X164.43 Y187.34 E58.53821
G0 F12000 X164.37 Y186.72
G1 F1800 X153.91 Y176.26 E59.15316
G0 F12000 X154.58 Y176.36
G1 F1800 X164.27 Y186.05 E59.72301
G0 F12000 X164.12 Y185.34
G1 F1800 X155.29 Y176.51 E60.24207
G0 F12000 X156.08 Y176.72
G1 F1800 X163.91 Y184.56 E60.70259
G0 F12000 X163.60 Y183.68
G1 F1800 X156.95 Y177.03 E61.09335
G0 F12000 X158.01 Y177.52
G1 F1800 X163.11 Y182.63 E61.39344
G0 F12000 X162.22 Y181.18
G1 F1800 X159.46 Y178.41 E61.55619
;LAYER:1
G0 F12000 X159.61 Y178.34 Z0.40
;TYPE:WALL-INNER
G1 F2820 X160.21 Y178.81 E61.57530
G1 X160.79 Y179.32 E61.59444
G1 X161.31 Y179.85 E61.61307
G1 X161.82 Y180.42 E61.63221
G1 X162.29 Y181.03 E61.65132
G1 X162.71 Y181.65 E61.67002
G1 X163.10 Y182.30 E61.68899
G1 X163.45 Y182.98 E61.70802
G1 X163.75 Y183.68 E61.72695
G1 X164.01 Y184.40 E61.74611
G1 X164.22 Y185.12 E61.76474
G1 X164.39 Y185.87 E61.78399
G1 X164.50 Y186.63 E61.80310
G1 X164.57 Y187.35 E61.82134
G1 X164.60 Y188.13 E61.84079
G1 X164.57 Y188.90 E61.86000
G1 X164.50 Y189.64 E61.87844
G1 X164.39 Y190.40 E61.89756
G1 X164.22 Y191.15 E61.91680
G1 X164.01 Y191.87 E61.93543
G1 X163.75 Y192.59 E61.95460
G1 X163.45 Y193.29 E61.97353
G1 X163.10 Y193.97 E61.99256
G1 X162.71 Y194.62 E62.01155
G1 X162.29 Y195.24 E62.03022
G1 X161.82 Y195.85 E62.04934
G1 X161.31 Y196.42 E62.06848
G1 X160.79 Y196.95 E62.08710
G1 X160.21 Y197.46 E62.10624
G1 X159.61 Y197.92 E62.12514
G1 X158.98 Y198.35 E62.14414
G1 X158.33 Y198.74 E62.16314
G1 X157.65 Y199.08 E62.18206
G1 X156.96 Y199.38 E62.20098
G1 X156.23 Y199.64 E62.22015
G1 X155.52 Y199.85 E62.23878
G1 X154.76 Y200.02 E62.25802
G1 X154.01 Y200.14 E62.27714
G1 X153.27 Y200.21 E62.29555
G1 X152.50 Y200.23 E62.31480
G1 X151.73 Y200.21 E62.33404
G1 X150.99 Y200.14 E62.35245
G1 X150.24 Y200.02 E62.37157
G1 X149.48 Y199.85 E62.39082
G1 X148.77 Y199.64 E62.40945
G1 X148.04 Y199.38 E62.42861
G1 X147.35 Y199.08 E62.44754
G1 X146.67 Y198.74 E62.46646
G1 X146.02 Y198.35 E62.48546
G1 X145.39 Y197.92 E62.50445
G1 X144.79 Y197.46 E62.52335
G1 X144.21 Y196.95 E62.54249
G1 X143.69 Y196.42 E62.56112
G1 X143.18 Y195.85 E62.58026
G1 X142.71 Y195.24 E62.59937
G1 X142.29 Y194.62 E62.61804
G1 X141.90 Y193.97 E62.63704
G1 X141.55 Y193.29 E62.65607
G1 X141.25 Y192.59 E62.67499
G1 X140.99 Y191.87 E62.69416
G1 X140.78 Y191.15 E62.71279
G1 X140.61 Y190.40 E62.73204
G1 X140.50 Y189.64 E62.75115
G1 X140.43 Y188.90 E62.76959
G1 X140.40 Y188.13 E62.78881
G1 X140.43 Y187.35 E62.80825
G1 X140.50 Y186.63 E62.82649
G1 X140.61 Y185.87 E62.84561
G1 X140.78 Y185.12 E62.86485
G1 X140.99 Y184.40 E62.88348
G1 X141.25 Y183.68 E62.90265
G1 X141.55 Y182.98 E62.92157
G1 X141.90 Y182.30 E62.94061
G1 X142.29 Y181.65 E62.95957
G1 X142.71 Y181.03 E62.97827
G1 X143.18 Y180.42 E62.99738
G1 X143.69 Y179.85 E63.01652
G1 X144.21 Y179.32 E63.03515
G1 X144.79 Y178.81 E63.05429
G1 X145.39 Y178.34 E63.07340
G1 X146.01 Y177.92 E63.09208
G1 X146.67 Y177.53 E63.11107
G1 X147.35 Y177.19 E63.13010
G1 X148.04 Y176.88 E63.14903
G1 X148.77 Y176.62 E63.16830
G1 X149.49 Y176.41 E63.18702
G1 X150.22 Y176.25 E63.20576
G1 X150.99 Y176.13 E63.22518
G1 X151.73 Y176.06 E63.24362
G1 X152.50 Y176.03 E63.26284
G1 X153.27 Y176.06 E63.28206
G1 X154.01 Y176.13 E63.30050
G1 X154.78 Y176.25 E63.31992
G1 X155.51 Y176.41 E63.33866
G1 X156.23 Y176.62 E63.35738
G1 X156.96 Y176.88 E63.37665
G1 X157.65 Y177.19 E63.39558
G1 X158.33 Y177.53 E63.41461
G1 X158.99 Y177.92 E63.43360
G1 X159.61 Y178.34 E63.45227
G0 F12000 X159.84 Y178.02
;TYPE:WALL-OUTER
G1 F2820 X160.47 Y178.51 E63.47219
G1 X161.06 Y179.03 E63.49179
G1 X161.61 Y179.57 E63.51105
G1 X162.13 Y180.16 E63.53065
G1 X162.62 Y180.79 E63.55056
G1 X163.05 Y181.43 E63.56983
G1 X163.46 Y182.12 E63.58973
G1 X163.81 Y182.81 E63.60898
G1 X164.12 Y183.54 E63.62888
G1 X164.39 Y184.26 E63.64818
G1 X164.61 Y185.02 E63.66778
G1 X164.78 Y185.78 E63.68735
G1 X164.90 Y186.57 E63.70725
G1 X164.97 Y187.34 E63.72652
G1 X165.00 Y188.13 E63.74614
G1 X164.97 Y188.92 E63.76593
G1 X164.90 Y189.69 E63.78530
G1 X164.78 Y190.48 E63.80520
G1 X164.61 Y191.24 E63.82447
G1 X164.39 Y192.00 E63.84424
G1 X164.12 Y192.73 E63.86367
G1 X163.81 Y193.46 E63.88353
G1 X163.46 Y194.15 E63.90282
G1 X163.05 Y194.84 E63.92274
G1 X162.62 Y195.47 E63.94199
G1 X162.13 Y196.11 E63.96190
G1 X161.61 Y196.69 E63.98150
G1 X161.06 Y197.24 E64.00076
G1 X160.47 Y197.76 E64.02036
G1 X159.84 Y198.25 E64.04021
G1 X159.20 Y198.69 E64.05968
G1 X158.52 Y199.09 E64.07930
G1 X157.83 Y199.44 E64.09870
G1 X157.10 Y199.76 E64.11857
G1 X156.36 Y200.02 E64.13802
G1 X155.61 Y200.24 E64.15767
G1 X154.85 Y200.41 E64.17707
G1 X154.06 Y200.53 E64.19697
G1 X153.29 Y200.61 E64.21631
G1 X152.50 Y200.63 E64.23598
G1 X151.71 Y200.61 E64.25565
G1 X150.94 Y200.53 E64.27499
G1 X150.15 Y200.41 E64.29489
G1 X149.39 Y200.24 E64.31428
G1 X148.64 Y200.02 E64.33393
G1 X147.90 Y199.76 E64.35338
G1 X147.17 Y199.44 E64.37326
G1 X146.48 Y199.09 E64.39266
G1 X145.80 Y198.69 E64.41227
G1 X145.16 Y198.25 E64.43175
G1 X144.53 Y197.76 E64.45159
G1 X143.94 Y197.24 E64.47119
G1 X143.39 Y196.69 E64.49045
G1 X142.87 Y196.11 E64.51005
G1 X142.38 Y195.47 E64.52997
G1 X141.95 Y194.84 E64.54922
G1 X141.54 Y194.15 E64.56913
G1 X141.19 Y193.46 E64.58842
G1 X140.88 Y192.73 E64.60829
G1 X140.61 Y192.00 E64.62772
G1 X140.39 Y191.24 E64.64749
G1 X140.22 Y190.48 E64.66676
G1 X140.10 Y189.69 E64.68666
G1 X140.03 Y188.92 E64.70603
G1 X140.00 Y188.14 E64.72552
G1 X140.03 Y187.34 E64.74543
G1 X140.10 Y186.57 E64.76470
G1 X140.22 Y185.78 E64.78460
G1 X140.39 Y185.03 E64.80387
G1 X140.61 Y184.26 E64.82377
G1 X140.88 Y183.54 E64.84307
G1 X141.19 Y182.81 E64.86297
G1 X141.54 Y182.12 E64.88223
G1 X141.95 Y181.43 E64.90213
G1 X142.38 Y180.79 E64.92139
G1 X142.87 Y180.16 E64.94131
G1 X143.39 Y179.57 E64.96091
G1 X143.94 Y179.03 E64.98017
G1 X144.53 Y178.51 E64.99977
G1 X145.16 Y178.02 E65.01968
G1 X145.80 Y177.58 E65.03893
G1 X146.48 Y177.18 E65.05870
G1 X147.17 Y176.83 E65.07810
G1 X147.90 Y176.51 E65.09800
G1 X148.64 Y176.25 E65.11743
G1 X149.39 Y176.03 E65.13707
G1 X150.15 Y175.86 E65.15647
G1 X150.94 Y175.73 E65.17637
G1 X151.71 Y175.66 E65.19574
G1 X152.50 Y175.63 E65.21538
G1 X153.29 Y175.66 E65.23502
G1 X154.06 Y175.73 E65.25439
G1 X154.85 Y175.86 E65.27429
G1 X155.61 Y176.03 E65.29369
G1 X156.36 Y176.25 E65.31333
G1 X157.10 Y176.51 E65.33276
G1 X157.83 Y176.83 E65.35266
G1 X158.52 Y177.18 E65.37206
G1 X159.20 Y177.58 E65.39183
G1 X159.84 Y178.02 E65.41108
G0 F12000 X159.53 Y178.46
;TYPE:FILL
G1 F2820 X142.83 Y195.17 E66.00043
G0 F12000 X143.07 Y195.49
G1 F2820 X159.85 Y178.71 E66.59233
G0 F12000 X160.17 Y178.96
G1 F2820 X143.33 Y195.80 E67.18655
G0 F12000 X143.59 Y196.10
G1 F2820 X160.47 Y179.22 E67.78200
G0 F12000 X160.77 Y179.49
G1 F2820 X143.86 Y196.40 E68.37839
G0 F12000 X144.14 Y196.68
G1 F2820 X161.05 Y179.78 E68.97478
G0 F12000 X161.32 Y180.07
G1 F2820 X144.43 Y196.96 E69.57065
G0 F12000 X144.73 Y197.22
G1 F2820 X161.59 Y180.37 E70.16526
G0 F12000 X161.84 Y180.68
G1 F2820 X145.04 Y197.48 E70.75793
G0 F12000 X145.36 Y197.72
G1 F2820 X162.09 Y181.00 E71.34809
G0 F12000 X162.33 Y181.33
G1 F2820 X145.69 Y197.96 E71.93488
G0 F12000 X146.03 Y198.19
G1 F2820 X162.56 Y181.66 E72.51791
G0 F12000 X162.77 Y182.02
G1 F2820 X146.38 Y198.40 E73.09601
G0 F12000 X146.74 Y198.61
G1 F2820 X162.98 Y182.37 E73.66899
G0 F12000 X163.17 Y182.75
G1 F2820 X147.11 Y198.80 E74.23546
G0 F12000 X147.49 Y198.99
G1 F2820 X163.36 Y183.12 E74.79516
G0 F12000 X163.53 Y183.52
G1 F2820 X147.88 Y199.16 E75.34701
G0 F12000 X148.29 Y199.32
G1 F2820 X163.69 Y183.92 E75.89021
G0 F12000 X163.84 Y184.34
G1 F2820 X148.71 Y199.47 E76.42404
G0 F12000 X149.14 Y199.60
G1 F2820 X163.97 Y184.77 E76.94727
G0 F12000 X164.09 Y185.22
G1 F2820 X149.58 Y199.73 E77.45933
G0 F12000 X150.04 Y199.83
G1 F2820 X164.20 Y185.68 E77.95870
G0 F12000 X164.29 Y186.15
G1 F2820 X150.52 Y199.92 E78.44441
G0 F12000 X151.01 Y200.00
G1 F2820 X164.37 Y186.64 E78.91561
G0 F12000 X164.41 Y187.16
G1 F2820 X151.53 Y200.05 E79.37031
G0 F12000 X152.06 Y200.08
G1 F2820 X164.44 Y187.69 E79.80711
G0 F12000 X164.45 Y188.25
G1 F2820 X152.62 Y200.09 E80.22470
G0 F12000 X153.20 Y200.07
G1 F2820 X164.44 Y188.83 E80.62102
G0 F12000 X164.38 Y189.45
G1 F2820 X153.82 Y200.01 E80.99359
G0 F12000 X154.48 Y199.92
G1 F2820 X164.29 Y190.11 E81.33963
G0 F12000 X164.15 Y190.82
G1 F2820 X155.19 Y199.78 E81.65582
G0 F12000 X155.96 Y199.58
G1 F2820 X163.94 Y191.59 E81.93759
G0 F12000 X163.65 Y192.45
G1 F2820 X156.81 Y199.28 E82.17875
G0 F12000 X157.83 Y198.83
G1 F2820 X163.20 Y193.47 E82.36792
G0 F12000 X162.41 Y194.82
G1 F2820 X159.19 Y198.04 E82.48125
G0 F12000 X142.60 Y194.83
G1 F2820 X159.20 Y178.23 E83.06686
G0 F12000 X158.86 Y178.00
G1 F2820 X142.37 Y194.49 E83.64847
G0 F12000 X142.16 Y194.14
G1 F2820 X158.50 Y177.79 E84.22498
G0 F12000 X158.14 Y177.59
G1 F2820 X141.96 Y193.78 E84.79593
G0 F12000 X141.77 Y193.40
G1 F2820 X157.77 Y177.40 E85.36034
G0 F12000 X157.38 Y177.22
G1 F2820 X141.59 Y193.01 E85.91751
G0 F12000 X141.42 Y192.62
G1 F2820 X156.99 Y177.05 E86.46684
G0 F12000 X156.58 Y176.90
G1 F2820 X141.26 Y192.21 E87.00703
G0 F12000 X141.12 Y191.79
G1 F2820 X156.16 Y176.75 E87.53771
G0 F12000 X155.72 Y176.62
G1 F2820 X140.99 Y191.35 E88.05746
G0 F12000 X140.87 Y190.90
G1 F2820 X155.27 Y176.50 E88.56546
G0 F12000 X154.81 Y176.40
G1 F2820 X140.77 Y190.44 E89.06081
G0 F12000 X140.69 Y189.96
G1 F2820 X154.32 Y176.32 E89.54185
G0 F12000 X153.83 Y176.25
G1 F2820 X140.62 Y189.46 E90.00780
G0 F12000 X140.57 Y188.94
G1 F2820 X153.31 Y176.20 E90.45724
G0 F12000 X152.76 Y176.18
G1 F2820 X140.55 Y188.40 E90.88810
G0 F12000 X140.55 Y187.83
G1 F2820 X152.20 Y176.18 E91.29890
G0 F12000 X151.60 Y176.21
G1 F2820 X140.58 Y187.24 E91.68789
G0 F12000 X140.64 Y186.61
G1 F2820 X150.98 Y176.27 E92.05257
G0 F12000 X150.31 Y176.38
G1 F2820 X140.75 Y185.94 E92.38982
G0 F12000 X140.90 Y185.21
G1 F2820 X149.58 Y176.54 E92.69593
G0 F12000 X148.78 Y176.77
G1 F2820 X141.13 Y184.42 E92.96594
G0 F12000 X141.47 Y183.51
G1 F2820 X147.88 Y177.11 E93.19192
G0 F12000 X146.80 Y177.62
G1 F2820 X141.99 Y182.43 E93.36169
G0 F12000 X143.07 Y180.78
G1 F2820 X145.15 Y178.71 E93.43477
;LAYER:2
G0 F12000 X144.79 Y178.81 Z0.55
;TYPE:WALL-INNER
G1 F3900 X145.39 Y178.34 E93.45388
G1 X146.01 Y177.92 E93.47256
G1 X146.67 Y177.53 E93.49155
G1 X147.35 Y177.19 E93.51058
G1 X148.04 Y176.88 E93.52950
G1 X148.77 Y176.62 E93.54877
G1 X149.49 Y176.41 E93.56750
G1 X150.22 Y176.25 E93.58624
G1 X150.99 Y176.13 E93.60566
G1 X151.73 Y176.06 E93.62410
G1 X152.50 Y176.03 E93.64332
G1 X153.27 Y176.06 E93.66253
G1 X154.01 Y176.13 E93.68097
G1 X154.78 Y176.25 E93.70039
G1 X155.51 Y176.41 E93.71914
G1 X156.23 Y176.62 E93.73786
G1 X156.96 Y176.88 E93.75713
G1 X157.65 Y177.19 E93.77605
G1 X158.33 Y177.53 E93.79509
G1 X158.99 Y177.92 E93.81408
G1 X159.61 Y178.34 E93.83275
G1 X160.21 Y178.81 E93.85187
G1 X160.79 Y179.32 E93.87101
G1 X161.31 Y179.85 E93.88963
G1 X161.82 Y180.42 E93.90877
G1 X162.29 Y181.03 E93.92789
G1 X162.71 Y181.65 E93.94658
G1 X163.10 Y182.30 E93.96555
G1 X163.45 Y182.98 E93.98458
G1 X163.75 Y183.68 E94.00351
G1 X164.01 Y184.40 E94.02268
G1 X164.22 Y185.12 E94.04131
G1 X164.39 Y185.87 E94.06055
G1 X164.50 Y186.63 E94.07967
G1 X164.57 Y187.35 E94.09791
G1 X164.60 Y188.13 E94.11735
G1 X164.57 Y188.90 E94.13657
G1 X164.50 Y189.64 E94.15501
G1 X164.39 Y190.40 E94.17412
G1 X164.22 Y191.15 E94.19337
G1 X164.01 Y191.87 E94.21200
G1 X163.75 Y192.59 E94.23116
G1 X163.45 Y193.29 E94.25009
G1 X163.10 Y193.97 E94.26912
G1 X162.71 Y194.62 E94.28811
G1 X162.29 Y195.24 E94.30679
G1 X161.82 Y195.85 E94.32590
G1 X161.31 Y196.42 E94.34504
G1 X160.79 Y196.95 E94.36367
G1 X160.21 Y197.46 E94.38281
G1 X159.61 Y197.92 E94.40171
G1 X158.98 Y198.35 E94.42070
G1 X158.33 Y198.74 E94.43970
G1 X157.65 Y199.08 E94.45862
G1 X156.96 Y199.38 E94.47754
G1 X156.23 Y199.64 E94.49671
G1 X155.52 Y199.85 E94.51534
G1 X154.76 Y200.02 E94.53459
G1 X154.01 Y200.14 E94.55370
G1 X153.27 Y200.21 E94.57212
G1 X152.50 Y200.23 E94.59136
G1 X151.73 Y200.21 E94.61060
G1 X150.99 Y200.14 E94.62902
G1 X150.24 Y200.02 E94.64813
G1 X149.48 Y199.85 E94.66738
G1 X148.77 Y199.64 E94.68601
G1 X148.04 Y199.38 E94.70517
G1 X147.35 Y199.08 E94.72410
G1 X146.67 Y198.74 E94.74302
G1 X146.02 Y198.35 E94.76202
G1 X145.39 Y197.92 E94.78101
G1 X144.79 Y197.46 E94.79991
G1 X144.21 Y196.95 E94.81905
G1 X143.69 Y196.42 E94.83768
G1 X143.18 Y195.85 E94.85682
G1 X142.71 Y195.24 E94.87593
G1 X142.29 Y194.62 E94.89461
G1 X141.90 Y193.97 E94.91360
G1 X141.55 Y193.29 E94.93263
G1 X141.25 Y192.59 E94.95156
G1 X140.99 Y191.87 E94.97072
G1 X140.78 Y191.15 E94.98935
G1 X140.61 Y190.40 E95.00860
G1 X140.50 Y189.64 E95.02771
G1 X140.43 Y188.90 E95.04615
G1 X140.40 Y188.13 E95.06537
G1 X140.43 Y187.35 E95.08481
G1 X140.50 Y186.63 E95.10305
G1 X140.61 Y185.87 E95.12217
G1 X140.78 Y185.12 E95.14141
G1 X140.99 Y184.40 E95.16004
G1 X141.25 Y183.68 E95.17921
G1 X141.55 Y182.98 E95.19814
G1 X141.90 Y182.30 E95.21717
G1 X142.29 Y181.65 E95.23614
G1 X142.71 Y181.03 E95.25483
G1 X143.18 Y180.42 E95.27395
G1 X143.69 Y179.85 E95.29309
G1 X144.21 Y179.32 E95.31171
G1 X144.79 Y178.81 E95.33085
G0 F12000 X144.53 Y178.51
;TYPE:WALL-OUTER
G1 F3900 X145.16 Y178.02 E95.35077
G1 X145.80 Y177.58 E95.37001
G1 X146.48 Y177.18 E95.38979
G1 X147.17 Y176.83 E95.40919
G1 X147.90 Y176.51 E95.42909
G1 X148.64 Y176.25 E95.44851
G1 X149.39 Y176.03 E95.46815
G1 X150.15 Y175.86 E95.48756
G1 X150.94 Y175.73 E95.50745
G1 X151.71 Y175.66 E95.52682
G1 X152.50 Y175.63 E95.54646
G1 X153.29 Y175.66 E95.56611
G1 X154.06 Y175.73 E95.58547
G1 X154.85 Y175.86 E95.60537
G1 X155.61 Y176.03 E95.62478
G1 X156.36 Y176.25 E95.64442
G1 X157.10 Y176.51 E95.66384
G1 X157.83 Y176.83 E95.68374
G1 X158.52 Y177.18 E95.70314
G1 X159.20 Y177.58 E95.72291
G1 X159.84 Y178.02 E95.74216
G1 X160.47 Y178.51 E95.76208
G1 X161.06 Y179.03 E95.78168
G1 X161.61 Y179.57 E95.80094
G1 X162.13 Y180.16 E95.82054
G1 X162.62 Y180.79 E95.84045
G1 X163.05 Y181.43 E95.85972
G1 X163.46 Y182.12 E95.87962
G1 X163.81 Y182.81 E95.89887
G1 X164.12 Y183.54 E95.91877
G1 X164.39 Y184.26 E95.93807
G1 X164.61 Y185.02 E95.95766
G1 X164.78 Y185.78 E95.97724
G1 X164.90 Y186.57 E95.99714
G1 X164.97 Y187.34 E96.01641
G1 X165.00 Y188.13 E96.03603
G1 X164.97 Y188.92 E96.05582
G1 X164.90 Y189.69 E96.07519
G1 X164.78 Y190.48 E96.09509
G1 X164.61 Y191.24 E96.11435
G1 X164.39 Y192.00 E96.13413
G1 X164.12 Y192.73 E96.15356
G1 X163.81 Y193.46 E96.17342
G1 X163.46 Y194.15 E96.19271
G1 X163.05 Y194.84 E96.21263
G1 X162.62 Y195.47 E96.23188
G1 X162.13 Y196.11 E96.25179
G1 X161.61 Y196.69 E96.27139
G1 X161.06 Y197.24 E96.29065
G1 X160.47 Y197.76 E96.31025
G1 X159.84 Y198.25 E96.33009
G1 X159.20 Y198.69 E96.34957
G1 X158.52 Y199.09 E96.36919
G1 X157.83 Y199.44 E96.38859
G1 X157.10 Y199.76 E96.40846
G1 X156.36 Y200.02 E96.42791
G1 X155.61 Y200.24 E96.44756
G1 X154.85 Y200.41 E96.46696
G1 X154.06 Y200.53 E96.48686
G1 X153.29 Y200.61 E96.50620
G1 X152.50 Y200.63 E96.52587
G1 X151.71 Y200.61 E96.54553
G1 X150.94 Y200.53 E96.56488
G1 X150.15 Y200.41 E96.58478
G1 X149.39 Y200.24 E96.60417
G1 X148.64 Y200.02 E96.62382
G1 X147.90 Y199.76 E96.64327
G1 X147.17 Y199.44 E96.66315
G1 X146.48 Y199.09 E96.68255
G1 X145.80 Y198.69 E96.70216
G1 X145.16 Y198.25 E96.72164
G1 X144.53 Y197.76 E96.74148
G1 X143.94 Y197.24 E96.76108
G1 X143.39 Y196.69 E96.78034
G1 X142.87 Y196.11 E96.79994
G1 X142.38 Y195.47 E96.81986
G1 X141.95 Y194.84 E96.83910
G1 X141.54 Y194.15 E96.85902
G1 X141.19 Y193.46 E96.87831
G1 X140.88 Y192.73 E96.89818
G1 X140.61 Y192.00 E96.91760
G1 X140.39 Y191.24 E96.93738
G1 X140.22 Y190.48 E96.95665
G1 X140.10 Y189.69 E96.97655
G1 X140.03 Y188.92 E96.99592
G1 X140.00 Y188.14 E97.01541
G1 X140.03 Y187.34 E97.03532
G1 X140.10 Y186.57 E97.05459
G1 X140.22 Y185.78 E97.07449
G1 X140.39 Y185.03 E97.09376
G1 X140.61 Y184.26 E97.11366
G1 X140.88 Y183.54 E97.13296
G1 X141.19 Y182.81 E97.15286
G1 X141.54 Y182.12 E97.17212
G1 X141.95 Y181.43 E97.19201
G1 X142.38 Y180.79 E97.21128
G1 X142.87 Y180.16 E97.23120
G1 X143.39 Y179.57 E97.25080
G1 X143.94 Y179.03 E97.27006
G1 X144.53 Y178.51 E97.28966
G0 F12000 X144.78 Y179.00
;TYPE:FILL
G1 F3900 X161.63 Y195.85 E97.88405
G0 F12000 X161.36 Y196.15
G1 F3900 X144.48 Y179.27 E98.47971
G0 F12000 X144.19 Y179.54
G1 F3900 X161.09 Y196.45 E99.07608
G0 F12000 X160.81 Y196.73
G1 F3900 X143.90 Y179.82 E99.67245
G0 F12000 X143.63 Y180.12
G1 F3900 X160.51 Y197.00 E100.26806
G0 F12000 X160.21 Y197.27
G1 F3900 X143.37 Y180.42 E100.86244
G0 F12000 X143.11 Y180.73
G1 F3900 X159.90 Y197.52 E101.45472
G0 F12000 X159.58 Y197.77
G1 F3900 X142.87 Y181.05 E102.04446
G0 F12000 X142.63 Y181.38
G1 F3900 X159.25 Y198.00 E102.63061
G0 F12000 X158.91 Y198.23
G1 F3900 X142.40 Y181.72 E103.21296
G0 F12000 X142.19 Y182.07
G1 F3900 X158.56 Y198.44 E103.79021
G0 F12000 X158.20 Y198.64
G1 F3900 X141.99 Y182.43 E104.36213
G0 F12000 X141.80 Y182.81
G1 F3900 X157.82 Y198.84 E104.92753
G0 F12000 X157.44 Y199.02
G1 F3900 X141.61 Y183.19 E105.48590
G0 F12000 X141.44 Y183.59
G1 F3900 X157.05 Y199.19 E106.03639
G0 F12000 X156.64 Y199.35
G1 F3900 X141.28 Y183.99 E106.57799
G0 F12000 X141.13 Y184.41
G1 F3900 X156.22 Y199.50 E107.11023
G0 F12000 X155.78 Y199.63
G1 F3900 X141.01 Y184.85 E107.63161
G0 F12000 X140.89 Y185.29
G1 F3900 X155.34 Y199.75 E108.14154
G0 F12000 X154.88 Y199.85
G1 F3900 X140.78 Y185.75 E108.63881
G0 F12000 X140.70 Y186.24
G1 F3900 X154.40 Y199.93 E109.12208
G0 F12000 X153.90 Y200.01
G1 F3900 X140.62 Y186.73 E109.59050
G0 F12000 X140.58 Y187.25
G1 F3900 X153.39 Y200.06 E110.04240
G0 F12000 X152.85 Y200.08
G1 F3900 X140.55 Y187.79 E110.47609
G0 F12000 X140.55 Y188.35
G1 F3900 X152.28 Y200.09 E110.89011
G0 F12000 X151.70 Y200.06
G1 F3900 X140.57 Y188.93 E111.28272
G0 F12000 X140.63 Y189.56
G1 F3900 X151.07 Y200.00 E111.65123
G0 F12000 X150.41 Y199.90
G1 F3900 X140.73 Y190.23 E111.99259
G0 F12000 X140.88 Y190.94
G1 F3900 X149.69 Y199.75 E112.30342
G0 F12000 X148.91 Y199.54
G1 F3900 X141.09 Y191.72 E112.57905
G0 F12000 X141.41 Y192.60
G1 F3900 X148.03 Y199.22 E112.81255
G0 F12000 X146.97 Y198.73
G1 F3900 X141.90 Y193.66 E112.99148
G0 F12000 X142.79 Y195.12
G1 F3900 X145.50 Y197.83 E113.08705
G0 F12000 X161.88 Y195.54
G1 F3900 X145.09 Y178.75 E113.67938
G0 F12000 X145.41 Y178.50
G1 F3900 X162.13 Y195.22 E114.26918
G0 F12000 X162.36 Y194.89
G1 F3900 X145.74 Y178.27 E114.85546
G0 F12000 X146.08 Y178.04
G1 F3900 X162.59 Y194.55 E115.43790
G0 F12000 X162.80 Y194.20
G1 F3900 X146.44 Y177.83 E116.01522
G0 F12000 X146.79 Y177.62
G1 F3900 X163.01 Y193.84 E116.58725
G0 F12000 X163.20 Y193.46
G1 F3900 X147.17 Y177.43 E117.15271
G0 F12000 X147.55 Y177.25
G1 F3900 X163.38 Y193.08 E117.71121
G0 F12000 X163.55 Y192.69
G1 F3900 X147.94 Y177.08 E118.26186
G0 F12000 X148.35 Y176.92
G1 F3900 X163.71 Y192.28 E118.80369
G0 F12000 X163.86 Y191.86
G1 F3900 X148.77 Y176.77 E119.33603
G0 F12000 X149.21 Y176.64
G1 F3900 X163.99 Y191.43 E119.85761
G0 F12000 X164.11 Y190.98
G1 F3900 X149.65 Y176.52 E120.36776
G0 F12000 X150.11 Y176.42
G1 F3900 X164.22 Y190.52 E120.86527
G0 F12000 X164.30 Y190.04
G1 F3900 X150.59 Y176.33 E121.34882
G0 F12000 X151.09 Y176.26
G1 F3900 X164.37 Y189.55 E121.81759
G0 F12000 X164.42 Y189.03
G1 F3900 X151.60 Y176.21 E122.26980
G0 F12000 X152.14 Y176.19
G1 F3900 X164.45 Y188.49 E122.70382
G0 F12000 X164.45 Y187.93
G1 F3900 X152.71 Y176.18 E123.11819
G0 F12000 X153.29 Y176.20
G1 F3900 X164.43 Y187.34 E123.51124
G0 F12000 X164.37 Y186.72
G1 F3900 X153.91 Y176.26 E123.88021
G0 F12000 X154.58 Y176.36
G1 F3900 X164.27 Y186.05 E124.22212
G0 F12000 X164.12 Y185.34
G1 F3900 X155.29 Y176.51 E124.53355
G0 F12000 X156.08 Y176.72
G1 F3900 X163.91 Y184.56 E124.80986
G0 F12000 X163.60 Y183.68
G1 F3900 X156.95 Y177.03 E125.04432
G0 F12000 X158.01 Y177.52
G1 F3900 X163.11 Y182.63 E125.22437
G0 F12000 X162.22 Y181.18
G1 F3900 X159.46 Y178.41 E125.32202
;LAYER:3
G0 F12000 X159.61 Y178.34 Z0.70
;TYPE:WALL-INNER
G1 F4920 X160.21 Y178.81 E125.34114
G1 X160.79 Y179.32 E125.36028
G1 X161.31 Y179.85 E125.37890
G1 X161.82 Y180.42 E125.39804
G1 X162.29 Y181.03 E125.41716
G1 X162.71 Y181.65 E125.43585
G1 X163.10 Y182.30 E125.45482
G1 X163.45 Y182.98 E125.47385
G1 X163.75 Y183.68 E125.49278
G1 X164.01 Y184.40 E125.51195
G1 X164.22 Y185.12 E125.53058
G1 X164.39 Y185.87 E125.54982
G1 X164.50 Y186.63 E125.56894
G1 X164.57 Y187.35 E125.58718
G1 X164.60 Y188.13 E125.60662
G1 X164.57 Y188.90 E125.62584
G1 X164.50 Y189.64 E125.64428
G1 X164.39 Y190.40 E125.66339
G1 X164.22 Y191.15 E125.68264
G1 X164.01 Y191.87 E125.70127
G1 X163.75 Y192.59 E125.72043
G1 X163.45 Y193.29 E125.73936
G1 X163.10 Y193.97 E125.75839
G1 X162.71 Y194.62 E125.77738
G1 X162.29 Y195.24 E125.79606
G1 X161.82 Y195.85 E125.81517
G1 X161.31 Y196.42 E125.83431
G1 X160.79 Y196.95 E125.85294
G1 X160.21 Y197.46 E125.87208
G1 X159.61 Y197.92 E125.89098
G1 X158.98 Y198.35 E125.90997
G1 X158.33 Y198.74 E125.92897
G1 X157.65 Y199.08 E125.94789
G1 X156.96 Y199.38 E125.96682
G1 X156.23 Y199.64 E125.98598
G1 X155.52 Y199.85 E126.00461
G1 X154.76 Y200.02 E126.02386
G1 X154.01 Y200.14 E126.04297
G1 X153.27 Y200.21 E126.06139
G1 X152.50 Y200.23 E126.08063
G1 X151.73 Y200.21 E126.09987
G1 X150.99 Y200.14 E126.11829
G1 X150.24 Y200.02 E126.13740
G1 X149.48 Y199.85 E126.15665
G1 X148.77 Y199.64 E126.17528
G1 X148.04 Y199.38 E126.19445
G1 X147.35 Y199.08 E126.21337
G1 X146.67 Y198.74 E126.23229
G1 X146.02 Y198.35 E126.25129
G1 X145.39 Y197.92 E126.27028
G1 X144.79 Y197.46 E126.28918
G1 X144.21 Y196.95 E126.30832
G1 X143.69 Y196.42 E126.32695
G1 X143.18 Y195.85 E126.34609
G1 X142.71 Y195.24 E126.36521
G1 X142.29 Y194.62 E126.38388
G1 X141.90 Y193.97 E126.40287
G1 X141.55 Y193.29 E126.42190
G1 X141.25 Y192.59 E126.44083
G1 X140.99 Y191.87 E126.45999
G1 X140.78 Y191.15 E126.47862
G1 X140.61 Y190.40 E126.49787
G1 X140.50 Y189.64 E126.51698
G1 X140.43 Y188.90 E126.53542
G1 X140.40 Y188.13 E126.55464
G1 X140.43 Y187.35 E126.57408
G1 X140.50 Y186.63 E126.59232
G1 X140.61 Y185.87 E126.61144
G1 X140.78 Y185.12 E126.63069
G1 X140.99 Y184.40 E126.64932
G1 X141.25 Y183.68 E126.66848
G1 X141.55 Y182.98 E126.68741
G1 X141.90 Y182.30 E126.70644
G1 X142.29 Y181.65 E126.72541
G1 X142.71 Y181.03 E126.74410
G1 X143.18 Y180.42 E126.76322
G1 X143.69 Y179.85 E126.78236
G1 X144.21 Y179.32 E126.80098
G1 X144.79 Y178.81 E126.82012
G1 X145.39 Y178.34 E126.83924
G1 X146.01 Y177.92 E126.85791
G1 X146.67 Y177.53 E126.87690
G1 X147.35 Y177.19 E126.89594
G1 X148.04 Y176.88 E126.91486
G1 X148.77 Y176.62 E126.93413
G1 X149.49 Y176.41 E126.95286
G1 X150.22 Y176.25 E126.97160
G1 X150.99 Y176.13 E126.99102
G1 X151.73 Y176.06 E127.00946
G1 X152.50 Y176.03 E127.02867
G1 X153.27 Y176.06 E127.04789
G1 X154.01 Y176.13 E127.06633
G1 X154.78 Y176.25 E127.08575
G1 X155.51 Y176.41 E127.10449
G1 X156.23 Y176.62 E127.12322
G1 X156.96 Y176.88 E127.14249
G1 X157.65 Y177.19 E127.16141
G1 X158.33 Y177.53 E127.18044
G1 X158.99 Y177.92 E127.19943
G1 X159.61 Y178.34 E127.21811
G0 F12000 X159.84 Y178.02
;TYPE:WALL-OUTER
G1 F4920 X160.47 Y178.51 E127.23802
G1 X161.06 Y179.03 E127.25762
G1 X161.61 Y179.57 E127.27688
G1 X162.13 Y180.16 E127.29648
G1 X162.62 Y180.79 E127.31640
G1 X163.05 Y181.43 E127.33566
G1 X163.46 Y182.12 E127.35556
G1 X163.81 Y182.81 E127.37482
G1 X164.12 Y183.54 E127.39472
G1 X164.39 Y184.26 E127.41402
G1 X164.61 Y185.02 E127.43361
G1 X164.78 Y185.78 E127.45319
G1 X164.90 Y186.57 E127.47309
G1 X164.97 Y187.34 E127.49236
G1 X165.00 Y188.13 E127.51197
G1 X164.97 Y188.92 E127.53176
G1 X164.90 Y189.69 E127.55113
G1 X164.78 Y190.48 E127.57103
G1 X164.61 Y191.24 E127.59030
G1 X164.39 Y192.00 E127.61007
G1 X164.12 Y192.73 E127.62950
G1 X163.81 Y193.46 E127.64937
G1 X163.46 Y194.15 E127.66866
G1 X163.05 Y194.84 E127.68857
G1 X162.62 Y195.47 E127.70782
G1 X162.13 Y196.11 E127.72774
G1 X161.61 Y196.69 E127.74734
G1 X161.06 Y197.24 E127.76660
G1 X160.47 Y197.76 E127.78620
G1 X159.84 Y198.25 E127.80604
G1 X159.20 Y198.69 E127.82552
G1 X158.52 Y199.09 E127.84513
G1 X157.83 Y199.44 E127.86453
G1 X157.10 Y199.76 E127.88441
G1 X156.36 Y200.02 E127.90386
G1 X155.61 Y200.24 E127.92351
G1 X154.85 Y200.41 E127.94290
G1 X154.06 Y200.53 E127.96280
G1 X153.29 Y200.61 E127.98214
G1 X152.50 Y200.63 E128.00181
G1 X151.71 Y200.61 E128.02148
G1 X150.94 Y200.53 E128.04082
G1 X150.15 Y200.41 E128.06072
G1 X149.39 Y200.24 E128.08012
G1 X148.64 Y200.02 E128.09977
G1 X147.90 Y199.76 E128.11922
G1 X147.17 Y199.44 E128.13909
G1 X146.48 Y199.09 E128.15849
G1 X145.80 Y198.69 E128.17811
G1 X145.16 Y198.25 E128.19758
G1 X144.53 Y197.76 E128.21743
G1 X143.94 Y197.24 E128.23703
G1 X143.39 Y196.69 E128.25629
G1 X142.87 Y196.11 E128.27589
G1 X142.38 Y195.47 E128.29580
G1 X141.95 Y194.84 E128.31505
G1 X141.54 Y194.15 E128.33497
G1 X141.19 Y193.46 E128.35426
G1 X140.88 Y192.73 E128.37412
G1 X140.61 Y192.00 E128.39355
G1 X140.39 Y191.24 E128.41332
G1 X140.22 Y190.48 E128.43259
G1 X140.10 Y189.69 E128.45249
G1 X140.03 Y188.92 E128.47186
G1 X140.00 Y188.14 E128.49135
G1 X140.03 Y187.34 E128.51127
G1 X140.10 Y186.57 E128.53054
G1 X140.22 Y185.78 E128.55044
G1 X140.39 Y185.03 E128.56971
G1 X140.61 Y184.26 E128.58961
G1 X140.88 Y183.54 E128.60891
G1 X141.19 Y182.81 E128.62881
G1 X141.54 Y182.12 E128.64806
G1 X141.95 Y181.43 E128.66796
G1 X142.38 Y180.79 E128.68723
G1 X142.87 Y180.16 E128.70714
G1 X143.39 Y179.57 E128.72674
G1 X143.94 Y179.03 E128.74600
G1 X144.53 Y178.51 E128.76560
G1 X145.16 Y178.02 E128.78552
G1 X145.80 Y177.58 E128.80476
G1 X146.48 Y177.18 E128.82454
G1 X147.17 Y176.83 E128.84394
G1 X147.90 Y176.51 E128.86384
G1 X148.64 Y176.25 E128.88326
G1 X149.39 Y176.03 E128.90290
G1 X150.15 Y175.86 E128.92231
G1 X150.94 Y175.73 E128.94220
G1 X151.71 Y175.66 E128.96157
G1 X152.50 Y175.63 E128.98121
G1 X153.29 Y175.66 E129.00086
G1 X154.06 Y175.73 E129.02022
G1 X154.85 Y175.86 E129.04012
G1 X155.61 Y176.03 E129.05953
G1 X156.36 Y176.25 E129.07917
G1 X157.10 Y176.51 E129.09859
G1 X157.83 Y176.83 E129.11849
G1 X158.52 Y177.18 E129.13789
G1 X159.20 Y177.58 E129.15766
G1 X159.84 Y178.02 E129.17691
G0 F12000 X159.53 Y178.46
;TYPE:FILL
G1 F4920 X142.83 Y195.17 E129.76626
G0 F12000 X143.07 Y195.49
G1 F4920 X159.85 Y178.71 E130.35817
G0 F12000 X160.17 Y178.96
G1 F4920 X143.33 Y195.80 E130.95239
G0 F12000 X143.59 Y196.10
G1 F4920 X160.47 Y179.22 E131.54784
G0 F12000 X160.77 Y179.49
G1 F4920 X143.86 Y196.40 E132.14423
G0 F12000 X144.14 Y196.68
G1 F4920 X161.05 Y179.78 E132.74061
G0 F12000 X161.32 Y180.07
G1 F4920 X144.43 Y196.96 E133.33649
G0 F12000 X144.73 Y197.22
G1 F4920 X161.59 Y180.37 E133.93109
G0 F12000 X161.84 Y180.68
G1 F4920 X145.04 Y197.48 E134.52376
G0 F12000 X145.36 Y197.72
G1 F4920 X162.09 Y181.00 E135.11392
G0 F12000 X162.33 Y181.33
G1 F4920 X145.69 Y197.96 E135.70071
G0 F12000 X146.03 Y198.19
G1 F4920 X162.56 Y181.66 E136.28375
G0 F12000 X162.77 Y182.02
G1 F4920 X146.38 Y198.40 E136.86184
G0 F12000 X146.74 Y198.61
G1 F4920 X162.98 Y182.37 E137.43482
G0 F12000 X163.17 Y182.75
G1 F4920 X147.11 Y198.80 E138.00129
G0 F12000 X147.49 Y198.99
G1 F4920 X163.36 Y183.12 E138.56099
G0 F12000 X163.53 Y183.52
G1 F4920 X147.88 Y199.16 E139.11284
G0 F12000 X148.29 Y199.32
G1 F4920 X163.69 Y183.92 E139.65605
G0 F12000 X163.84 Y184.34
G1 F4920 X148.71 Y199.47 E140.18987
G0 F12000 X149.14 Y199.60
G1 F4920 X163.97 Y184.77 E140.71311
G0 F12000 X164.09 Y185.22
G1 F4920 X149.58 Y199.73 E141.22516
G0 F12000 X150.04 Y199.83
G1 F4920 X164.20 Y185.68 E141.72454
G0 F12000 X164.29 Y186.15
G1 F4920 X150.52 Y199.92 E142.21024
G0 F12000 X151.01 Y200.00
G1 F4920 X164.37 Y186.64 E142.68145
G0 F12000 X164.41 Y187.16
G1 F4920 X151.53 Y200.05 E143.13614
G0 F12000 X152.06 Y200.08
G1 F4920 X164.44 Y187.69 E143.57295
G0 F12000 X164.45 Y188.25
G1 F4920 X152.62 Y200.09 E143.99053
G0 F12000 X153.20 Y200.07
G1 F4920 X164.44 Y188.83 E144.38686
G0 F12000 X164.38 Y189.45
G1 F4920 X153.82 Y200.01 E144.75943
G0 F12000 X154.48 Y199.92
G1 F4920 X164.29 Y190.11 E145.10546
G0 F12000 X164.15 Y190.82
G1 F4920 X155.19 Y199.78 E145.42166
G0 F12000 X155.96 Y199.58
G1 F4920 X163.94 Y191.59 E145.70342
G0 F12000 X163.65 Y192.45
G1 F4920 X156.81 Y199.28 E145.94458
G0 F12000 X157.83 Y198.83
G1 F4920 X163.20 Y193.47 E146.13376
G0 F12000 X162.41 Y194.82
G1 F4920 X159.19 Y198.04 E146.24709
G0 F12000 X142.60 Y194.83
G1 F4920 X159.20 Y178.23 E146.83270
G0 F12000 X158.86 Y178.00
G1 F4920 X142.37 Y194.49 E147.41430
G0 F12000 X142.16 Y194.14
G1 F4920 X158.50 Y177.79 E147.99081
G0 F12000 X158.14 Y177.59
G1 F4920 X141.96 Y193.78 E148.56176
G0 F12000 X141.77 Y193.40
G1 F4920 X157.77 Y177.40 E149.12617
G0 F12000 X157.38 Y177.22
G1 F4920 X141.59 Y193.01 E149.68335
G0 F12000 X141.42 Y192.62
G1 F4920 X156.99 Y177.05 E150.23267
G0 F12000 X156.58 Y176.90
G1 F4920 X141.26 Y192.21 E150.77286
G0 F12000 X141.12 Y191.79
G1 F4920 X156.16 Y176.75 E151.30355
G0 F12000 X155.72 Y176.62
G1 F4920 X140.99 Y191.35 E151.82329
G0 F12000 X140.87 Y190.90
G1 F4920 X155.27 Y176.50 E152.33129
G0 F12000 X154.81 Y176.40
G1 F4920 X140.77 Y190.44 E152.82664
G0 F12000 X140.69 Y189.96
G1 F4920 X154.32 Y176.32 E153.30769
G0 F12000 X153.83 Y176.25
G1 F4920 X140.62 Y189.46 E153.77364
G0 F12000 X140.57 Y188.94
G1 F4920 X153.31 Y176.20 E154.22307
G0 F12000 X152.76 Y176.18
G1 F4920 X140.55 Y188.40 E154.65394
G0 F12000 X140.55 Y187.83
G1 F4920 X152.20 Y176.18 E155.06473
G0 F12000 X151.60 Y176.21
G1 F4920 X140.58 Y187.24 E155.45372
G0 F12000 X140.64 Y186.61
G1 F4920 X150.98 Y176.27 E155.81840
G0 F12000 X150.31 Y176.38
G1 F4920 X140.75 Y185.94 E156.15566
G0 F12000 X140.90 Y185.21
G1 F4920 X149.58 Y176.54 E156.46176
G0 F12000 X148.78 Y176.77
G1 F4920 X141.13 Y184.42 E156.73178
G0 F12000 X141.47 Y183.51
G1 F4920 X147.88 Y177.11 E156.95775
G0 F12000 X146.80 Y177.62
G1 F4920 X141.99 Y182.43 E157.12752
G0 F12000 X143.07 Y180.78
G1 F4920 X145.15 Y178.71 E157.20060
;LAYER:4
G0 F12000 X144.79 Y178.81 Z0.85
;TYPE:WALL-INNER
G1 F6000 X145.39 Y178.34 E157.21972
G1 X146.01 Y177.92 E157.23839
G1 X146.67 Y177.53 E157.25738
G1 X147.35 Y177.19 E157.27641
G1 X148.04 Y176.88 E157.29534
G1 X148.77 Y176.62 E157.31461
G1 X149.49 Y176.41 E157.33333
G1 X150.22 Y176.25 E157.35207
G1 X150.99 Y176.13 E157.37149
G1 X151.73 Y176.06 E157.38993
G1 X152.50 Y176.03 E157.40915
G1 X153.27 Y176.06 E157.42837
G1 X154.01 Y176.13 E157.44681
G1 X154.78 Y176.25 E157.46623
G1 X155.51 Y176.41 E157.48497
G1 X156.23 Y176.62 E157.50370
G1 X156.96 Y176.88 E157.52296
G1 X157.65 Y177.19 E157.54189
G1 X158.33 Y177.53 E157.56092
G1 X158.99 Y177.92 E157.57991
G1 X159.61 Y178.34 E157.59859
G1 X160.21 Y178.81 E157.61770
G1 X160.79 Y179.32 E157.63684
G1 X161.31 Y179.85 E157.65547
G1 X161.82 Y180.42 E157.67461
G1 X162.29 Y181.03 E157.69372
G1 X162.71 Y181.65 E157.71242
G1 X163.10 Y182.30 E157.73139
G1 X163.45 Y182.98 E157.75042
G1 X163.75 Y183.68 E157.76934
G1 X164.01 Y184.40 E157.78851
G1 X164.22 Y185.12 E157.80714
G1 X164.39 Y185.87 E157.82638
G1 X164.50 Y186.63 E157.84550
G1 X164.57 Y187.35 E157.86374
G1 X164.60 Y188.13 E157.88318
G1 X164.57 Y188.90 E157.90240
G1 X164.50 Y189.64 E157.92084
G1 X164.39 Y190.40 E157.93996
G1 X164.22 Y191.15 E157.95920
G1 X164.01 Y191.87 E157.97783
G1 X163.75 Y192.59 E157.99700
G1 X163.45 Y193.29 E158.01592
G1 X163.10 Y193.97 E158.03495
G1 X162.71 Y194.62 E158.05395
G1 X162.29 Y195.24 E158.07262
G1 X161.82 Y195.85 E158.09173
G1 X161.31 Y196.42 E158.11087
G1 X160.79 Y196.95 E158.12950
G1 X160.21 Y197.46 E158.14864
G1 X159.61 Y197.92 E158.16754
G1 X158.98 Y198.35 E158.18653
G1 X158.33 Y198.74 E158.20553
G1 X157.65 Y199.08 E158.22445
G1 X156.96 Y199.38 E158.24338
G1 X156.23 Y199.64 E158.26254
G1 X155.52 Y199.85 E158.28117
G1 X154.76 Y200.02 E158.30042
G1 X154.01 Y200.14 E158.31954
G1 X153.27 Y200.21 E158.33795
G1 X152.50 Y200.23 E158.35719
G1 X151.73 Y200.21 E158.37644
G1 X150.99 Y200.14 E158.39485
G1 X150.24 Y200.02 E158.41397
G1 X149.48 Y199.85 E158.43321
G1 X148.77 Y199.64 E158.45184
G1 X148.04 Y199.38 E158.47101
G1 X147.35 Y199.08 E158.48993
G1 X146.67 Y198.74 E158.50886
G1 X146.02 Y198.35 E158.52785
G1 X145.39 Y197.92 E158.54685
G1 X144.79 Y197.46 E158.56575
G1 X144.21 Y196.95 E158.58489
G1 X143.69 Y196.42 E158.60351
G1 X143.18 Y195.85 E158.62265
G1 X142.71 Y195.24 E158.64177
G1 X142.29 Y194.62 E158.66044
G1 X141.90 Y193.97 E158.67943
G1 X141.55 Y193.29 E158.69846
G1 X141.25 Y192.59 E158.71739
G1 X140.99 Y191.87 E158.73656
G1 X140.78 Y191.15 E158.75519
G1 X140.61 Y190.40 E158.77443
G1 X140.50 Y189.64 E158.79355
G1 X140.43 Y188.90 E158.81199
G1 X140.40 Y188.13 E158.83120
G1 X140.43 Y187.35 E158.85065
G1 X140.50 Y186.63 E158.86889
G1 X140.61 Y185.87 E158.88800
G1 X140.78 Y185.12 E158.90725
G1 X140.99 Y184.40 E158.92588
G1 X141.25 Y183.68 E158.94504
G1 X141.55 Y182.98 E158.96397
G1 X141.90 Y182.30 E158.98300
G1 X142.29 Y181.65 E159.00197
G1 X142.71 Y181.03 E159.02067
G1 X143.18 Y180.42 E159.03978
G1 X143.69 Y179.85 E159.05892
G1 X144.21 Y179.32 E159.07755
G1 X144.79 Y178.81 E159.09669
G0 F12000 X144.53 Y178.51
;TYPE:WALL-OUTER
G1 F6000 X145.16 Y178.02 E159.11660
G1 X145.80 Y177.58 E159.13585
G1 X146.48 Y177.18 E159.15562
G1 X147.17 Y176.83 E159.17502
G1 X147.90 Y176.51 E159.19492
G1 X148.64 Y176.25 E159.21435
G1 X149.39 Y176.03 E159.23399
G1 X150.15 Y175.86 E159.25339
G1 X150.94 Y175.73 E159.27329
G1 X151.71 Y175.66 E159.29266
G1 X152.50 Y175.63 E159.31230
G1 X153.29 Y175.66 E159.33194
G1 X154.06 Y175.73 E159.35131
G1 X154.85 Y175.86 E159.37121
G1 X155.61 Y176.03 E159.39061
G1 X156.36 Y176.25 E159.41025
G1 X157.10 Y176.51 E159.42968
G1 X157.83 Y176.83 E159.44958
G1 X158.52 Y177.18 E159.46898
G1 X159.20 Y177.58 E159.48875
G1 X159.84 Y178.02 E159.50800
G1 X160.47 Y178.51 E159.52791
G1 X161.06 Y179.03 E159.54751
G1 X161.61 Y179.57 E159.56677
G1 X162.13 Y180.16 E159.58637
G1 X162.62 Y180.79 E159.60628
G1 X163.05 Y181.43 E159.62555
G1 X163.46 Y182.12 E159.64545
G1 X163.81 Y182.81 E159.66471
G1 X164.12 Y183.54 E159.68461
G1 X164.39 Y184.26 E159.70391
G1 X164.61 Y185.02 E159.72350
G1 X164.78 Y185.78 E159.74308
G1 X164.90 Y186.57 E159.76298
G1 X164.97 Y187.34 E159.78224
G1 X165.00 Y188.13 E159.80186
G1 X164.97 Y188.92 E159.82165
G1 X164.90 Y189.69 E159.84102
G1 X164.78 Y190.48 E159.86092
G1 X164.61 Y191.24 E159.88019
G1 X164.39 Y192.00 E159.89996
G1 X164.12 Y192.73 E159.91939
G1 X163.81 Y193.46 E159.93926
G1 X163.46 Y194.15 E159.95854
G1 X163.05 Y194.84 E159.97846
G1 X162.62 Y195.47 E159.99771
G1 X162.13 Y196.11 E160.01762
G1 X161.61 Y196.69 E160.03722
G1 X161.06 Y197.24 E160.05649
G1 X160.47 Y197.76 E160.07609
G1 X159.84 Y198.25 E160.09593
G1 X159.20 Y198.69 E160.11541
G1 X158.52 Y199.09 E160.13502
G1 X157.83 Y199.44 E160.15442
G1 X157.10 Y199.76 E160.17430
G1 X156.36 Y200.02 E160.19375
G1 X155.61 Y200.24 E160.21339
G1 X154.85 Y200.41 E160.23279
G1 X154.06 Y200.53 E160.25269
G1 X153.29 Y200.61 E160.27203
G1 X152.50 Y200.63 E160.29170
G1 X151.71 Y200.61 E160.31137
G1 X150.94 Y200.53 E160.33071
G1 X150.15 Y200.41 E160.35061
G1 X149.39 Y200.24 E160.37001
G1 X148.64 Y200.02 E160.38966
G1 X147.90 Y199.76 E160.40910
G1 X147.17 Y199.44 E160.42898
G1 X146.48 Y199.09 E160.44838
G1 X145.80 Y198.69 E160.46800
G1 X145.16 Y198.25 E160.48747
G1 X144.53 Y197.76 E160.50732
G1 X143.94 Y197.24 E160.52692
G1 X143.39 Y196.69 E160.54618
G1 X142.87 Y196.11 E160.56578
G1 X142.38 Y195.47 E160.58569
G1 X141.95 Y194.84 E160.60494
G1 X141.54 Y194.15 E160.62486
G1 X141.19 Y193.46 E160.64415
G1 X140.88 Y192.73 E160.66401
G1 X140.61 Y192.00 E160.68344
G1 X140.39 Y191.24 E160.70321
G1 X140.22 Y190.48 E160.72248
G1 X140.10 Y189.69 E160.74238
G1 X140.03 Y188.92 E160.76175
G1 X140.00 Y188.14 E160.78124
G1 X140.03 Y187.34 E160.80116
G1 X140.10 Y186.57 E160.82043
G1 X140.22 Y185.78 E160.84033
G1 X140.39 Y185.03 E160.85960
G1 X140.61 Y184.26 E160.87950
G1 X140.88 Y183.54 E160.89880
G1 X141.19 Y182.81 E160.91870
G1 X141.54 Y182.12 E160.93795
G1 X141.95 Y181.43 E160.95785
G1 X142.38 Y180.79 E160.97712
G1 X142.87 Y180.16 E160.99703
G1 X143.39 Y179.57 E161.01663
G1 X143.94 Y179.03 E161.03589
G1 X144.53 Y178.51 E161.05549
G0 F12000 X144.78 Y179.00
;TYPE:FILL
G1 F6000 X161.63 Y195.85 E161.64988
G0 F12000 X161.36 Y196.15
G1 F6000 X144.48 Y179.27 E162.24555
G0 F12000 X144.19 Y179.54
G1 F6000 X161.09 Y196.45 E162.84192
G0 F12000 X160.81 Y196.73
G1 F6000 X143.90 Y179.82 E163.43829
G0 F12000 X143.63 Y180.12
G1 F6000 X160.51 Y197.00 E164.03390
G0 F12000 X160.21 Y197.27
G1 F6000 X143.37 Y180.42 E164.62828
G0 F12000 X143.11 Y180.73
G1 F6000 X159.90 Y197.52 E165.22055
G0 F12000 X159.58 Y197.77
G1 F6000 X142.87 Y181.05 E165.81029
G0 F12000 X142.63 Y181.38
G1 F6000 X159.25 Y198.00 E166.39645
G0 F12000 X158.91 Y198.23
G1 F6000 X142.40 Y181.72 E166.97879
G0 F12000 X142.19 Y182.07
G1 F6000 X158.56 Y198.44 E167.55604
G0 F12000 X158.20 Y198.64
G1 F6000 X141.99 Y182.43 E168.12796
G0 F12000 X141.80 Y182.81
G1 F6000 X157.82 Y198.84 E168.69336
G0 F12000 X157.44 Y199.02
G1 F6000 X141.61 Y183.19 E169.25174
G0 F12000 X141.44 Y183.59
G1 F6000 X157.05 Y199.19 E169.80223
G0 F12000 X156.64 Y199.35
G1 F6000 X141.28 Y183.99 E170.34383
G0 F12000 X141.13 Y184.41
G1 F6000 X156.22 Y199.50 E170.87606
G0 F12000 X155.78 Y199.63
G1 F6000 X141.01 Y184.85 E171.39745
G0 F12000 X140.89 Y185.29
G1 F6000 X155.34 Y199.75 E171.90737
G0 F12000 X154.88 Y199.85
G1 F6000 X140.78 Y185.75 E172.40464
G0 F12000 X140.70 Y186.24
G1 F6000 X154.40 Y199.93 E172.88791
G0 F12000 X153.90 Y200.01
G1 F6000 X140.62 Y186.73 E173.35633
G0 F12000 X140.58 Y187.25
G1 F6000 X153.39 Y200.06 E173.80824
G0 F12000 X152.85 Y200.08
G1 F6000 X140.55 Y187.79 E174.24192
G0 F12000 X140.55 Y188.35
G1 F6000 X152.28 Y200.09 E174.65594
G0 F12000 X151.70 Y200.06
G1 F6000 X140.57 Y188.93 E175.04855
G0 F12000 X140.63 Y189.56
G1 F6000 X151.07 Y200.00 E175.41706
G0 F12000 X150.41 Y199.90
G1 F6000 X140.73 Y190.23 E175.75842
G0 F12000 X140.88 Y190.94
G1 F6000 X149.69 Y199.75 E176.06926
G0 F12000 X148.91 Y199.54
G1 F6000 X141.09 Y191.72 E176.34488
G0 F12000 X141.41 Y192.60
G1 F6000 X148.03 Y199.22 E176.57838
G0 F12000 X146.97 Y198.73
G1 F6000 X141.90 Y193.66 E176.75731
G0 F12000 X142.79 Y195.12
G1 F6000 X145.50 Y197.83 E176.85288
G0 F12000 X161.88 Y195.54
G1 F6000 X145.09 Y178.75 E177.44521
G0 F12000 X145.41 Y178.50
G1 F6000 X162.13 Y195.22 E178.03502
G0 F12000 X162.36 Y194.89
G1 F6000 X145.74 Y178.27 E178.62130
G0 F12000 X146.08 Y178.04
G1 F6000 X162.59 Y194.55 E179.20373
G0 F12000 X162.80 Y194.20
G1 F6000 X146.44 Y177.83 E179.78105
G0 F12000 X146.79 Y177.62
G1 F6000 X163.01 Y193.84 E180.35308
G0 F12000 X163.20 Y193.46
G1 F6000 X147.17 Y177.43 E180.91855
G0 F12000 X147.55 Y177.25
G1 F6000 X163.38 Y193.08 E181.47705
G0 F12000 X163.55 Y192.69
G1 F6000 X147.94 Y177.08 E182.02770
G0 F12000 X148.35 Y176.92
G1 F6000 X163.71 Y192.28 E182.56953
G0 F12000 X163.86 Y191.86
G1 F6000 X148.77 Y176.77 E183.10187
G0 F12000 X149.21 Y176.64
G1 F6000 X163.99 Y191.43 E183.62345
G0 F12000 X164.11 Y190.98
G1 F6000 X149.65 Y176.52 E184.13360
G0 F12000 X150.11 Y176.42
G1 F6000 X164.22 Y190.52 E184.63110
G0 F12000 X164.30 Y190.04
G1 F6000 X150.59 Y176.33 E185.11465
G0 F12000 X151.09 Y176.26
G1 F6000 X164.37 Y189.55 E185.58342
G0 F12000 X164.42 Y189.03
G1 F6000 X151.60 Y176.21 E186.03563
G0 F12000 X152.14 Y176.19
G1 F6000 X164.45 Y188.49 E186.46965
G0 F12000 X164.45 Y187.93
G1 F6000 X152.71 Y176.18 E186.88402
G0 F12000 X153.29 Y176.20
G1 F6000 X164.43 Y187.34 E187.27707
G0 F12000 X164.37 Y186.72
G1 F6000 X153.91 Y176.26 E187.64604
G0 F12000 X154.58 Y176.36
G1 F6000 X164.27 Y186.05 E187.98795
G0 F12000 X164.12 Y185.34
G1 F6000 X155.29 Y176.51 E188.29938
G0 F12000 X156.08 Y176.72
G1 F6000 X163.91 Y184.56 E188.57570
G0 F12000 X163.60 Y183.68
G1 F6000 X156.95 Y177.03 E188.81015
G0 F12000 X158.01 Y177.52
G1 F6000 X163.11 Y182.63 E188.99021
G0 F12000 X162.22 Y181.18
G1 F6000 X159.46 Y178.41 E189.08786
;LAYER:5
G0 F12000 X159.61 Y178.34 Z1.00
;TYPE:WALL-INNER
G1 F6000 X160.21 Y178.81 E189.10697
G1 X160.79 Y179.32 E189.12611
G1 X161.31 Y179.85 E189.14474
G1 X161.82 Y180.42 E189.16388
G1 X162.29 Y181.03 E189.18299
G1 X162.71 Y181.65 E189.20169
G1 X163.10 Y182.30 E189.22066
G1 X163.45 Y182.98 E189.23969
G1 X163.75 Y183.68 E189.25861
G1 X164.01 Y184.40 E189.27778
G1 X164.22 Y185.12 E189.29641
G1 X164.39 Y185.87 E189.31566
G1 X164.50 Y186.63 E189.33477
G1 X164.57 Y187.35 E189.35301
G1 X164.60 Y188.13 E189.37245
G1 X164.57 Y188.90 E189.39167
G1 X164.50 Y189.64 E189.41011
G1 X164.39 Y190.40 E189.42923
G1 X164.22 Y191.15 E189.44847
G1 X164.01 Y191.87 E189.46710
G1 X163.75 Y192.59 E189.48627
G1 X163.45 Y193.29 E189.50519
G1 X163.10 Y193.97 E189.52423
G1 X162.71 Y194.62 E189.54322
G1 X162.29 Y195.24 E189.56189
G1 X161.82 Y195.85 E189.58101
G1 X161.31 Y196.42 E189.60015
G1 X160.79 Y196.95 E189.61877
G1 X160.21 Y197.46 E189.63791
G1 X159.61 Y197.92 E189.65681
G1 X158.98 Y198.35 E189.67580
G1 X158.33 Y198.74 E189.69480
G1 X157.65 Y199.08 E189.71372
G1 X156.96 Y199.38 E189.73265
G1 X156.23 Y199.64 E189.75182
G1 X155.52 Y199.85 E189.77045
G1 X154.76 Y200.02 E189.78969
G1 X154.01 Y200.14 E189.80881
G1 X153.27 Y200.21 E189.82722
G1 X152.50 Y200.23 E189.84647
G1 X151.73 Y200.21 E189.86571
G1 X150.99 Y200.14 E189.88412
G1 X150.24 Y200.02 E189.90324
G1 X149.48 Y199.85 E189.92248
G1 X148.77 Y199.64 E189.94111
G1 X148.04 Y199.38 E189.96028
G1 X147.35 Y199.08 E189.97921
G1 X146.67 Y198.74 E189.99813
G1 X146.02 Y198.35 E190.01713
G1 X145.39 Y197.92 E190.03612
G1 X144.79 Y197.46 E190.05502
G1 X144.21 Y196.95 E190.07416
G1 X143.69 Y196.42 E190.09278
G1 X143.18 Y195.85 E190.11192
G1 X142.71 Y195.24 E190.13104
G1 X142.29 Y194.62 E190.14971
G1 X141.90 Y193.97 E190.16870
G1 X141.55 Y193.29 E190.18774
G1 X141.25 Y192.59 E190.20666
G1 X140.99 Y191.87 E190.22583
G1 X140.78 Y191.15 E190.24446
G1 X140.61 Y190.40 E190.26370
G1 X140.50 Y189.64 E190.28282
G1 X140.43 Y188.90 E190.30126
G1 X140.40 Y188.13 E190.32048
G1 X140.43 Y187.35 E190.33992
G1 X140.50 Y186.63 E190.35816
G1 X140.61 Y185.87 E190.37727
G1 X140.78 Y185.12 E190.39652
G1 X140.99 Y184.40 E190.41515
G1 X141.25 Y183.68 E190.43432
G1 X141.55 Y182.98 E190.45324
G1 X141.90 Y182.30 E190.47227
G1 X142.29 Y181.65 E190.49124
G1 X142.71 Y181.03 E190.50994
G1 X143.18 Y180.42 E190.52905
G1 X143.69 Y179.85 E190.54819
G1 X144.21 Y179.32 E190.56682
G1 X144.79 Y178.81 E190.58596
G1 X145.39 Y178.34 E190.60507
G1 X146.01 Y177.92 E190.62375
G1 X146.67 Y177.53 E190.64274
G1 X147.35 Y177.19 E190.66177
G1 X148.04 Y176.88 E190.68070
G1 X148.77 Y176.62 E190.69996
G1 X149.49 Y176.41 E190.71869
G1 X150.22 Y176.25 E190.73743
G1 X150.99 Y176.13 E190.75685
G1 X151.73 Y176.06 E190.77529
G1 X152.50 Y176.03 E190.79451
G1 X153.27 Y176.06 E190.81372
G1 X154.01 Y176.13 E190.83216
G1 X154.78 Y176.25 E190.85158
G1 X155.51 Y176.41 E190.87033
G1 X156.23 Y176.62 E190.88905
G1 X156.96 Y176.88 E190.90832
G1 X157.65 Y177.19 E190.92725
G1 X158.33 Y177.53 E190.94628
G1 X158.99 Y177.92 E190.96527
G1 X159.61 Y178.34 E190.98394
G0 F12000 X159.84 Y178.02
;TYPE:WALL-OUTER
G1 F6000 X160.47 Y178.51 E191.00386
G1 X161.06 Y179.03 E191.02346
G1 X161.61 Y179.57 E191.04272
G1 X162.13 Y180.16 E191.06232
G1 X162.62 Y180.79 E191.08223
G1 X163.05 Y181.43 E191.10150
G1 X163.46 Y182.12 E191.12140
G1 X163.81 Y182.81 E191.14065
G1 X164.12 Y183.54 E191.16055
G1 X164.39 Y184.26 E191.17985
G1 X164.61 Y185.02 E191.19944
G1 X164.78 Y185.78 E191.21902
G1 X164.90 Y186.57 E191.23892
G1 X164.97 Y187.34 E191.25819
G1 X165.00 Y188.13 E191.27781
G1 X164.97 Y188.92 E191.29760
G1 X164.90 Y189.69 E191.31697
G1 X164.78 Y190.48 E191.33686
G1 X164.61 Y191.24 E191.35613
G1 X164.39 Y192.00 E191.37591
G1 X164.12 Y192.73 E191.39533
G1 X163.81 Y193.46 E191.41520
G1 X163.46 Y194.15 E191.43449
G1 X163.05 Y194.84 E191.45441
G1 X162.62 Y195.47 E191.47366
G1 X162.13 Y196.11 E191.49357
G1 X161.61 Y196.69 E191.51317
G1 X161.06 Y197.24 E191.53243
G1 X160.47 Y197.76 E191.55203
G1 X159.84 Y198.25 E191.57187
G1 X159.20 Y198.69 E191.59135
G1 X158.52 Y199.09 E191.61097
G1 X157.83 Y199.44 E191.63037
G1 X157.10 Y199.76 E191.65024
G1 X156.36 Y200.02 E191.66969
G1 X155.61 Y200.24 E191.68934
G1 X154.85 Y200.41 E191.70874
G1 X154.06 Y200.53 E191.72864
G1 X153.29 Y200.61 E191.74798
G1 X152.50 Y200.63 E191.76765
G1 X151.71 Y200.61 E191.78731
G1 X150.94 Y200.53 E191.80666
G1 X150.15 Y200.41 E191.82656
G1 X149.39 Y200.24 E191.84595
G1 X148.64 Y200.02 E191.86560
G1 X147.90 Y199.76 E191.88505
G1 X147.17 Y199.44 E191.90493
G1 X146.48 Y199.09 E191.92433
G1 X145.80 Y198.69 E191.94394
G1 X145.16 Y198.25 E191.96342
G1 X144.53 Y197.76 E191.98326
G1 X143.94 Y197.24 E192.00286
G1 X143.39 Y196.69 E192.02212
G1 X142.87 Y196.11 E192.04172
G1 X142.38 Y195.47 E192.06164
G1 X141.95 Y194.84 E192.08088
G1 X141.54 Y194.15 E192.10080
G1 X141.19 Y193.46 E192.12009
G1 X140.88 Y192.73 E192.13996
G1 X140.61 Y192.00 E192.15938
G1 X140.39 Y191.24 E192.17916
G1 X140.22 Y190.48 E192.19843
G1 X140.10 Y189.69 E192.21833
G1 X140.03 Y188.92 E192.23770
G1 X140.00 Y188.14 E192.25719
G1 X140.03 Y187.34 E192.27710
G1 X140.10 Y186.57 E192.29637
G1 X140.22 Y185.78 E192.31627
G1 X140.39 Y185.03 E192.33554
G1 X140.61 Y184.26 E192.35544
G1 X140.88 Y183.54 E192.37474
G1 X141.19 Y182.81 E192.39464
G1 X141.54 Y182.12 E192.41390
G1 X141.95 Y181.43 E192.43379
G1 X142.38 Y180.79 E192.45306
G1 X142.87 Y180.16 E192.47298
G1 X143.39 Y179.57 E192.49258
G1 X143.94 Y179.03 E192.51184
G1 X144.53 Y178.51 E192.53144
G1 X145.16 Y178.02 E192.55135
G1 X145.80 Y177.58 E192.57060
G1 X146.48 Y177.18 E192.59037
G1 X147.17 Y176.83 E192.60977
G1 X147.90 Y176.51 E192.62967
G1 X148.64 Y176.25 E192.64910
G1 X149.39 Y176.03 E192.66874
G1 X150.15 Y175.86 E192.68814
G1 X150.94 Y175.73 E192.70804
G1 X151.71 Y175.66 E192.72741
G1 X152.50 Y175.63 E192.74705
G1 X153.29 Y175.66 E192.76669
G1 X154.06 Y175.73 E192.78606
G1 X154.85 Y175.86 E192.80596
G1 X155.61 Y176.03 E192.82536
G1 X156.36 Y176.25 E192.84500
G1 X157.10 Y176.51 E192.86443
G1 X157.83 Y176.83 E192.88432
G1 X158.52 Y177.18 E192.90373
G1 X159.20 Y177.58 E192.92350
G1 X159.84 Y178.02 E192.94275
G0 F12000 X159.53 Y178.46
;TYPE:FILL
G1 F6000 X142.83 Y195.17 E193.53210
G0 F12000 X143.07 Y195.49
G1 F6000 X159.85 Y178.71 E194.12400
G0 F12000 X160.17 Y178.96
G1 F6000 X143.33 Y195.80 E194.71822
G0 F12000 X143.59 Y196.10
G1 F6000 X160.47 Y179.22 E195.31367
G0 F12000 X160.77 Y179.49
G1 F6000 X143.86 Y196.40 E195.91006
G0 F12000 X144.14 Y196.68
G1 F6000 X161.05 Y179.78 E196.50645
G0 F12000 X161.32 Y180.07
G1 F6000 X144.43 Y196.96 E197.10232
G0 F12000 X144.73 Y197.22
G1 F6000 X161.59 Y180.37 E197.69693
G0 F12000 X161.84 Y180.68
G1 F6000 X145.04 Y197.48 E198.28959
G0 F12000 X145.36 Y197.72
G1 F6000 X162.09 Y181.00 E198.87975
G0 F12000 X162.33 Y181.33
G1 F6000 X145.69 Y197.96 E199.46655
G0 F12000 X146.03 Y198.19
G1 F6000 X162.56 Y181.66 E200.04958
G0 F12000 X162.77 Y182.02
G1 F6000 X146.38 Y198.40 E200.62768
G0 F12000 X146.74 Y198.61
G1 F6000 X162.98 Y182.37 E201.20066
G0 F12000 X163.17 Y182.75
G1 F6000 X147.11 Y198.80 E201.76713
G0 F12000 X147.49 Y198.99
G1 F6000 X163.36 Y183.12 E202.32683
G0 F12000 X163.53 Y183.52
G1 F6000 X147.88 Y199.16 E202.87868
G0 F12000 X148.29 Y199.32
G1 F6000 X163.69 Y183.92 E203.42188
G0 F12000 X163.84 Y184.34
G1 F6000 X148.71 Y199.47 E203.95570
G0 F12000 X149.14 Y199.60
G1 F6000 X163.97 Y184.77 E204.47894
G0 F12000 X164.09 Y185.22
G1 F6000 X149.58 Y199.73 E204.99100
G0 F12000 X150.04 Y199.83
G1 F6000 X164.20 Y185.68 E205.49037
G0 F12000 X164.29 Y186.15
G1 F6000 X150.52 Y199.92 E205.97608
G0 F12000 X151.01 Y200.00
G1 F6000 X164.37 Y186.64 E206.44728
G0 F12000 X164.41 Y187.16
G1 F6000 X151.53 Y200.05 E206.90197
G0 F12000 X152.06 Y200.08
G1 F6000 X164.44 Y187.69 E207.33878
G0 F12000 X164.45 Y188.25
G1 F6000 X152.62 Y200.09 E207.75636
G0 F12000 X153.20 Y200.07
G1 F6000 X164.44 Y188.83 E208.15269
G0 F12000 X164.38 Y189.45
G1 F6000 X153.82 Y200.01 E208.52526
G0 F12000 X154.48 Y199.92
G1 F6000 X164.29 Y190.11 E208.87130
G0 F12000 X164.15 Y190.82
G1 F6000 X155.19 Y199.78 E209.18749
G0 F12000 X155.96 Y199.58
G1 F6000 X163.94 Y191.59 E209.46926
G0 F12000 X163.65 Y192.45
G1 F6000 X156.81 Y199.28 E209.71041
G0 F12000 X157.83 Y198.83
G1 F6000 X163.20 Y193.47 E209.89959
G0 F12000 X162.41 Y194.82
G1 F6000 X159.19 Y198.04 E210.01292
G0 F12000 X142.60 Y194.83
G1 F6000 X159.20 Y178.23 E210.59853
G0 F12000 X158.86 Y178.00
G1 F6000 X142.37 Y194.49 E211.18014
G0 F12000 X142.16 Y194.14
G1 F6000 X158.50 Y177.79 E211.75664
G0 F12000 X158.14 Y177.59
G1 F6000 X141.96 Y193.78 E212.32760
G0 F12000 X141.77 Y193.40
G1 F6000 X157.77 Y177.40 E212.89200
G0 F12000 X157.38 Y177.22
G1 F6000 X141.59 Y193.01 E213.44918
G0 F12000 X141.42 Y192.62
G1 F6000 X156.99 Y177.05 E213.99851
G0 F12000 X156.58 Y176.90
G1 F6000 X141.26 Y192.21 E214.53870
G0 F12000 X141.12 Y191.79
G1 F6000 X156.16 Y176.75 E215.06938
G0 F12000 X155.72 Y176.62
G1 F6000 X140.99 Y191.35 E215.58913
G0 F12000 X140.87 Y190.90
G1 F6000 X155.27 Y176.50 E216.09712
G0 F12000 X154.81 Y176.40
G1 F6000 X140.77 Y190.44 E216.59248
G0 F12000 X140.69 Y189.96
G1 F6000 X154.32 Y176.32 E217.07352
G0 F12000 X153.83 Y176.25
G1 F6000 X140.62 Y189.46 E217.53947
G0 F12000 X140.57 Y188.94
G1 F6000 X153.31 Y176.20 E217.98891
G0 F12000 X152.76 Y176.18
G1 F6000 X140.55 Y188.40 E218.41977
G0 F12000 X140.55 Y187.83
G1 F6000 X152.20 Y176.18 E218.83056
G0 F12000 X151.60 Y176.21
G1 F6000 X140.58 Y187.24 E219.21955
G0 F12000 X140.64 Y186.61
G1 F6000 X150.98 Y176.27 E219.58424
G0 F12000 X150.31 Y176.38
G1 F6000 X140.75 Y185.94 E219.92149
G0 F12000 X140.90 Y185.21
G1 F6000 X149.58 Y176.54 E220.22760
G0 F12000 X148.78 Y176.77
G1 F6000 X141.13 Y184.42 E220.49761
G0 F12000 X141.47 Y183.51
G1 F6000 X147.88 Y177.11 E220.72358
G0 F12000 X146.80 Y177.62
G1 F6000 X141.99 Y182.43 E220.89336
G0 F12000 X143.07 Y180.78
G1 F6000 X145.15 Y178.71 E220.96644
;LAYER:6
G0 F12000 X145.21 Y178.48 Z1.15
;TYPE:WALL-INNER
G1 F6000 X145.39 Y178.35 E220.97200
G1 X145.80 Y178.07 E220.98442
G1 X146.45 Y177.66 E221.00367
G1 X147.15 Y177.29 E221.02329
G1 X147.83 Y176.98 E221.04190
G1 X148.52 Y176.71 E221.06038
G1 X149.27 Y176.48 E221.08012
G1 X150.00 Y176.30 E221.09881
G1 X150.75 Y176.17 E221.11773
G1 X150.99 Y176.13 E221.12372
G1 X151.50 Y176.08 E221.13670
G1 X151.73 Y176.06 E221.14249
G1 X152.26 Y176.04 E221.15564
G1 X152.50 Y176.03 E221.16168
G1 X153.02 Y176.05 E221.17453
G1 X153.27 Y176.06 E221.18087
G1 X153.78 Y176.11 E221.19350
G1 X154.01 Y176.13 E221.19939
G1 X154.53 Y176.21 E221.21254
G1 X155.28 Y176.36 E221.23146
G1 X155.99 Y176.56 E221.25003
G1 X156.73 Y176.80 E221.26943
G1 X157.42 Y177.08 E221.28791
G1 X158.12 Y177.42 E221.30729
G1 X158.78 Y177.79 E221.32621
G1 X159.40 Y178.20 E221.34489
G1 X160.02 Y178.66 E221.36416
G1 X160.60 Y179.16 E221.38310
G1 X161.14 Y179.67 E221.40173
G1 X161.66 Y180.24 E221.42090
G1 X162.15 Y180.84 E221.44028
G1 X162.58 Y181.45 E221.45890
G1 X162.97 Y182.09 E221.47751
G1 X163.34 Y182.77 E221.49679
G1 X163.65 Y183.46 E221.51574
G1 X163.92 Y184.16 E221.53449
G1 X164.15 Y184.88 E221.55334
G1 X164.33 Y185.63 E221.57265
G1 X164.47 Y186.38 E221.59157
G1 X164.50 Y186.62 E221.59757
G1 X164.55 Y187.14 E221.61054
G1 X164.57 Y187.37 E221.61633
G1 X164.59 Y187.90 E221.62951
G1 X164.60 Y188.13 E221.63547
G1 X164.58 Y188.65 E221.64840
G1 X164.57 Y188.91 E221.65474
G1 X164.53 Y189.41 E221.66737
G1 X164.50 Y189.65 E221.67326
G1 X164.43 Y190.16 E221.68616
G1 X164.27 Y190.91 E221.70525
G1 X164.08 Y191.63 E221.72388
G1 X163.83 Y192.37 E221.74330
G1 X163.55 Y193.05 E221.76165
G1 X163.21 Y193.75 E221.78116
G1 X162.84 Y194.41 E221.80008
G1 X162.43 Y195.04 E221.81875
G1 X161.97 Y195.66 E221.83803
G1 X161.49 Y196.23 E221.85670
G1 X160.96 Y196.78 E221.87559
G1 X160.39 Y197.29 E221.89477
G1 X159.79 Y197.78 E221.91415
G1 X159.19 Y198.21 E221.93262
G1 X158.54 Y198.61 E221.95157
G1 X157.87 Y198.97 E221.97067
G1 X157.17 Y199.29 E221.98961
G1 X156.47 Y199.56 E222.00836
G1 X155.75 Y199.78 E222.02721
G1 X154.99 Y199.97 E222.04678
G1 X154.25 Y200.10 E222.06545
G1 X154.01 Y200.14 E222.07144
G1 X153.50 Y200.19 E222.08441
G1 X153.27 Y200.21 E222.09020
G1 X152.74 Y200.22 E222.10338
G1 X152.50 Y200.23 E222.10937
G1 X151.98 Y200.22 E222.12225
G1 X151.73 Y200.21 E222.12859
G1 X151.22 Y200.16 E222.14122
G1 X150.99 Y200.14 E222.14711
G1 X150.48 Y200.06 E222.16000
G1 X149.73 Y199.91 E222.17909
G1 X149.01 Y199.71 E222.19773
G1 X148.27 Y199.46 E222.21715
G1 X147.58 Y199.18 E222.23563
G1 X146.87 Y198.84 E222.25529
G1 X146.66 Y198.73 E222.26128
G1 X146.24 Y198.49 E222.27333
G1 X145.59 Y198.06 E222.29289
G1 X144.97 Y197.60 E222.31217
G1 X144.40 Y197.11 E222.33082
G1 X143.86 Y196.59 E222.34945
G1 X143.34 Y196.03 E222.36862
G1 X142.85 Y195.42 E222.38801
G1 X142.71 Y195.25 E222.39357
G1 X142.43 Y194.83 E222.40612
G1 X142.03 Y194.18 E222.42524
G1 X141.66 Y193.49 E222.44486
G1 X141.35 Y192.81 E222.46347
G1 X141.08 Y192.11 E222.48223
G1 X140.85 Y191.38 E222.50107
G1 X140.66 Y190.62 E222.52064
G1 X140.53 Y189.89 E222.53931
G1 X140.50 Y189.65 E222.54530
G1 X140.45 Y189.13 E222.55828
G1 X140.43 Y188.90 E222.56406
G1 X140.41 Y188.37 E222.57722
G1 X140.40 Y188.13 E222.58326
G1 X140.42 Y187.62 E222.59613
G1 X140.43 Y187.36 E222.60257
G1 X140.47 Y186.86 E222.61510
G1 X140.50 Y186.62 E222.62099
G1 X140.58 Y186.10 E222.63414
G1 X140.73 Y185.36 E222.65298
G1 X140.92 Y184.64 E222.67161
G1 X141.17 Y183.90 E222.69103
G1 X141.45 Y183.22 E222.70951
G1 X141.79 Y182.52 E222.72889
G1 X142.28 Y181.66 E222.75355
G1 X142.58 Y181.22 E222.76681
G1 X143.03 Y180.61 E222.78576
G1 X143.52 Y180.03 E222.80470
G1 X144.04 Y179.49 E222.82333
G1 X144.61 Y178.97 E222.84250
G1 X145.21 Y178.48 E222.86189
G0 F12000 X144.95 Y178.18
;TYPE:WALL-OUTER
G1 F6000 X145.16 Y178.02 E222.86833
G1 X145.59 Y177.73 E222.88126
G1 X146.25 Y177.31 E222.90086
G1 X146.95 Y176.94 E222.92065
G1 X147.67 Y176.61 E222.94019
G1 X148.40 Y176.33 E222.95967
G1 X149.15 Y176.10 E222.97948
G1 X149.39 Y176.03 E222.98569
G1 X150.15 Y175.86 E223.00509
G1 X150.94 Y175.73 E223.02499
G1 X151.71 Y175.66 E223.04436
G1 X152.25 Y175.64 E223.05771
G1 X152.50 Y175.63 E223.06403
G1 X153.03 Y175.65 E223.07728
G1 X153.29 Y175.66 E223.08367
G1 X154.06 Y175.73 E223.10301
G1 X154.85 Y175.86 E223.12291
G1 X155.36 Y175.97 E223.13597
G1 X156.11 Y176.17 E223.15542
G1 X156.87 Y176.43 E223.17532
G1 X157.59 Y176.72 E223.19477
G1 X158.30 Y177.06 E223.21438
G1 X159.20 Y177.58 E223.24041
G1 X159.63 Y177.87 E223.25334
G1 X160.27 Y178.35 E223.27315
G1 X160.86 Y178.85 E223.29249
G1 X161.44 Y179.40 E223.31239
G1 X161.96 Y179.97 E223.33167
G1 X162.46 Y180.59 E223.35145
G1 X162.61 Y180.78 E223.35756
G1 X162.91 Y181.23 E223.37104
G1 X163.32 Y181.89 E223.39042
G1 X163.70 Y182.59 E223.41020
G1 X164.02 Y183.29 E223.42954
G1 X164.30 Y184.03 E223.44914
G1 X164.54 Y184.79 E223.46904
G1 X164.72 Y185.55 E223.48853
G1 X164.78 Y185.78 E223.49464
G1 X164.90 Y186.57 E223.51454
G1 X164.97 Y187.34 E223.53381
G1 X164.99 Y187.88 E223.54729
G1 X165.00 Y188.13 E223.55343
G1 X164.98 Y188.67 E223.56685
G1 X164.97 Y188.92 E223.57324
G1 X164.90 Y189.69 E223.59259
G1 X164.82 Y190.23 E223.60604
G1 X164.66 Y191.00 E223.62561
G1 X164.46 Y191.75 E223.64499
G1 X164.21 Y192.50 E223.66489
G1 X163.91 Y193.22 E223.68415
G1 X163.57 Y193.93 E223.70394
G1 X163.05 Y194.84 E223.72998
G1 X162.76 Y195.27 E223.74291
G1 X162.28 Y195.90 E223.76272
G1 X161.78 Y196.50 E223.78206
G1 X161.23 Y197.07 E223.80196
G1 X160.66 Y197.59 E223.82124
G1 X160.05 Y198.09 E223.84102
G1 X159.41 Y198.55 E223.86060
G1 X158.74 Y198.96 E223.88025
G1 X158.05 Y199.33 E223.89977
G1 X157.33 Y199.66 E223.91932
G1 X156.60 Y199.93 E223.93879
G1 X155.85 Y200.17 E223.95861
G1 X155.09 Y200.36 E223.97809
G1 X154.85 Y200.41 E223.98421
G1 X154.06 Y200.53 E224.00410
G1 X153.29 Y200.61 E224.02347
G1 X152.50 Y200.63 E224.04311
G1 X151.71 Y200.61 E224.06276
G1 X150.94 Y200.53 E224.08213
G1 X150.41 Y200.45 E224.09558
G1 X149.64 Y200.30 E224.11515
G1 X148.89 Y200.09 E224.13453
G1 X148.13 Y199.84 E224.15443
G1 X147.41 Y199.54 E224.17388
G1 X146.70 Y199.20 E224.19360
G1 X146.03 Y198.82 E224.21288
G1 X145.36 Y198.38 E224.23276
G1 X144.73 Y197.92 E224.25234
G1 X144.14 Y197.42 E224.27159
G1 X143.56 Y196.87 E224.29149
G1 X143.04 Y196.29 E224.31084
G1 X142.54 Y195.68 E224.33067
G1 X142.38 Y195.48 E224.33699
G1 X142.09 Y195.05 E224.34992
G1 X141.68 Y194.38 E224.36958
G1 X141.30 Y193.68 E224.38942
G1 X140.98 Y192.97 E224.40885
G1 X140.70 Y192.24 E224.42833
G1 X140.46 Y191.48 E224.44814
G1 X140.28 Y190.72 E224.46771
G1 X140.10 Y189.69 E224.49363
G1 X140.03 Y188.92 E224.51300
G1 X140.01 Y188.39 E224.52635
G1 X140.00 Y188.14 E224.53249
G1 X140.02 Y187.60 E224.54594
G1 X140.03 Y187.34 E224.55238
G1 X140.10 Y186.57 E224.57168
G1 X140.18 Y186.04 E224.58513
G1 X140.34 Y185.27 E224.60481
G1 X140.54 Y184.52 E224.62408
G1 X140.79 Y183.76 E224.64398
G1 X141.09 Y183.05 E224.66325
G1 X141.43 Y182.34 E224.68304
G1 X141.94 Y181.44 E224.70876
G1 X142.25 Y180.99 E224.72223
G1 X142.72 Y180.36 E224.74181
G1 X143.22 Y179.77 E224.76115
G1 X143.77 Y179.20 E224.78105
G1 X144.34 Y178.67 E224.80033
G1 X144.95 Y178.18 E224.82011
G0 F12000 X145.41 Y178.50
;TYPE:FILL
G1 F6000 X152.53 Y185.62 E225.07132
G0 F12000 X152.01 Y185.67
G1 F6000 X145.10 Y178.75 E225.31525
G0 F12000 X144.78 Y179.01
G1 F6000 X151.58 Y185.80 E225.55489
G0 F12000 X151.20 Y185.99
G1 F6000 X144.48 Y179.27 E225.79172
G0 F12000 X144.19 Y179.54
G1 F6000 X150.87 Y186.22 E226.02740
G0 F12000 X150.59 Y186.51
G1 F6000 X143.91 Y179.83 E226.26309
G0 F12000 X143.63 Y180.12
G1 F6000 X150.35 Y186.84 E226.50015
G0 F12000 X150.16 Y187.22
G1 F6000 X143.37 Y180.42 E226.73976
G0 F12000 X143.11 Y180.73
G1 F6000 X150.04 Y187.66 E226.98402
G0 F12000 X149.99 Y188.17
G1 F6000 X142.87 Y181.06 E227.23511
G0 F12000 X142.63 Y181.38
G1 F6000 X150.10 Y188.85 E227.49837
G0 F12000 X151.79 Y190.54
G1 F6000 X159.25 Y198.00 E227.76144
G0 F12000 X159.58 Y197.76
G1 F6000 X152.46 Y190.64 E228.01269
G0 F12000 X152.98 Y190.60
G1 F6000 X159.90 Y197.52 E228.25677
G0 F12000 X160.21 Y197.26
G1 F6000 X153.41 Y190.47 E228.49652
G0 F12000 X153.79 Y190.28
G1 F6000 X160.51 Y197.00 E228.73341
G0 F12000 X160.81 Y196.73
G1 F6000 X154.12 Y190.05 E228.96906
G0 F12000 X154.41 Y189.76
G1 F6000 X161.09 Y196.44 E229.20474
G0 F12000 X161.36 Y196.15
G1 F6000 X154.64 Y189.43 E229.44178
G0 F12000 X154.83 Y189.06
G1 F6000 X161.62 Y195.85 E229.68132
G0 F12000 X161.88 Y195.54
G1 F6000 X154.96 Y188.62 E229.92551
G0 F12000 X155.01 Y188.10
G1 F6000 X162.12 Y195.22 E230.17643
G0 F12000 X162.36 Y194.89
G1 F6000 X154.91 Y187.44 E230.43928
G0 F12000 X155.51 Y188.50
G1 F6000 X152.13 Y185.13 E230.55845
G0 F12000 X153.19 Y185.72
G1 F6000 X145.74 Y178.27 E230.82130
G0 F12000 X146.09 Y178.05
G1 F6000 X162.58 Y194.54 E231.40319
G0 F12000 X162.80 Y194.19
G1 F6000 X146.44 Y177.83 E231.98040
G0 F12000 X146.80 Y177.63
G1 F6000 X163.00 Y193.83 E232.55197
G0 F12000 X163.20 Y193.46
G1 F6000 X147.17 Y177.43 E233.11733
G0 F12000 X147.56 Y177.25
G1 F6000 X163.38 Y193.08 E233.67557
G0 F12000 X163.55 Y192.68
G1 F6000 X147.95 Y177.08 E234.22590
G0 F12000 X148.36 Y176.93
G1 F6000 X163.71 Y192.28 E234.76748
G0 F12000 X163.85 Y191.85
G1 F6000 X148.78 Y176.78 E235.29935
G0 F12000 X149.21 Y176.64
G1 F6000 X163.99 Y191.42 E235.82072
G0 F12000 X164.11 Y190.98
G1 F6000 X149.66 Y176.53 E236.33051
G0 F12000 X150.12 Y176.42
G1 F6000 X164.21 Y190.51 E236.82767
G0 F12000 X164.30 Y190.04
G1 F6000 X150.60 Y176.34 E237.31106
G0 F12000 X151.09 Y176.26
G1 F6000 X164.37 Y189.55 E237.77979
G0 F12000 X164.42 Y189.03
G1 F6000 X151.60 Y176.21 E238.23200
G0 F12000 X152.14 Y176.19
G1 F6000 X164.45 Y188.49 E238.66602
G0 F12000 X164.45 Y187.93
G1 F6000 X152.70 Y176.18 E239.08043
G0 F12000 X153.29 Y176.20
G1 F6000 X164.43 Y187.34 E239.47348
G0 F12000 X164.37 Y186.72
G1 F6000 X153.91 Y176.26 E239.84241
G0 F12000 X154.59 Y176.36
G1 F6000 X164.26 Y186.04 E240.18381
G0 F12000 X164.12 Y185.33
G1 F6000 X155.30 Y176.51 E240.49478
G0 F12000 X156.09 Y176.73
G1 F6000 X163.90 Y184.54 E240.77030
G0 F12000 X163.58 Y183.66
G1 F6000 X156.97 Y177.05 E241.00358
G0 F12000 X158.01 Y177.52
G1 F6000 X163.10 Y182.62 E241.18317
G0 F12000 X162.19 Y181.14
G1 F6000 X159.49 Y178.44 E241.27826
G0 F12000 X155.49 Y188.59
G1 F6000 X152.96 Y191.13 E241.36754
G0 F12000 X154.39 Y199.93
G1 F6000 X140.70 Y186.23 E241.85065
G0 F12000 X140.79 Y185.76
G1 F6000 X154.87 Y199.85 E242.34757
G0 F12000 X155.33 Y199.74
G1 F6000 X140.89 Y185.29 E242.85712
G0 F12000 X141.01 Y184.85
G1 F6000 X155.78 Y199.62 E243.37833
G0 F12000 X156.22 Y199.49
G1 F6000 X141.14 Y184.42 E243.91000
G0 F12000 X141.29 Y184.00
G1 F6000 X156.63 Y199.34 E244.45144
G0 F12000 X157.04 Y199.19
G1 F6000 X141.45 Y183.59 E245.00160
G0 F12000 X141.62 Y183.19
G1 F6000 X157.44 Y199.01 E245.55969
G0 F12000 X157.82 Y198.84
G1 F6000 X141.80 Y182.81 E246.12494
G0 F12000 X141.99 Y182.44
G1 F6000 X158.19 Y198.64 E246.69643
G0 F12000 X158.56 Y198.44
G1 F6000 X142.20 Y182.08 E247.27345
G0 F12000 X142.41 Y181.72
G1 F6000 X158.91 Y198.22 E247.85549
G0 F12000 X153.90 Y200.01
G1 F6000 X140.62 Y186.73 E248.32391
G0 F12000 X140.58 Y187.25
G1 F6000 X153.39 Y200.06 E248.77582
G0 F12000 X152.85 Y200.08
G1 F6000 X140.55 Y187.79 E249.20950
G0 F12000 X140.55 Y188.35
G1 F6000 X152.28 Y200.09 E249.62352
G0 F12000 X151.70 Y200.06
G1 F6000 X140.57 Y188.94 E250.01609
G0 F12000 X140.63 Y189.56
G1 F6000 X151.07 Y200.00 E250.38460
G0 F12000 X150.40 Y199.90
G1 F6000 X140.74 Y190.24 E250.72546
G0 F12000 X140.89 Y190.95
G1 F6000 X149.69 Y199.75 E251.03579
G0 F12000 X148.90 Y199.53
G1 F6000 X141.11 Y191.74 E251.31055
G0 F12000 X141.42 Y192.62
G1 F6000 X148.01 Y199.21 E251.54304
G0 F12000 X146.97 Y198.73
G1 F6000 X141.91 Y193.68 E251.72138
G0 F12000 X142.80 Y195.12
G1 F6000 X145.46 Y197.79 E251.81547
;LAYER:7
G0 F12000 X145.52 Y198.01 Z1.30
;TYPE:WALL-INNER
G1 F6000 X144.93 Y197.56 E251.83414
G1 X144.35 Y197.07 E251.85321
G1 X143.80 Y196.54 E251.87210
G1 X143.29 Y195.98 E251.89092
G1 X142.81 Y195.38 E251.91013
G1 X142.39 Y194.77 E251.92868
G1 X141.99 Y194.12 E251.94782
G1 X141.63 Y193.43 E251.96704
G1 X141.31 Y192.73 E251.98627
G1 X141.05 Y192.04 E252.00462
G1 X140.83 Y191.31 E252.02375
G1 X140.65 Y190.56 E252.04288
G1 X140.52 Y189.82 E252.06168
G1 X140.44 Y189.07 E252.08051
G1 X140.41 Y188.30 E252.09981
G1 X140.40 Y188.13 E252.10388
G1 X140.42 Y187.54 E252.11870
G1 X140.43 Y187.36 E252.12327
G1 X140.48 Y186.81 E252.13697
G1 X140.59 Y186.03 E252.15653
G1 X140.74 Y185.29 E252.17546
G1 X140.94 Y184.56 E252.19427
G1 X141.19 Y183.85 E252.21319
G1 X141.48 Y183.14 E252.23228
G1 X141.82 Y182.46 E252.25111
G1 X142.20 Y181.80 E252.27009
G1 X142.62 Y181.16 E252.28913
G1 X143.07 Y180.56 E252.30802
G1 X143.57 Y179.98 E252.32709
G1 X144.10 Y179.44 E252.34598
G1 X144.65 Y178.93 E252.36480
G1 X145.26 Y178.45 E252.38401
G1 X145.87 Y178.02 E252.40256
G1 X146.52 Y177.62 E252.42170
G1 X147.20 Y177.26 E252.44092
G1 X147.90 Y176.95 E252.45998
G1 X148.04 Y176.88 E252.46393
G1 X148.60 Y176.69 E252.47867
G1 X149.33 Y176.46 E252.49781
G1 X150.06 Y176.29 E252.51649
G1 X150.81 Y176.16 E252.53557
G1 X151.56 Y176.07 E252.55439
G1 X152.34 Y176.04 E252.57369
G1 X152.50 Y176.03 E252.57776
G1 X153.09 Y176.05 E252.59259
G1 X153.27 Y176.06 E252.59698
G1 X153.83 Y176.11 E252.61098
G1 X154.60 Y176.22 E252.63036
G1 X155.33 Y176.37 E252.64894
G1 X156.09 Y176.58 E252.66852
G1 X156.79 Y176.82 E252.68704
G1 X157.49 Y177.12 E252.70613
G1 X158.17 Y177.45 E252.72482
G1 X158.84 Y177.83 E252.74411
G1 X159.47 Y178.25 E252.76299
G1 X160.07 Y178.70 E252.78187
G1 X160.65 Y179.20 E252.80094
G1 X161.20 Y179.73 E252.81983
G1 X161.71 Y180.29 E252.83866
G1 X162.18 Y180.88 E252.85754
G1 X162.62 Y181.51 E252.87691
G1 X163.01 Y182.15 E252.89543
G1 X163.37 Y182.83 E252.91478
G1 X163.69 Y183.53 E252.93384
G1 X163.75 Y183.68 E252.93778
G1 X163.95 Y184.23 E252.95236
G1 X164.17 Y184.96 E252.97149
G1 X164.35 Y185.71 E252.99062
G1 X164.48 Y186.45 E253.00942
G1 X164.56 Y187.20 E253.02824
G1 X164.59 Y187.97 E253.04755
G1 X164.60 Y188.13 E253.05161
G1 X164.58 Y188.73 E253.06646
G1 X164.57 Y188.91 E253.07086
G1 X164.52 Y189.46 E253.08471
G1 X164.41 Y190.23 E253.10426
G1 X164.26 Y190.98 E253.12320
G1 X164.06 Y191.70 E253.14201
G1 X163.81 Y192.42 E253.16092
G1 X163.52 Y193.13 E253.18001
G1 X163.19 Y193.80 E253.19870
G1 X162.80 Y194.47 E253.21800
G1 X162.38 Y195.10 E253.23687
G1 X161.93 Y195.71 E253.25576
G1 X161.43 Y196.29 E253.27482
G1 X160.90 Y196.83 E253.29372
G1 X160.35 Y197.34 E253.31254
G1 X159.75 Y197.81 E253.33152
G1 X159.13 Y198.25 E253.35055
G1 X158.48 Y198.65 E253.36943
G1 X157.80 Y199.01 E253.38866
G1 X157.10 Y199.32 E253.40772
G1 X156.96 Y199.38 E253.41167
G1 X156.41 Y199.58 E253.42625
G1 X155.67 Y199.81 E253.44537
G1 X154.93 Y199.98 E253.46451
G1 X154.19 Y200.11 E253.48331
G1 X153.44 Y200.19 E253.50213
G1 X152.66 Y200.23 E253.52143
G1 X152.50 Y200.23 E253.52548
G1 X151.73 Y200.21 E253.54472
G1 X151.17 Y200.16 E253.55872
G1 X150.40 Y200.05 E253.57813
G1 X149.66 Y199.89 E253.59706
G1 X148.93 Y199.69 E253.61587
G1 X148.21 Y199.44 E253.63479
G1 X147.51 Y199.15 E253.65388
G1 X146.83 Y198.82 E253.67258
G1 X146.17 Y198.44 E253.69165
G1 X145.52 Y198.01 E253.71095
G0 F12000 X145.30 Y198.35
;TYPE:WALL-OUTER
G1 F6000 X144.67 Y197.88 E253.73058
G1 X144.07 Y197.36 E253.75031
G1 X143.52 Y196.82 E253.76964
G1 X142.99 Y196.24 E253.78921
G1 X142.50 Y195.63 E253.80875
G1 X142.04 Y194.97 E253.82861
G1 X141.63 Y194.31 E253.84820
G1 X141.27 Y193.61 E253.86778
G1 X140.95 Y192.89 E253.88738
G1 X140.88 Y192.74 E253.89163
G1 X140.67 Y192.16 E253.90690
G1 X140.44 Y191.42 E253.92623
G1 X140.26 Y190.65 E253.94613
G1 X140.13 Y189.88 E253.96544
G1 X140.04 Y189.09 E253.98529
G1 X140.01 Y188.31 E254.00486
G1 X140.00 Y188.14 E254.00903
G1 X140.03 Y187.34 E254.02895
G1 X140.08 Y186.75 E254.04373
G1 X140.19 Y185.97 E254.06331
G1 X140.35 Y185.21 E254.08290
G1 X140.56 Y184.44 E254.10280
G1 X140.81 Y183.71 E254.12206
G1 X141.12 Y182.97 E254.14196
G1 X141.46 Y182.28 E254.16120
G1 X141.85 Y181.60 E254.18081
G1 X142.28 Y180.94 E254.20039
G1 X142.75 Y180.31 E254.21998
G1 X143.27 Y179.71 E254.23987
G1 X143.81 Y179.15 E254.25913
G1 X144.39 Y178.62 E254.27872
G1 X145.01 Y178.13 E254.29831
G1 X145.66 Y177.68 E254.31817
G1 X146.33 Y177.27 E254.33777
G1 X147.02 Y176.90 E254.35734
G1 X147.74 Y176.58 E254.37689
G1 X148.47 Y176.31 E254.39645
G1 X149.22 Y176.08 E254.41593
G1 X149.98 Y175.90 E254.43538
G1 X150.75 Y175.76 E254.45497
G1 X151.54 Y175.68 E254.47469
G1 X152.33 Y175.64 E254.49442
G1 X152.50 Y175.63 E254.49876
G1 X153.29 Y175.66 E254.51840
G1 X153.88 Y175.71 E254.53333
G1 X154.66 Y175.82 E254.55289
G1 X155.43 Y175.99 E254.57262
G1 X156.20 Y176.20 E254.59233
G1 X156.93 Y176.45 E254.61159
G1 X157.66 Y176.75 E254.63149
G1 X158.36 Y177.09 E254.65076
G1 X159.05 Y177.49 E254.67068
G1 X159.70 Y177.92 E254.69004
G1 X160.33 Y178.39 E254.70967
G1 X160.93 Y178.91 E254.72940
G1 X161.48 Y179.44 E254.74866
G1 X162.01 Y180.03 E254.76824
G1 X162.50 Y180.64 E254.78784
G1 X162.96 Y181.29 E254.80772
G1 X163.36 Y181.95 E254.82698
G1 X163.73 Y182.66 E254.84687
G1 X164.05 Y183.37 E254.86642
G1 X164.32 Y184.10 E254.88574
G1 X164.56 Y184.85 E254.90531
G1 X164.74 Y185.62 E254.92521
G1 X164.87 Y186.38 E254.94450
G1 X164.96 Y187.16 E254.96405
G1 X164.99 Y187.96 E254.98390
G1 X165.00 Y188.13 E254.98814
G1 X164.97 Y188.92 E255.00796
G1 X164.92 Y189.51 E255.02281
G1 X164.81 Y190.29 E255.04239
G1 X164.65 Y191.06 E255.06199
G1 X164.44 Y191.83 E255.08184
G1 X164.19 Y192.56 E255.10114
G1 X163.88 Y193.30 E255.12105
G1 X163.54 Y193.99 E255.14031
G1 X163.14 Y194.68 E255.16015
G1 X162.72 Y195.33 E255.17947
G1 X162.25 Y195.96 E255.19907
G1 X161.73 Y196.56 E255.21895
G1 X161.19 Y197.11 E255.23821
G1 X160.61 Y197.64 E255.25780
G1 X159.99 Y198.13 E255.27739
G1 X159.34 Y198.59 E255.29718
G1 X158.67 Y199.00 E255.31680
G1 X157.98 Y199.37 E255.33640
G1 X157.26 Y199.69 E255.35597
G1 X156.53 Y199.96 E255.37540
G1 X155.79 Y200.19 E255.39487
G1 X155.01 Y200.37 E255.41479
G1 X154.25 Y200.50 E255.43405
G1 X153.46 Y200.59 E255.45375
G1 X152.67 Y200.63 E255.47353
G1 X152.50 Y200.63 E255.47782
G1 X151.71 Y200.61 E255.49749
G1 X151.12 Y200.55 E255.51242
G1 X150.34 Y200.44 E255.53198
G1 X149.57 Y200.28 E255.55170
G1 X148.80 Y200.07 E255.57142
G1 X148.07 Y199.82 E255.59067
G1 X147.34 Y199.51 E255.61058
G1 X146.64 Y199.17 E255.62985
G1 X145.95 Y198.78 E255.64976
G1 X145.30 Y198.35 E255.66913
G0 F12000 X145.69 Y197.96
;TYPE:FILL
G1 F6000 X153.08 Y190.57 E255.92980
G0 F12000 X152.96 Y191.13
G1 F6000 X155.49 Y188.60 E256.01901
G0 F12000 X155.51 Y188.50
G1 F6000 X152.13 Y185.13 E256.13811
G0 F12000 X152.37 Y185.62
G1 F6000 X159.53 Y178.47 E256.39059
G0 F12000 X159.85 Y178.71
G1 F6000 X152.90 Y185.66 E256.63570
G0 F12000 X153.35 Y185.77
G1 F6000 X160.16 Y178.96 E256.87593
G0 F12000 X160.47 Y179.22
G1 F6000 X153.74 Y185.95 E257.11331
G0 F12000 X154.08 Y186.18
G1 F6000 X160.76 Y179.50 E257.34900
G0 F12000 X161.05 Y179.78
G1 F6000 X154.37 Y186.46 E257.58466
G0 F12000 X154.61 Y186.78
G1 F6000 X161.32 Y180.07 E257.82126
G0 F12000 X161.59 Y180.37
G1 F6000 X154.81 Y187.15 E258.06052
G0 F12000 X154.95 Y187.57
G1 F6000 X161.84 Y180.68 E258.30370
G0 F12000 X162.09 Y181.00
G1 F6000 X155.01 Y188.08 E258.55347
G0 F12000 X154.94 Y188.71
G1 F6000 X162.32 Y181.33 E258.81389
G0 F12000 X162.55 Y181.67
G1 F6000 X146.03 Y198.18 E259.39652
G0 F12000 X146.38 Y198.40
G1 F6000 X162.77 Y182.02 E259.97442
G0 F12000 X162.97 Y182.38
G1 F6000 X146.74 Y198.61 E260.54694
G0 F12000 X147.11 Y198.80
G1 F6000 X163.17 Y182.75 E261.11329
G0 F12000 X163.35 Y183.13
G1 F6000 X147.49 Y198.99 E261.67274
G0 F12000 X147.89 Y199.16
G1 F6000 X163.53 Y183.52 E262.22438
G0 F12000 X163.69 Y183.92
G1 F6000 X148.29 Y199.32 E262.76757
G0 F12000 X148.71 Y199.47
G1 F6000 X163.84 Y184.34 E263.30107
G0 F12000 X163.97 Y184.78
G1 F6000 X149.14 Y199.60 E263.82413
G0 F12000 X149.59 Y199.72
G1 F6000 X164.09 Y185.22 E264.33580
G0 F12000 X164.20 Y185.68
G1 F6000 X150.05 Y199.83 E264.83500
G0 F12000 X150.52 Y199.92
G1 F6000 X164.28 Y186.16 E265.32053
G0 F12000 X164.36 Y186.65
G1 F6000 X151.01 Y199.99 E265.79120
G0 F12000 X151.52 Y200.05
G1 F6000 X164.41 Y187.16 E266.24586
G0 F12000 X164.44 Y187.70
G1 F6000 X152.06 Y200.08 E266.68256
G0 F12000 X152.62 Y200.09
G1 F6000 X164.45 Y188.25 E267.10018
G0 F12000 X164.44 Y188.83
G1 F6000 X153.21 Y200.06 E267.49624
G0 F12000 X153.83 Y200.01
G1 F6000 X164.38 Y189.45 E267.86853
G0 F12000 X164.29 Y190.11
G1 F6000 X154.49 Y199.92 E268.21432
G0 F12000 X155.19 Y199.78
G1 F6000 X164.15 Y190.82 E268.53020
G0 F12000 X163.94 Y191.59
G1 F6000 X155.97 Y199.57 E268.81163
G0 F12000 X156.81 Y199.28
G1 F6000 X163.64 Y192.46 E269.05247
G0 F12000 X163.19 Y193.47
G1 F6000 X157.84 Y198.83 E269.24131
G0 F12000 X159.21 Y198.03
G1 F6000 X162.39 Y194.84 E269.35365
G0 F12000 X152.45 Y190.64
G1 F6000 X145.37 Y197.72 E269.60350
G0 F12000 X145.04 Y197.48
G1 F6000 X151.94 Y190.58 E269.84690
G0 F12000 X151.52 Y190.44
G1 F6000 X144.74 Y197.22 E270.08601
G0 F12000 X144.43 Y196.96
G1 F6000 X151.14 Y190.25 E270.32271
G0 F12000 X150.82 Y190.00
G1 F6000 X144.15 Y196.68 E270.55829
G0 F12000 X143.86 Y196.40
G1 F6000 X150.55 Y189.71 E270.79420
G0 F12000 X150.32 Y189.38
G1 F6000 X143.59 Y196.10 E271.03139
G0 F12000 X143.33 Y195.80
G1 F6000 X150.14 Y188.99 E271.27163
G0 F12000 X150.03 Y188.54
G1 F6000 X143.08 Y195.48 E271.51667
G0 F12000 X142.84 Y195.16
G1 F6000 X150.00 Y188.00 E271.76924
G0 F12000 X150.13 Y187.30
G1 F6000 X142.60 Y194.83 E272.03493
G0 F12000 X142.38 Y194.49
G1 F6000 X158.85 Y178.01 E272.61613
G0 F12000 X159.20 Y178.23
G1 F6000 X151.66 Y185.77 E272.88200
G0 F12000 X148.78 Y176.78
G1 F6000 X141.14 Y184.41 E273.15124
G0 F12000 X140.91 Y185.21
G1 F6000 X149.57 Y176.55 E273.45671
G0 F12000 X150.30 Y176.39
G1 F6000 X140.75 Y185.93 E273.79337
G0 F12000 X140.65 Y186.60
G1 F6000 X150.97 Y176.28 E274.15741
G0 F12000 X151.60 Y176.21
G1 F6000 X140.58 Y187.24 E274.54630
G0 F12000 X140.55 Y187.83
G1 F6000 X152.19 Y176.18 E274.95707
G0 F12000 X152.76 Y176.18
G1 F6000 X140.55 Y188.40 E275.38794
G0 F12000 X140.57 Y188.94
G1 F6000 X153.31 Y176.20 E275.83718
G0 F12000 X153.83 Y176.25
G1 F6000 X140.62 Y189.45 E276.30290
G0 F12000 X140.69 Y189.95
G1 F6000 X154.32 Y176.32 E276.78377
G0 F12000 X154.80 Y176.41
G1 F6000 X140.77 Y190.44 E277.27871
G0 F12000 X140.88 Y190.90
G1 F6000 X155.27 Y176.50 E277.78650
G0 F12000 X155.72 Y176.62
G1 F6000 X140.99 Y191.35 E278.30600
G0 F12000 X141.12 Y191.78
G1 F6000 X156.15 Y176.75 E278.83626
G0 F12000 X156.57 Y176.90
G1 F6000 X141.26 Y192.21 E279.37634
G0 F12000 X141.42 Y192.62
G1 F6000 X156.98 Y177.05 E279.92539
G0 F12000 X157.38 Y177.22
G1 F6000 X141.59 Y193.01 E280.48246
G0 F12000 X141.77 Y193.40
G1 F6000 X157.76 Y177.40 E281.04674
G0 F12000 X158.14 Y177.59
G1 F6000 X141.96 Y193.77 E281.61743
G0 F12000 X142.16 Y194.13
G1 F6000 X158.50 Y177.80 E282.19369
G0 F12000 X147.87 Y177.11
G1 F6000 X141.48 Y183.50 E282.41912
G0 F12000 X142.00 Y182.42
G1 F6000 X146.78 Y177.64 E282.58760
G0 F12000 X145.12 Y178.74
G1 F6000 X143.09 Y180.77 E282.65936
;LAYER:8
G0 F12000 X143.12 Y180.50 Z1.45
;TYPE:WALL-INNER
G1 F6000 X143.61 Y179.94 E282.67787
G1 X144.14 Y179.39 E282.69701
G1 X144.72 Y178.88 E282.71618
G1 X145.31 Y178.41 E282.73506
G1 X145.93 Y177.98 E282.75384
G1 X146.59 Y177.58 E282.77309
G1 X147.25 Y177.24 E282.79165
G1 X147.97 Y176.92 E282.81129
G1 X148.66 Y176.66 E282.82963
G1 X149.40 Y176.44 E282.84895
G1 X150.12 Y176.27 E282.86745
G1 X150.88 Y176.15 E282.88669
G1 X151.63 Y176.07 E282.90545
G1 X152.42 Y176.04 E282.92502
G1 X152.50 Y176.03 E282.92719
G1 X153.16 Y176.06 E282.94349
G1 X153.92 Y176.12 E282.96264
G1 X154.65 Y176.23 E282.98110
G1 X155.41 Y176.39 E283.00039
G1 X156.15 Y176.60 E283.01960
G1 X156.85 Y176.84 E283.03795
G1 X157.57 Y177.15 E283.05771
G1 X158.24 Y177.48 E283.07622
G1 X158.89 Y177.86 E283.09495
G1 X159.53 Y178.29 E283.11419
G1 X160.14 Y178.75 E283.13325
G1 X160.70 Y179.24 E283.15177
G1 X161.25 Y179.78 E283.17090
G1 X161.76 Y180.35 E283.19007
G1 X162.23 Y180.95 E283.20918
G1 X162.65 Y181.55 E283.22738
G1 X163.05 Y182.22 E283.24698
G1 X163.40 Y182.88 E283.26554
G1 X163.72 Y183.60 E283.28518
G1 X163.97 Y184.28 E283.30321
G1 X164.19 Y185.03 E283.32267
G1 X164.36 Y185.77 E283.34164
G1 X164.49 Y186.52 E283.36058
G1 X164.56 Y187.27 E283.37934
G1 X164.59 Y188.05 E283.39889
G1 X164.60 Y188.13 E283.40101
G1 X164.58 Y188.79 E283.41741
G1 X164.51 Y189.56 E283.43656
G1 X164.41 Y190.28 E283.45484
G1 X164.24 Y191.05 E283.47456
G1 X164.04 Y191.77 E283.49323
G1 X163.79 Y192.47 E283.51172
G1 X163.48 Y193.21 E283.53163
G1 X163.46 Y193.27 E283.53325
G1 X163.15 Y193.87 E283.55015
G1 X162.77 Y194.52 E283.56887
G1 X162.34 Y195.16 E283.58811
G1 X161.88 Y195.77 E283.60717
G1 X161.39 Y196.33 E283.62569
G1 X160.86 Y196.88 E283.64483
G1 X160.28 Y197.39 E283.66400
G1 X159.69 Y197.86 E283.68289
G1 X159.06 Y198.29 E283.70188
G1 X158.42 Y198.68 E283.72069
G1 X157.75 Y199.03 E283.73946
G1 X157.03 Y199.35 E283.75911
G1 X156.34 Y199.60 E283.77731
G1 X155.60 Y199.82 E283.79659
G1 X154.86 Y200.00 E283.81556
G1 X154.12 Y200.12 E283.83451
G1 X153.35 Y200.20 E283.85366
G1 X152.59 Y200.23 E283.87279
G1 X152.50 Y200.23 E283.87498
G1 X151.84 Y200.21 E283.89131
G1 X151.08 Y200.15 E283.91046
G1 X150.35 Y200.04 E283.92892
G1 X149.58 Y199.87 E283.94846
G1 X148.86 Y199.67 E283.96712
G1 X148.15 Y199.42 E283.98577
G1 X147.43 Y199.12 E284.00553
G1 X146.76 Y198.78 E284.02407
G1 X146.10 Y198.40 E284.04310
G1 X145.48 Y197.99 E284.06167
G1 X144.86 Y197.51 E284.08107
G1 X144.30 Y197.03 E284.09959
G1 X143.75 Y196.49 E284.11873
G1 X143.24 Y195.92 E284.13789
G1 X142.77 Y195.32 E284.15677
G1 X142.34 Y194.71 E284.17556
G1 X141.95 Y194.04 E284.19481
G1 X141.60 Y193.38 E284.21336
G1 X141.28 Y192.66 E284.23301
G1 X141.03 Y191.98 E284.25121
G1 X140.81 Y191.24 E284.27049
G1 X140.64 Y190.50 E284.28946
G1 X140.51 Y189.75 E284.30840
G1 X140.44 Y189.00 E284.32716
G1 X140.41 Y188.22 E284.34673
G1 X140.40 Y188.13 E284.34891
G1 X140.42 Y187.48 E284.36523
G1 X140.49 Y186.71 E284.38438
G1 X140.59 Y185.99 E284.40266
G1 X140.76 Y185.21 E284.42256
G1 X140.96 Y184.49 E284.44105
G1 X141.21 Y183.79 E284.45954
G1 X141.52 Y183.06 E284.47945
G1 X141.54 Y183.00 E284.48107
G1 X141.85 Y182.40 E284.49775
G1 X142.24 Y181.73 E284.51711
G1 X142.65 Y181.11 E284.53572
G1 X143.12 Y180.50 E284.55500
G0 F12000 X142.80 Y180.25
;TYPE:WALL-OUTER
G1 F6000 X143.31 Y179.66 E284.57461
G1 X143.87 Y179.10 E284.59417
G1 X144.46 Y178.57 E284.61408
G1 X145.07 Y178.08 E284.63365
G1 X145.72 Y177.64 E284.65310
G1 X146.39 Y177.23 E284.67273
G1 X147.08 Y176.87 E284.69210
G1 X147.91 Y176.51 E284.71466
G1 X148.53 Y176.28 E284.73124
G1 X149.29 Y176.06 E284.75106
G1 X150.06 Y175.88 E284.77073
G1 X150.83 Y175.75 E284.79008
G1 X151.61 Y175.67 E284.80969
G1 X152.50 Y175.63 E284.83200
G1 X153.18 Y175.66 E284.84902
G1 X153.95 Y175.72 E284.86830
G1 X154.73 Y175.84 E284.88798
G1 X155.50 Y176.00 E284.90765
G1 X156.26 Y176.22 E284.92732
G1 X157.01 Y176.48 E284.94698
G1 X157.73 Y176.78 E284.96650
G1 X158.43 Y177.13 E284.98610
G1 X159.11 Y177.53 E285.00564
G1 X159.75 Y177.96 E285.02500
G1 X160.38 Y178.44 E285.04470
G1 X160.97 Y178.95 E285.06419
G1 X161.53 Y179.50 E285.08375
G1 X162.06 Y180.09 E285.10366
G1 X162.55 Y180.71 E285.12323
G1 X163.00 Y181.35 E285.14283
G1 X163.40 Y182.03 E285.16240
G1 X163.76 Y182.71 E285.18168
G1 X164.12 Y183.54 E285.20424
G1 X164.35 Y184.17 E285.22086
G1 X164.58 Y184.93 E285.24075
G1 X164.76 Y185.69 E285.26032
G1 X164.88 Y186.46 E285.27959
G1 X164.96 Y187.24 E285.29917
G1 X165.00 Y188.14 E285.32176
G1 X164.98 Y188.82 E285.33863
G1 X164.91 Y189.59 E285.35791
G1 X164.80 Y190.37 E285.37751
G1 X164.63 Y191.15 E285.39741
G1 X164.42 Y191.89 E285.41669
G1 X164.16 Y192.64 E285.43656
G1 X163.85 Y193.36 E285.45612
G1 X163.50 Y194.06 E285.47546
G1 X163.11 Y194.74 E285.49526
G1 X162.68 Y195.39 E285.51461
G1 X162.20 Y196.01 E285.53419
G1 X161.69 Y196.61 E285.55380
G1 X161.13 Y197.17 E285.57336
G1 X160.54 Y197.70 E285.59324
G1 X159.93 Y198.19 E285.61282
G1 X159.28 Y198.63 E285.63231
G1 X158.61 Y199.03 E285.65192
G1 X157.92 Y199.39 E285.67129
G1 X157.09 Y199.76 E285.69385
G1 X156.47 Y199.98 E285.71047
G1 X155.70 Y200.21 E285.73037
G1 X154.94 Y200.39 E285.74993
G1 X154.17 Y200.52 E285.76927
G1 X153.39 Y200.60 E285.78888
G1 X152.50 Y200.63 E285.81120
G1 X151.82 Y200.61 E285.82822
G1 X151.05 Y200.55 E285.84750
G1 X150.27 Y200.43 E285.86718
G1 X149.49 Y200.26 E285.88700
G1 X148.75 Y200.05 E285.90628
G1 X147.99 Y199.79 E285.92618
G1 X147.27 Y199.48 E285.94576
G1 X146.57 Y199.13 E285.96531
G1 X145.89 Y198.74 E285.98483
G1 X145.24 Y198.31 E286.00429
G1 X144.62 Y197.83 E286.02391
G1 X144.02 Y197.31 E286.04353
G1 X143.47 Y196.77 E286.06299
G1 X142.94 Y196.18 E286.08286
G1 X142.45 Y195.56 E286.10243
G1 X142.00 Y194.91 E286.12201
G1 X141.60 Y194.24 E286.14160
G1 X141.24 Y193.56 E286.16088
G1 X140.88 Y192.73 E286.18344
G1 X140.65 Y192.10 E286.20006
G1 X140.42 Y191.34 E286.21996
G1 X140.24 Y190.57 E286.23952
G1 X140.12 Y189.81 E286.25886
G1 X140.04 Y189.03 E286.27847
G1 X140.00 Y188.13 E286.30094
G1 X140.02 Y187.45 E286.31784
G1 X140.09 Y186.68 E286.33711
G1 X140.20 Y185.90 E286.35671
G1 X140.37 Y185.12 E286.37661
G1 X140.58 Y184.38 E286.39589
G1 X140.84 Y183.62 E286.41579
G1 X141.15 Y182.90 E286.43532
G1 X141.50 Y182.21 E286.45464
G1 X141.90 Y181.52 E286.47453
G1 X142.32 Y180.88 E286.49381
G1 X142.80 Y180.25 E286.51339
G0 F12000 X143.11 Y180.73
;TYPE:FILL
G1 F6000 X150.04 Y187.66 E286.75765
G0 F12000 X150.16 Y187.22
G1 F6000 X143.37 Y180.42 E286.99742
G0 F12000 X143.63 Y180.12
G1 F6000 X150.35 Y186.84 E287.23450
G0 F12000 X150.59 Y186.51
G1 F6000 X143.91 Y179.83 E287.47026
G0 F12000 X144.19 Y179.54
G1 F6000 X150.87 Y186.22 E287.70595
G0 F12000 X151.20 Y185.99
G1 F6000 X144.48 Y179.27 E287.94281
G0 F12000 X144.78 Y179.00
G1 F6000 X151.58 Y185.80 E288.18256
G0 F12000 X152.01 Y185.67
G1 F6000 X145.09 Y178.75 E288.42650
G0 F12000 X145.41 Y178.50
G1 F6000 X152.53 Y185.63 E288.67773
G0 F12000 X152.13 Y185.13
G1 F6000 X155.51 Y188.50 E288.79683
G0 F12000 X155.49 Y188.60
G1 F6000 X152.96 Y191.13 E288.88608
G0 F12000 X152.98 Y190.60
G1 F6000 X159.90 Y197.52 E289.13010
G0 F12000 X160.21 Y197.26
G1 F6000 X153.42 Y190.47 E289.36988
G0 F12000 X153.79 Y190.28
G1 F6000 X160.51 Y197.00 E289.60680
G0 F12000 X160.81 Y196.73
G1 F6000 X154.12 Y190.05 E289.84253
G0 F12000 X154.40 Y189.76
G1 F6000 X161.09 Y196.44 E290.07833
G0 F12000 X161.36 Y196.15
G1 F6000 X154.64 Y189.43 E290.31539
G0 F12000 X154.83 Y189.06
G1 F6000 X161.63 Y195.85 E290.55510
G0 F12000 X161.88 Y195.54
G1 F6000 X154.96 Y188.62 E290.79926
G0 F12000 X155.01 Y188.10
G1 F6000 X162.12 Y195.22 E291.05026
G0 F12000 X162.36 Y194.89
G1 F6000 X154.91 Y187.43 E291.31317
G0 F12000 X153.20 Y185.72
G1 F6000 X145.75 Y178.27 E291.57599
G0 F12000 X146.09 Y178.05
G1 F6000 X162.59 Y194.55 E292.15814
G0 F12000 X162.80 Y194.19
G1 F6000 X146.44 Y177.83 E292.73535
G0 F12000 X146.80 Y177.63
G1 F6000 X163.01 Y193.84 E293.30717
G0 F12000 X163.20 Y193.46
G1 F6000 X147.17 Y177.44 E293.87265
G0 F12000 X147.56 Y177.25
G1 F6000 X163.38 Y193.08 E294.43101
G0 F12000 X163.55 Y192.68
G1 F6000 X147.95 Y177.08 E294.98145
G0 F12000 X148.36 Y176.92
G1 F6000 X163.71 Y192.28 E295.52314
G0 F12000 X163.86 Y191.86
G1 F6000 X148.77 Y176.78 E296.05527
G0 F12000 X149.21 Y176.64
G1 F6000 X163.99 Y191.43 E296.57671
G0 F12000 X164.11 Y190.98
G1 F6000 X149.66 Y176.53 E297.08675
G0 F12000 X150.11 Y176.42
G1 F6000 X164.21 Y190.51 E297.58408
G0 F12000 X164.30 Y190.04
G1 F6000 X150.60 Y176.34 E298.06749
G0 F12000 X151.09 Y176.26
G1 F6000 X164.37 Y189.55 E298.53601
G0 F12000 X164.42 Y189.03
G1 F6000 X151.60 Y176.21 E298.98801
G0 F12000 X152.15 Y176.19
G1 F6000 X164.45 Y188.49 E299.42192
G0 F12000 X164.45 Y187.93
G1 F6000 X152.70 Y176.18 E299.83626
G0 F12000 X153.30 Y176.21
G1 F6000 X164.43 Y187.34 E300.22894
G0 F12000 X164.37 Y186.71
G1 F6000 X153.91 Y176.26 E300.59761
G0 F12000 X154.58 Y176.36
G1 F6000 X164.27 Y186.05 E300.93929
G0 F12000 X164.12 Y185.33
G1 F6000 X155.30 Y176.51 E301.25046
G0 F12000 X156.08 Y176.72
G1 F6000 X163.90 Y184.55 E301.52640
G0 F12000 X163.59 Y183.68
G1 F6000 X156.96 Y177.04 E301.76036
G0 F12000 X158.01 Y177.52
G1 F6000 X163.10 Y182.62 E301.94006
G0 F12000 X162.21 Y181.16
G1 F6000 X159.47 Y178.42 E302.03671
G0 F12000 X149.99 Y188.17
G1 F6000 X142.87 Y181.05 E302.28789
G0 F12000 X142.63 Y181.38
G1 F6000 X150.10 Y188.85 E302.55116
G0 F12000 X151.79 Y190.54
G1 F6000 X159.25 Y198.00 E302.81428
G0 F12000 X159.58 Y197.76
G1 F6000 X152.46 Y190.64 E303.06569
G0 F12000 X152.84 Y200.08
G1 F6000 X140.55 Y187.79 E303.49927
G0 F12000 X140.58 Y187.25
G1 F6000 X153.38 Y200.05 E303.95093
G0 F12000 X153.90 Y200.00
G1 F6000 X140.62 Y186.73 E304.41913
G0 F12000 X140.70 Y186.24
G1 F6000 X154.39 Y199.93 E304.90226
G0 F12000 X154.88 Y199.85
G1 F6000 X140.79 Y185.76 E305.39929
G0 F12000 X140.89 Y185.29
G1 F6000 X155.34 Y199.74 E305.90902
G0 F12000 X155.78 Y199.62
G1 F6000 X141.01 Y184.85 E306.43025
G0 F12000 X141.14 Y184.41
G1 F6000 X156.22 Y199.49 E306.96220
G0 F12000 X156.64 Y199.34
G1 F6000 X141.28 Y183.99 E307.50375
G0 F12000 X141.44 Y183.59
G1 F6000 X157.05 Y199.19 E308.05411
G0 F12000 X157.44 Y199.01
G1 F6000 X141.61 Y183.19 E308.61231
G0 F12000 X141.80 Y182.81
G1 F6000 X157.82 Y198.83 E309.17766
G0 F12000 X158.19 Y198.64
G1 F6000 X141.99 Y182.43 E309.74938
G0 F12000 X142.20 Y182.08
G1 F6000 X158.56 Y198.44 E310.32647
G0 F12000 X158.91 Y198.22
G1 F6000 X142.41 Y181.72 E310.90852
G0 F12000 X140.55 Y188.35
G1 F6000 X152.28 Y200.09 E311.32249
G0 F12000 X151.69 Y200.06
G1 F6000 X140.57 Y188.94 E311.71467
G0 F12000 X140.63 Y189.57
G1 F6000 X151.07 Y200.00 E312.08284
G0 F12000 X150.41 Y199.90
G1 F6000 X140.74 Y190.23 E312.42398
G0 F12000 X140.89 Y190.95
G1 F6000 X149.69 Y199.75 E312.73453
G0 F12000 X148.91 Y199.54
G1 F6000 X141.10 Y191.73 E313.00987
G0 F12000 X141.41 Y192.60
G1 F6000 X148.02 Y199.21 E313.24302
G0 F12000 X146.97 Y198.73
G1 F6000 X141.91 Y193.67 E313.42160
G0 F12000 X142.82 Y195.15
G1 F6000 X145.49 Y197.81 E313.51565
;LAYER:9
G0 F12000 X145.41 Y197.94 Z1.60
;TYPE:WALL-INNER
G1 F6000 X144.81 Y197.47 E313.53457
G1 X144.24 Y196.98 E313.55338
G1 X143.71 Y196.44 E313.57227
G1 X143.20 Y195.87 E313.59135
G1 X142.72 Y195.25 E313.61091
G1 X142.30 Y194.64 E313.62933
G1 X141.91 Y193.99 E313.64821
G1 X141.57 Y193.32 E313.66709
G1 X141.26 Y192.62 E313.68617
G1 X141.00 Y191.90 E313.70506
G1 X140.79 Y191.16 E313.72435
G1 X140.62 Y190.43 E313.74312
G1 X140.50 Y189.68 E313.76194
G1 X140.43 Y188.93 E313.78079
G1 X140.40 Y188.15 E313.80038
G1 X140.43 Y187.35 E313.82012
G1 X140.49 Y186.66 E313.83764
G1 X140.61 Y185.90 E313.85684
G1 X140.77 Y185.16 E313.87562
G1 X140.99 Y184.42 E313.89491
G1 X141.24 Y183.70 E313.91379
G1 X141.54 Y183.01 E313.93269
G1 X141.88 Y182.34 E313.95140
G1 X142.27 Y181.67 E313.97072
G1 X142.70 Y181.04 E313.98965
G1 X143.16 Y180.44 E314.00857
G1 X143.66 Y179.88 E314.02738
G1 X144.19 Y179.34 E314.04627
G1 X144.76 Y178.83 E314.06535
G1 X145.38 Y178.35 E314.08491
G1 X145.99 Y177.93 E314.10332
G1 X146.64 Y177.55 E314.12221
G1 X147.32 Y177.20 E314.14108
G1 X148.02 Y176.90 E314.16016
G1 X148.73 Y176.64 E314.17917
G1 X149.46 Y176.42 E314.19814
G1 X150.21 Y176.25 E314.21720
G1 X150.95 Y176.13 E314.23594
G1 X151.70 Y176.06 E314.25476
G1 X152.49 Y176.03 E314.27438
